; generated by PrusaSlicer 2.5.0+linux-x64-GTK2 on 2023-07-15 at 18:45:30 UTC

; 

; external perimeters extrusion width = 0.42mm
; perimeters extrusion width = 0.44mm
; infill extrusion width = 0.44mm
; solid infill extrusion width = 0.44mm
; top infill extrusion width = 0.40mm
; first layer extrusion width = 0.42mm

M107
;TYPE:Custom
G90 ; use absolute coordinates
M83 ; extruder relative mode
M140 S60 ; set final bed temp
M104 S150 ; set temporary nozzle temp to prevent oozing during homing
G4 S10 ; allow partial nozzle warmup
G28 ; home all axis
G1 Z50 F240
G1 X2 Y10 F3000
M104 S210 ; set final nozzle temp
M190 S60 ; wait for bed temp to stabilize
M109 S210 ; wait for nozzle temp to stabilize
G1 Z0.28 F240
G92 E0
G1 Y140 E10 F1500 ; prime the nozzle
G1 X2.3 F5000
G92 E0
G1 Y10 E10 F1200 ; prime the nozzle
G92 E0
G21 ; set units to millimeters
G90 ; use absolute coordinates
M83 ; use relative distances for extrusion
; Filament gcode
M107
;LAYER_CHANGE
;Z:0.2
;HEIGHT:0.2
;BEFORE_LAYER_CHANGE
G92 E0
;0.2


G1 E-5 F3600
G1 Z.2 F9000
;AFTER_LAYER_CHANGE
;0.2
G1 X78.797 Y80.258
G1 E5 F2400
M204 S500
;TYPE:Skirt/Brim
;WIDTH:0.42
G1 F1200
G1 X80.97 Y78.125 E.09547
G1 X83.111 Y76.255 E.08914
G1 X85.516 Y74.387 E.09547
G1 X88.122 Y72.606 E.09896
G1 X90.636 Y71.099 E.0919
G1 X93.532 Y69.596 E.10232
G1 X96.168 Y68.426 E.09041
G1 X98.967 Y67.373 E.09377
G1 X102.07 Y66.416 E.1018
G1 X105.029 Y65.7 E.09547
G1 X107.826 Y65.192 E.08914
G1 X110.849 Y64.822 E.09547
G1 X113.888 Y64.634 E.09547
G1 X117.135 Y64.634 E.1018
G1 X119.972 Y64.804 E.08914
G1 X122.996 Y65.162 E.09547
G1 X125.993 Y65.7 E.09547
G1 X128.953 Y66.416 E.09547
G1 X132.055 Y67.373 E.1018
G1 X134.858 Y68.427 E.09388
G1 X137.733 Y69.711 E.09873
G1 X140.247 Y71.019 E.08886
G1 X142.896 Y72.603 E.09678
G1 X145.343 Y74.269 E.09279
G1 X147.755 Y76.126 E.09547
G1 X150.2 Y78.263 E.1018
G1 X152.226 Y80.258 E.08914
G1 X154.267 Y82.516 E.09547
G1 X156.292 Y85.055 E.1018
G1 X157.928 Y87.38 E.08914
G1 X159.534 Y89.967 E.09547
G1 X160.982 Y92.645 E.09547
G1 X162.268 Y95.405 E.09547
G1 X163.454 Y98.428 E.1018
G1 X164.389 Y101.326 E.09547
G1 X165.104 Y104.077 E.08914
G1 X165.732 Y107.263 E.1018
G1 X166.134 Y110.281 E.09547
G1 X166.356 Y113.318 E.09547
G1 X166.399 Y116.16 E.08914
G1 X166.268 Y119.202 E.09547
G1 X165.929 Y122.431 E.1018
G1 X165.424 Y125.434 E.09547
G1 X164.74 Y128.401 E.09547
G1 X163.943 Y131.13 E.08914
G1 X162.922 Y133.999 E.09547
G1 X161.646 Y136.984 E.1018
G1 X160.374 Y139.527 E.08914
G1 X158.857 Y142.167 E.09547
G1 X157.184 Y144.711 E.09547
G1 X155.396 Y147.107 E.09374
G1 X153.261 Y149.631 E.10363
G1 X151.155 Y151.825 E.09536
G1 X149.071 Y153.759 E.08914
G1 X146.563 Y155.821 E.1018
G1 X144.096 Y157.605 E.09545
G1 X141.556 Y159.226 E.09449
G1 X137.71 Y161.298 E.13696
G1 X136.155 Y162.019 E.05374
G1 X133.32 Y163.174 E.09599
G1 X130.433 Y164.155 E.09559
G1 X127.689 Y164.913 E.08925
G1 X124.455 Y165.598 E.10366
G1 X121.495 Y166.039 E.09386
G1 X118.458 Y166.306 E.09559
G1 X115.612 Y166.392 E.08925
G1 X112.565 Y166.306 E.09559
G1 X109.528 Y166.039 E.09559
G1 X106.567 Y165.598 E.09385
G1 X103.333 Y164.913 E.10366
G1 X100.589 Y164.155 E.08925
G1 X97.702 Y163.174 E.09559
G1 X94.859 Y162.015 E.09628
G1 X93.312 Y161.298 E.05345
G1 X89.388 Y159.178 E.13985
G1 X86.926 Y157.605 E.09159
G1 X84.46 Y155.821 E.09546
G1 X81.952 Y153.758 E.1018
G1 X79.724 Y151.683 E.09547
G1 X77.626 Y149.481 E.09537
G1 X75.786 Y147.309 E.08924
G1 X73.954 Y144.877 E.09548
G1 X72.166 Y142.167 E.1018
G1 X70.648 Y139.527 E.09547
G1 X69.292 Y136.801 E.09547
G1 X68.175 Y134.187 E.08914
G1 X67.142 Y131.322 E.09547
G1 X66.231 Y128.206 E.1018
G1 X65.56 Y125.236 E.09547
G1 X65.094 Y122.431 E.08914
G1 X64.754 Y119.202 E.1018
G1 X64.624 Y116.16 E.09547
G1 X64.675 Y113.116 E.09547
G1 X64.909 Y110.08 E.09547
G1 X65.291 Y107.263 E.08914
G1 X65.918 Y104.077 E.1018
G1 X66.69 Y101.132 E.09547
G1 X67.569 Y98.428 E.08914
G1 X68.675 Y95.591 E.09547
G1 X69.95 Y92.826 E.09547
G1 X71.488 Y89.967 E.1018
G1 X73.094 Y87.38 E.09547
G1 X74.731 Y85.055 E.08914
G1 X76.755 Y82.516 E.1018
G1 X78.757 Y80.302 E.09359
G1 E-3.5 F3600
;WIPE_START
G1 F7200
G1 X80.896 Y78.199 E-1.425
;WIPE_END
G1 E-.075 F3600
G1 X90.96 Y77.762 F9000
G1 E5 F2400
;TYPE:Perimeter
;WIDTH:0.419999
G1 F1200
G1 X91.122 Y78.054 E.01045
G1 X91.395 Y78.421 E.01434
G1 X91.906 Y78.943 E.02291
G1 X92.246 Y79.21 E.01354
G1 X92.872 Y79.586 E.0229
G1 X93.268 Y79.759 E.01354
G1 X93.969 Y79.964 E.0229
G1 X94.387 Y80.032 E.01328
G1 X95.081 Y80.056 E.02179
G1 X95.506 Y80.017 E.01339
G1 X96.254 Y79.851 E.02401
G1 X96.672 Y79.7 E.01394
G1 X97.32 Y79.362 E.02291
G1 X97.674 Y79.115 E.01354
G1 X98.216 Y78.625 E.02291
G1 X98.497 Y78.297 E.01354
G1 X98.897 Y77.686 E.02291
G1 X99.086 Y77.298 E.01354
G1 X99.319 Y76.606 E.0229
G1 X99.404 Y76.189 E.01334
G1 X99.455 Y75.496 E.02178
G1 X99.433 Y75.073 E.01328
G1 X99.299 Y74.319 E.02401
G1 X99.157 Y73.881 E.01444
G1 X99.023 Y73.602 E.0097
G1 X100.954 Y72.88 E.06463
G1 X103.53 Y72.086 E.08452
G1 X106.147 Y71.447 E.08449
G1 X108.799 Y70.966 E.08449
G1 X111.474 Y70.644 E.08449
G1 X114.164 Y70.483 E.08449
G1 X116.858 Y70.483 E.08449
G1 X119.548 Y70.644 E.08449
G1 X122.224 Y70.966 E.08449
G1 X124.875 Y71.447 E.08449
G1 X127.493 Y72.086 E.08449
G1 X130.067 Y72.88 E.08447
G1 X131.998 Y73.605 E.06467
G1 X131.855 Y73.908 E.01051
G1 X131.719 Y74.332 E.01395
G1 X131.589 Y75.051 E.02291
G1 X131.567 Y75.483 E.01354
G1 X131.622 Y76.211 E.02291
G1 X131.71 Y76.634 E.01353
G1 X131.947 Y77.325 E.02291
G1 X132.139 Y77.712 E.01354
G1 X132.543 Y78.32 E.02291
G1 X132.826 Y78.646 E.01354
G1 X133.371 Y79.133 E.02291
G1 X133.727 Y79.378 E.01354
G1 X134.377 Y79.711 E.02291
G1 X134.783 Y79.858 E.01353
G1 X135.496 Y80.017 E.02291
G1 X135.923 Y80.056 E.01346
G1 X136.618 Y80.032 E.02179
G1 X137.029 Y79.967 E.01305
G1 X137.764 Y79.755 E.024
G1 X138.176 Y79.574 E.0141
G1 X138.801 Y79.194 E.02291
G1 X139.138 Y78.925 E.01355
G1 X139.646 Y78.4 E.02291
G1 X140.065 Y77.765 E.02384
G1 X141.986 Y79.066 E.07273
G1 X144.115 Y80.712 E.0844
G1 X146.144 Y82.485 E.08449
G1 X148.064 Y84.376 E.08449
G1 X149.867 Y86.379 E.08449
G1 X151.547 Y88.485 E.08449
G1 X153.098 Y90.689 E.08449
G1 X154.515 Y92.981 E.08449
G1 X155.43 Y94.682 E.06055
G1 X149.003 Y94.682 E.2015
G1 X148.782 Y94.696 E.00696
G1 X148.272 Y94.779 E.01618
G1 X147.655 Y95.029 E.02087
G1 X147.22 Y95.333 E.01664
G1 X146.898 Y95.64 E.01395
G1 X146.58 Y96.072 E.01682
G1 X146.359 Y96.56 E.01681
G1 X146.245 Y96.988 E.01389
G1 X146.193 Y97.492 E.01589
G1 X146.193 Y122.8 E.79351
G1 X146.207 Y123.729 E.02915
G1 X146.287 Y124.225 E.01573
G1 X146.471 Y124.711 E.01629
G1 X146.693 Y125.094 E.01389
G1 X147.11 Y125.579 E.02004
G1 X147.571 Y125.923 E.01805
G1 X148.071 Y126.152 E.01725
G1 X148.499 Y126.267 E.01389
G1 X149.003 Y126.318 E.01589
G1 X156.019 Y126.318 E.21998
G1 X156.523 Y126.267 E.01589
G1 X157.222 Y126.04 E.02303
G1 X157.838 Y125.64 E.02303
G1 X158.33 Y125.094 E.02303
G1 X158.663 Y124.44 E.02303
G1 X158.778 Y124.012 E.01389
G1 X158.83 Y123.508 E.01589
G1 X158.83 Y103.208 E.63648
G1 X159.42 Y105.478 E.07353
G1 X159.94 Y108.122 E.08449
G1 X160.302 Y110.792 E.08449
G1 X160.503 Y113.479 E.08449
G1 X160.544 Y116.174 E.08449
G1 X160.423 Y118.866 E.08449
G1 X160.141 Y121.546 E.08449
G1 X159.7 Y124.204 E.08449
G1 X159.1 Y126.831 E.08449
G1 X158.344 Y129.417 E.08449
G1 X157.435 Y131.954 E.08449
G1 X156.376 Y134.432 E.08449
G1 X155.171 Y136.842 E.08449
G1 X153.824 Y139.175 E.08449
G1 X152.339 Y141.424 E.08449
G1 X150.723 Y143.58 E.08449
G1 X148.978 Y145.639 E.0846
G1 X147.118 Y147.584 E.08437
G1 X145.143 Y149.416 E.08449
G1 X143.062 Y151.128 E.08449
G1 X140.88 Y152.713 E.08457
G1 X140.066 Y153.236 E.03034
G1 X139.646 Y152.6 E.02389
G1 X139.138 Y152.075 E.02291
G1 X138.801 Y151.806 E.01355
G1 X138.176 Y151.426 E.02291
G1 X137.764 Y151.245 E.0141
G1 X137.029 Y151.033 E.024
G1 X136.618 Y150.968 E.01305
G1 X135.947 Y150.945 E.02104
G1 X135.496 Y150.983 E.0142
G1 X134.783 Y151.142 E.02291
G1 X134.377 Y151.289 E.01353
G1 X133.727 Y151.622 E.02291
G1 X133.371 Y151.867 E.01354
G1 X132.826 Y152.354 E.02291
G1 X132.543 Y152.68 E.01354
G1 X132.139 Y153.288 E.02291
G1 X131.947 Y153.675 E.01354
G1 X131.71 Y154.366 E.02291
G1 X131.622 Y154.789 E.01353
G1 X131.567 Y155.517 E.02291
G1 X131.589 Y155.949 E.01355
G1 X131.762 Y156.85 E.02876
G1 X131.999 Y157.397 E.0187
G1 X131.361 Y157.657 E.02162
G1 X128.805 Y158.531 E.0847
G1 X126.204 Y159.25 E.08461
G1 X123.564 Y159.812 E.08461
G1 X120.896 Y160.214 E.08461
G1 X120.069 Y160.289 E.02603
G1 X121.021 Y159.806 E.03345
G1 X122.076 Y159.095 E.0399
G1 X122.263 Y158.949 E.00742
G1 X122.872 Y158.401 E.0257
G1 X123.373 Y157.927 E.02162
G1 X124.191 Y156.952 E.0399
G1 X124.33 Y156.761 E.00742
G1 X125.004 Y155.682 E.0399
G1 X125.115 Y155.473 E.00742
G1 X125.672 Y154.215 E.04311
G1 X126.114 Y152.633 E.05152
G1 X126.291 Y151.372 E.0399
G1 X126.306 Y149.797 E.0494
G1 X126.065 Y148.136 E.05263
G1 X125.633 Y146.69 E.04731
G1 X125.004 Y145.318 E.04731
G1 X124.191 Y144.048 E.04731
G1 X123.743 Y143.514 E.02185
G1 X123.208 Y142.902 E.02546
G1 X122.076 Y141.905 E.04731
G1 X120.816 Y141.075 E.04731
G1 X119.453 Y140.429 E.04731
G1 X118.013 Y139.978 E.04731
G1 X117.386 Y139.868 E.01995
G1 X116.512 Y139.732 E.02774
G1 X114.946 Y139.704 E.04909
G1 X113.517 Y139.87 E.04512
G1 X112.057 Y140.251 E.04731
G1 X110.664 Y140.832 E.04731
G1 X109.366 Y141.601 E.04731
G1 X108.187 Y142.542 E.04731
G1 X107.151 Y143.639 E.04731
G1 X106.277 Y144.87 E.04731
G1 X105.584 Y146.209 E.04731
G1 X105.124 Y147.478 E.0423
G1 X104.785 Y149.112 E.05232
G1 X104.697 Y150.617 E.04726
G1 X104.747 Y151.342 E.0228
G1 X104.818 Y152.122 E.02457
G1 X105.148 Y153.595 E.04731
G1 X105.68 Y155.007 E.04731
G1 X106.277 Y156.13 E.0399
G1 X106.597 Y156.599 E.0178
G1 X107.303 Y157.542 E.03692
G1 X108.184 Y158.455 E.03978
G1 X108.363 Y158.616 E.00755
G1 X109.366 Y159.399 E.0399
G1 X109.562 Y159.532 E.00742
G1 X110.909 Y160.285 E.0484
G1 X110.126 Y160.214 E.02465
G1 X107.458 Y159.812 E.08461
G1 X104.819 Y159.25 E.08461
G1 X102.218 Y158.531 E.08461
G1 X99.662 Y157.657 E.0847
G1 X99.023 Y157.397 E.02162
G1 X99.156 Y157.121 E.00963
G1 X99.296 Y156.696 E.01402
G1 X99.431 Y155.977 E.02291
G1 X99.455 Y155.546 E.01355
G1 X99.404 Y154.817 E.02291
G1 X99.319 Y154.394 E.01353
G1 X99.086 Y153.702 E.02291
G1 X98.897 Y153.314 E.01354
G1 X98.499 Y152.707 E.02274
G1 X98.216 Y152.375 E.0137
G1 X97.744 Y151.948 E.01996
G1 X97.32 Y151.638 E.01646
G1 X96.672 Y151.3 E.02291
G1 X96.254 Y151.149 E.01394
G1 X95.506 Y150.983 E.02401
G1 X95.081 Y150.944 E.01339
G1 X94.387 Y150.968 E.02179
G1 X93.969 Y151.036 E.01328
G1 X93.268 Y151.241 E.0229
G1 X92.872 Y151.414 E.01354
G1 X92.246 Y151.79 E.0229
G1 X91.906 Y152.057 E.01354
G1 X91.395 Y152.579 E.02291
G1 X91.122 Y152.945 E.01433
G1 X90.96 Y153.239 E.0105
G1 X90.143 Y152.713 E.03046
G1 X87.961 Y151.128 E.08457
G1 X85.879 Y149.416 E.08449
G1 X83.904 Y147.584 E.08449
G1 X82.044 Y145.639 E.08437
G1 X80.299 Y143.58 E.0846
G1 X78.683 Y141.424 E.08449
G1 X77.199 Y139.175 E.08449
G1 X75.851 Y136.842 E.08449
G1 X74.646 Y134.432 E.08449
G1 X73.587 Y131.954 E.08449
G1 X72.678 Y129.417 E.08449
G1 X71.922 Y126.831 E.08449
G1 X71.323 Y124.204 E.08449
G1 X70.881 Y121.546 E.08449
G1 X70.6 Y118.866 E.08449
G1 X70.479 Y116.174 E.08449
G1 X70.519 Y113.479 E.08449
G1 X70.72 Y110.792 E.08449
G1 X71.082 Y108.122 E.08449
G1 X71.603 Y105.478 E.08449
G1 X72.193 Y103.208 E.07353
G1 X72.193 Y123.508 E.63648
G1 X72.245 Y124.012 E.01589
G1 X72.359 Y124.44 E.01389
G1 X72.693 Y125.094 E.02303
G1 X73.184 Y125.64 E.02303
G1 X73.801 Y126.04 E.02303
G1 X74.499 Y126.267 E.02303
G1 X75.003 Y126.318 E.01589
G1 X82.019 Y126.318 E.21998
G1 X82.241 Y126.304 E.00696
G1 X82.816 Y126.201 E.01833
G1 X83.343 Y125.984 E.01786
G1 X83.838 Y125.64 E.01891
G1 X84.122 Y125.364 E.01242
G1 X84.43 Y124.948 E.01623
G1 X84.663 Y124.44 E.01752
G1 X84.778 Y124.012 E.01389
G1 X84.83 Y123.508 E.01589
G1 X84.83 Y97.908 E.80266
G1 X84.82 Y97.314 E.01863
G1 X84.737 Y96.781 E.01692
G1 X84.551 Y96.289 E.01648
G1 X84.33 Y95.906 E.01389
G1 X83.937 Y95.442 E.01905
G1 X83.494 Y95.103 E.0175
G1 X82.951 Y94.848 E.0188
G1 X82.523 Y94.733 E.01389
G1 X82.019 Y94.682 E.01589
G1 X75.593 Y94.682 E.2015
G1 X76.508 Y92.981 E.06055
G1 X77.924 Y90.689 E.08449
G1 X79.475 Y88.485 E.08449
G1 X81.155 Y86.379 E.08449
G1 X82.958 Y84.376 E.08449
G1 X84.878 Y82.485 E.08449
G1 X86.907 Y80.712 E.08449
G1 X89.037 Y79.065 E.08441
G1 X90.911 Y77.796 E.07097
G1 X91.091 Y77.219 F9000
G1 F1200
G1 X91.452 Y77.872 E.0234
G1 X91.664 Y78.157 E.01116
G1 X92.176 Y78.679 E.02291
G1 X92.44 Y78.887 E.01053
G1 X93.066 Y79.262 E.0229
G1 X93.374 Y79.397 E.01053
G1 X94.075 Y79.602 E.0229
G1 X94.4 Y79.655 E.01033
G1 X95.094 Y79.679 E.02179
G1 X95.425 Y79.649 E.01041
G1 X96.173 Y79.483 E.02401
G1 X96.498 Y79.365 E.01084
G1 X97.146 Y79.028 E.02291
G1 X97.421 Y78.836 E.01053
G1 X97.963 Y78.346 E.02291
G1 X98.181 Y78.091 E.01053
G1 X98.582 Y77.48 E.02291
G1 X98.729 Y77.178 E.01053
G1 X98.962 Y76.486 E.0229
G1 X99.028 Y76.161 E.01038
G1 X99.079 Y75.468 E.02178
G1 X99.062 Y75.139 E.01033
G1 X98.927 Y74.385 E.02401
G1 X98.817 Y74.044 E.01123
G1 X98.504 Y73.394 E.02265
G1 X100.832 Y72.523 E.07793
G1 X103.429 Y71.722 E.08522
G1 X106.069 Y71.078 E.0852
G1 X108.742 Y70.592 E.0852
G1 X111.44 Y70.268 E.0852
G1 X114.153 Y70.106 E.0852
G1 X116.87 Y70.106 E.0852
G1 X119.582 Y70.268 E.0852
G1 X122.28 Y70.592 E.0852
G1 X124.953 Y71.078 E.0852
G1 X127.593 Y71.722 E.0852
G1 X130.189 Y72.523 E.08518
G1 X132.508 Y73.409 E.07784
G1 X132.196 Y74.07 E.02292
G1 X132.09 Y74.399 E.01085
G1 X131.96 Y75.118 E.02291
G1 X131.943 Y75.454 E.01053
G1 X131.998 Y76.182 E.02291
G1 X132.066 Y76.511 E.01053
G1 X132.304 Y77.202 E.02291
G1 X132.453 Y77.503 E.01053
G1 X132.857 Y78.112 E.02291
G1 X133.077 Y78.365 E.01053
G1 X133.622 Y78.852 E.02291
G1 X133.899 Y79.042 E.01053
G1 X134.549 Y79.376 E.02291
G1 X134.865 Y79.49 E.01053
G1 X135.578 Y79.648 E.02291
G1 X135.91 Y79.679 E.01047
G1 X136.605 Y79.655 E.02179
G1 X136.924 Y79.604 E.01015
G1 X137.66 Y79.392 E.024
G1 X137.98 Y79.252 E.01096
G1 X138.605 Y78.872 E.02291
G1 X138.867 Y78.663 E.01054
G1 X139.376 Y78.137 E.02291
G1 X139.582 Y77.859 E.01086
G1 X139.935 Y77.222 E.02285
G1 X142.207 Y78.76 E.08603
G1 X144.355 Y80.421 E.08513
G1 X146.401 Y82.209 E.0852
G1 X148.337 Y84.116 E.0852
G1 X150.155 Y86.135 E.0852
G1 X151.849 Y88.259 E.0852
G1 X153.413 Y90.481 E.0852
G1 X154.842 Y92.793 E.0852
G1 X156.063 Y95.062 E.08079
G1 X149.003 Y95.059 E.22134
G1 X148.372 Y95.143 E.01997
G1 X147.832 Y95.362 E.01827
G1 X147.337 Y95.723 E.01921
G1 X146.992 Y96.135 E.01686
G1 X146.82 Y96.434 E.0108
G1 X146.626 Y96.988 E.01843
G1 X146.57 Y97.492 E.01589
G1 X146.57 Y123.508 E.81571
G1 X146.618 Y123.963 E.01434
G1 X146.708 Y124.296 E.0108
G1 X146.929 Y124.775 E.01656
G1 X147.243 Y125.184 E.01618
G1 X147.647 Y125.519 E.01643
G1 X147.945 Y125.691 E.0108
G1 X148.436 Y125.873 E.01641
G1 X149.003 Y125.941 E.01792
G1 X156.191 Y125.93 E.22538
G1 X156.807 Y125.804 E.0197
G1 X157.376 Y125.519 E.01995
G1 X157.852 Y125.097 E.01995
G1 X158.203 Y124.566 E.01995
G1 X158.382 Y124.084 E.01613
G1 X158.452 Y123.508 E.0182
G1 X158.452 Y100.76 E.71324
G1 X159.104 Y102.764 E.06608
G1 X159.787 Y105.394 E.0852
G1 X160.312 Y108.06 E.08519
G1 X160.677 Y110.753 E.0852
G1 X160.88 Y113.462 E.08519
G1 X160.921 Y116.179 E.0852
G1 X160.799 Y118.894 E.08519
G1 X160.515 Y121.596 E.0852
G1 X160.07 Y124.277 E.0852
G1 X159.465 Y126.926 E.0852
G1 X158.703 Y129.534 E.0852
G1 X157.787 Y132.092 E.0852
G1 X156.719 Y134.59 E.0852
G1 X155.503 Y137.021 E.0852
G1 X154.145 Y139.374 E.0852
G1 X152.648 Y141.642 E.0852
G1 X151.018 Y143.816 E.0852
G1 X149.259 Y145.891 E.08531
G1 X147.383 Y147.852 E.08508
G1 X145.391 Y149.701 E.0852
G1 X143.293 Y151.426 E.0852
G1 X141.093 Y153.025 E.08526
G1 X139.931 Y153.771 E.04329
G1 X139.582 Y153.141 E.0226
G1 X139.376 Y152.863 E.01086
G1 X138.867 Y152.337 E.02291
G1 X138.605 Y152.128 E.01054
G1 X137.98 Y151.748 E.02291
G1 X137.66 Y151.608 E.01096
G1 X136.924 Y151.396 E.024
G1 X136.605 Y151.345 E.01015
G1 X135.934 Y151.322 E.02104
G1 X135.578 Y151.352 E.01121
