; generated by PrusaSlicer 2.5.0+linux-x64-GTK2 on 2023-07-01 at 08:18:42 UTC

; 

; external perimeters extrusion width = 0.42mm
; perimeters extrusion width = 0.44mm
; infill extrusion width = 0.44mm
; solid infill extrusion width = 0.44mm
; top infill extrusion width = 0.40mm
; first layer extrusion width = 0.42mm

M107
;TYPE:Custom
G90 ; use absolute coordinates
M83 ; extruder relative mode
M140 S60 ; set final bed temp
M104 S150 ; set temporary nozzle temp to prevent oozing during homing
G4 S10 ; allow partial nozzle warmup
G28 ; home all axis
G1 Z50 F240
G1 X2 Y10 F3000
M104 S210 ; set final nozzle temp
M190 S60 ; wait for bed temp to stabilize
M109 S210 ; wait for nozzle temp to stabilize
G1 Z0.28 F240
G92 E0
G1 Y140 E10 F1500 ; prime the nozzle
G1 X2.3 F5000
G92 E0
G1 Y10 E10 F1200 ; prime the nozzle
G92 E0
G21 ; set units to millimeters
G90 ; use absolute coordinates
M83 ; use relative distances for extrusion
; Filament gcode
M107
;LAYER_CHANGE
;Z:0.2
;HEIGHT:0.2
;BEFORE_LAYER_CHANGE
G92 E0
;0.2


G1 E-5 F3600
G1 Z.2 F9000
;AFTER_LAYER_CHANGE
;0.2
G1 X108.249 Y102.827
G1 E5 F2400
M204 S500
;TYPE:Skirt/Brim
;WIDTH:0.42
G1 F1200
G1 X110.603 Y100.348 E.10718
G1 X111.709 Y99.414 E.04541
G1 X112.434 Y98.985 E.0264
G1 X113.206 Y98.651 E.0264
G1 X114.497 Y98.325 E.04173
G1 X115.313 Y98.252 E.02569
G1 X116.154 Y98.281 E.0264
G1 X116.985 Y98.415 E.0264
G1 X118.142 Y98.787 E.03809
G1 X118.894 Y99.164 E.0264
G1 X119.956 Y99.929 E.04103
G1 X129.681 Y110.128 E.44185
G1 X130.64 Y111.432 E.05074
G1 X131.318 Y112.901 E.05074
G1 X131.628 Y114.101 E.03887
G1 X131.749 Y115.715 E.05074
G1 X131.628 Y116.899 E.0373
G1 X131.318 Y118.099 E.03887
G1 X130.849 Y119.192 E.0373
G1 X130.193 Y120.244 E.03887
G1 X129.553 Y121.013 E.03136
G1 X120.397 Y130.652 E.41685
G1 X119.291 Y131.586 E.04541
G1 X118.142 Y132.213 E.04103
G1 X117.348 Y132.493 E.0264
G1 X116.526 Y132.673 E.02639
G1 X115.313 Y132.748 E.03809
G1 X114.015 Y132.585 E.04103
G1 X113.186 Y132.341 E.0271
G1 X112.106 Y131.836 E.03739
G1 X111.044 Y131.071 E.04103
G1 X101.447 Y121.013 E.43589
G1 X100.561 Y119.891 E.04481
G1 X99.814 Y118.455 E.05074
G1 X99.372 Y116.899 E.05074
G1 X99.251 Y115.285 E.05074
G1 X99.372 Y114.101 E.0373
G1 X99.682 Y112.901 E.03887
G1 X100.151 Y111.808 E.0373
G1 X100.807 Y110.756 E.03887
G1 X101.447 Y109.987 E.03136
G1 X108.207 Y102.87 E.30779
G1 X108.481 Y103.13 F9000
G1 F1200
G1 X110.876 Y100.608 E.10906
G1 X111.93 Y99.72 E.0432
G1 X113.344 Y99.002 E.04975
G1 X114.544 Y98.699 E.03878
G1 X116.107 Y98.655 E.04905
G1 X116.892 Y98.78 E.02492
G1 X118.004 Y99.138 E.03662
G1 X118.714 Y99.496 E.02492
G1 X119.7 Y100.205 E.03809
G1 X129.394 Y110.374 E.44051
G1 X130.31 Y111.615 E.04835
G1 X130.958 Y113.014 E.04835
G1 X131.259 Y114.177 E.03768
G1 X131.372 Y115.715 E.04835
G1 X131.259 Y116.823 E.03491
G1 X130.958 Y117.986 E.03767
G1 X130.519 Y119.009 E.03491
G1 X129.884 Y120.029 E.03767
G1 X129.28 Y120.753 E.02956
G1 X120.124 Y130.392 E.41685
G1 X119.07 Y131.28 E.0432
G1 X118.004 Y131.862 E.03809
G1 X116.479 Y132.298 E.04974
G1 X115.313 Y132.371 E.03662
G1 X114.108 Y132.22 E.03809
G1 X113.323 Y131.99 E.02562
G1 X112.286 Y131.504 E.03592
G1 X111.3 Y130.795 E.03809
G1 X101.72 Y120.753 E.43516
G1 X100.87 Y119.676 E.04302
G1 X100.161 Y118.307 E.04835
G1 X99.741 Y116.823 E.04835
G1 X99.628 Y115.285 E.04835
G1 X99.741 Y114.177 E.03491
G1 X100.042 Y113.014 E.03767
G1 X100.481 Y111.991 E.03491
G1 X101.116 Y110.971 E.03767
G1 X101.72 Y110.247 E.02956
G1 X108.44 Y103.173 E.30591
G1 E-3.5 F3600
;WIPE_START
G1 F7200
G1 X110.506 Y100.998 E-1.425
;WIPE_END
G1 E-.075 F3600
G1 X113.214 Y104.595 F9000
G1 E5 F2400
;TYPE:Perimeter
;WIDTH:0.419999
G1 F1200
G1 X113.196 Y104.959 E.01143
G1 X113.245 Y105.476 E.01628
G1 X113.346 Y105.819 E.01119
G1 X113.584 Y106.28 E.01628
G1 X113.804 Y106.561 E.01119
G1 X114.197 Y106.901 E.01628
G1 X114.506 Y107.079 E.01119
G1 X114.996 Y107.249 E.01628
G1 X115.35 Y107.3 E.01119
G1 X115.868 Y107.275 E.01628
G1 X116.215 Y107.191 E.01119
G1 X116.687 Y106.975 E.01628
G1 X116.978 Y106.768 E.01119
G1 X117.336 Y106.392 E.01628
G1 X117.529 Y106.092 E.01119
G1 X117.722 Y105.61 E.01628
G1 X117.79 Y105.26 E.01119
G1 X117.79 Y104.74 E.01628
G1 X117.756 Y104.564 E.00563
G1 X126.025 Y113.269 E.37645
G1 X126.45 Y113.818 E.02177
G1 X126.733 Y114.396 E.02017
G1 X126.894 Y115.019 E.02017
G1 X126.927 Y115.661 E.02017
G1 X126.829 Y116.297 E.02017
G1 X126.626 Y116.847 E.01839
G1 X126.372 Y117.276 E.01564
G1 X126.041 Y117.714 E.01719
G1 X117.756 Y126.436 E.3772
G1 X117.79 Y126.26 E.00563
G1 X117.79 Y125.74 E.01628
G1 X117.722 Y125.39 E.01119
G1 X117.529 Y124.908 E.01628
G1 X117.336 Y124.608 E.01119
G1 X116.978 Y124.232 E.01628
G1 X116.687 Y124.025 E.01119
G1 X116.215 Y123.809 E.01628
G1 X115.699 Y123.696 E.01655
G1 X115.431 Y123.696 E.00841
G1 X114.917 Y123.77 E.01628
G1 X114.58 Y123.887 E.01119
G1 X114.13 Y124.147 E.01628
G1 X113.861 Y124.38 E.01119
G1 X113.539 Y124.789 E.01628
G1 X113.376 Y125.106 E.01119
G1 X113.23 Y125.604 E.01628
G1 X113.196 Y125.959 E.01119
G1 X113.241 Y126.433 E.01491
G1 X104.975 Y117.731 E.37631
G1 X104.55 Y117.182 E.02177
G1 X104.267 Y116.604 E.02017
G1 X104.106 Y115.981 E.02017
G1 X104.073 Y115.339 E.02017
G1 X104.171 Y114.703 E.02017
G1 X104.374 Y114.153 E.0184
G1 X104.619 Y113.738 E.01509
G1 X104.959 Y113.286 E.01773
G1 X113.173 Y104.639 E.37397
G1 X114.295 Y103.039 F9000
;WIDTH:0.427636
G1 F1200
G1 X114.877 Y102.784 E.02033
;WIDTH:0.424995
G1 X115.38 Y102.7 E.0162
G1 X115.952 Y102.738 E.01821
;WIDTH:0.428359
G1 X116.452 Y102.905 E.01687
G1 X116.789 Y103.099 E.01247
;WIDTH:0.431475
G1 X117.192 Y103.431 E.01688
G1 X117.553 Y103.81 E.0169
;WIDTH:0.430155
G1 X117.914 Y104.183 E.01672
;WIDTH:0.419999
G1 X126.311 Y113.023 E.38231
G1 X126.772 Y113.618 E.02357
G1 X127.088 Y114.264 E.02257
G1 X127.269 Y114.961 E.02257
G1 X127.305 Y115.68 E.02257
G1 X127.196 Y116.392 E.02257
G1 X126.979 Y116.978 E.01959
G1 X126.692 Y117.476 E.01803
G1 X126.321 Y117.966 E.01928
G1 X117.914 Y126.817 E.38275
;WIDTH:0.422957
G1 X117.555 Y127.193 E.01641
;WIDTH:0.43145
G1 X117.191 Y127.568 E.01691
G1 X116.688 Y127.973 E.02085
;WIDTH:0.419146
G1 X116.122 Y128.216 E.01927
;WIDTH:0.428279
G1 X115.62 Y128.298 E.01632
G1 X115.001 Y128.247 E.01988
;WIDTH:0.417672
G1 X114.432 Y128.038 E.01889
;WIDTH:0.429817
G1 X114.012 Y127.76 E.01621
;WIDTH:0.437512
G1 X113.229 Y126.967 E.03657
;WIDTH:0.419999
G1 X104.689 Y117.977 E.38879
G1 X104.228 Y117.382 E.02357
G1 X103.912 Y116.736 E.02257
G1 X103.731 Y116.039 E.02257
G1 X103.695 Y115.32 E.02257
G1 X103.804 Y114.608 E.02257
G1 X104.021 Y114.022 E.0196
G1 X104.299 Y113.539 E.01747
G1 X104.679 Y113.034 E.01982
G1 X112.941 Y104.336 E.37615
;WIDTH:0.448233
G1 X113.893 Y103.354 E.04607
;WIDTH:0.427636
G1 X114.248 Y103.076 E.01443
G1 X114.069 Y102.724 F9000
;TYPE:External perimeter
;WIDTH:0.419999
G1 F1200
G1 X114.675 Y102.441 E.02098
G1 X115.332 Y102.317 E.02098
G1 X116 Y102.359 E.02098
G1 X116.637 Y102.564 E.02098
G1 X117.096 Y102.853 E.01701
G1 X117.457 Y103.154 E.01474
G1 X126.598 Y112.777 E.41615
G1 X127.093 Y113.417 E.02537
G1 X127.444 Y114.133 E.02498
G1 X127.643 Y114.904 E.02498
G1 X127.684 Y115.699 E.02498
G1 X127.563 Y116.487 E.02498
G1 X127.287 Y117.234 E.02498
G1 X126.916 Y117.829 E.02199
G1 X126.601 Y118.219 E.01571
G1 X117.461 Y127.841 E.41611
G1 X116.931 Y128.276 E.02147
G1 X116.325 Y128.559 E.02098
G1 X115.668 Y128.683 E.02098
G1 X115 Y128.641 E.02098
G1 X114.363 Y128.436 E.02098
G1 X113.837 Y128.105 E.01947
G1 X113.543 Y127.846 E.0123
G1 X104.402 Y118.223 E.41615
G1 X103.907 Y117.583 E.02537
G1 X103.556 Y116.867 E.02498
G1 X103.357 Y116.096 E.02498
G1 X103.316 Y115.301 E.02498
G1 X103.437 Y114.513 E.02498
G1 X103.713 Y113.766 E.02498
G1 X104.084 Y113.171 E.02199
G1 X104.399 Y112.781 E.01571
G1 X113.539 Y103.159 E.41611
G1 X114.022 Y102.763 E.01959
G1 X114.422 Y102.912 F9000
G1 E-3.5 F3600
;WIPE_START
G1 F7200
G1 X114.675 Y102.441 E-.34552
G1 X115.332 Y102.317 E-.31785
G1 X116 Y102.359 E-.31785
G1 X116.637 Y102.564 E-.31785
G1 X116.862 Y102.705 E-.12593
;WIPE_END
G1 E-.075 F3600
G1 X108.782 Y114.141 F9000
G1 E5 F2400
;TYPE:Perimeter
G1 F1200
G1 X109.007 Y114.415 E.01111
G1 X109.234 Y114.939 E.01791
G1 X109.308 Y115.379 E.01398
G1 X109.286 Y115.824 E.01398
G1 X109.169 Y116.254 E.01398
G1 X108.962 Y116.649 E.01398
G1 X108.675 Y116.99 E.01398
G1 X108.321 Y117.262 E.01398
G1 X107.918 Y117.451 E.01398
G1 X107.483 Y117.549 E.01398
G1 X107.037 Y117.551 E.01398
G1 X106.601 Y117.457 E.01398
G1 X106.195 Y117.272 E.01398
G1 X105.813 Y116.976 E.01517
G1 X105.507 Y116.596 E.01529
G1 X105.324 Y116.231 E.01281
G1 X105.216 Y115.836 E.01282
G1 X105.191 Y115.602 E.00738
G1 X105.222 Y115.116 E.01527
G1 X105.392 Y114.6 E.01705
G1 X105.672 Y114.173 E.01601
G1 X105.994 Y113.864 E.01398
G1 X106.467 Y113.602 E.01694
G1 X106.906 Y113.477 E.01433
G1 X107.463 Y113.45 E.01747
G1 X107.918 Y113.549 E.01459
G1 X108.321 Y113.738 E.01398
G1 X108.675 Y114.01 E.01398
G1 X108.744 Y114.095 E.00344
G1 X108.469 Y114.344 F9000
G1 F1200
G1 X108.725 Y114.684 E.01335
G1 X108.892 Y115.138 E.01516
G1 X108.931 Y115.621 E.01521
G1 X108.827 Y116.096 E.01523
G1 X108.662 Y116.421 E.01143
G1 X108.431 Y116.703 E.01143
G1 X108.145 Y116.929 E.01143
G1 X107.817 Y117.087 E.01143
G1 X107.462 Y117.172 E.01143
G1 X107.098 Y117.179 E.01143
G1 X106.74 Y117.107 E.01143
G1 X106.407 Y116.96 E.01143
G1 X106.086 Y116.716 E.01261
G1 X105.83 Y116.401 E.01273
G1 X105.681 Y116.11 E.01025
G1 X105.591 Y115.795 E.01027
G1 X105.566 Y115.561 E.00738
G1 X105.618 Y115.078 E.01523
G1 X105.747 Y114.737 E.01143
G1 X105.946 Y114.432 E.01143
G1 X106.206 Y114.177 E.01143
G1 X106.57 Y113.964 E.0132
G1 X107.183 Y113.818 E.01977
G1 X107.583 Y113.848 E.01256
G1 X107.93 Y113.958 E.01144
G1 X108.246 Y114.14 E.01143
G1 X108.425 Y114.303 E.00759
G1 X108.215 Y114.614 F9000
;TYPE:External perimeter
G1 F1200
G1 X108.383 Y114.842 E.00888
G1 X108.523 Y115.219 E.01261
G1 X108.551 Y115.653 E.01365
G1 X108.485 Y115.937 E.00915
G1 X108.362 Y116.193 E.00888
G1 X108.187 Y116.415 E.00888
G1 X107.968 Y116.595 E.00888
G1 X107.716 Y116.724 E.00888
G1 X107.442 Y116.796 E.00888
G1 X107.159 Y116.807 E.00888
G1 X106.88 Y116.756 E.00888
G1 X106.619 Y116.648 E.00888
G1 X106.36 Y116.457 E.01006
G1 X106.153 Y116.207 E.01018
G1 X105.972 Y115.788 E.01431
G1 X105.94 Y115.52 E.00846
G1 X105.975 Y115.199 E.01015
G1 X106.07 Y114.932 E.00888
G1 X106.334 Y114.571 E.01403
G1 X106.673 Y114.327 E.01308
G1 X107.17 Y114.195 E.01614
G1 X107.482 Y114.211 E.00978
G1 X107.754 Y114.291 E.00889
G1 X108.002 Y114.427 E.00888
G1 X108.17 Y114.575 E.007
G1 X108.491 Y114.553 F9000
G1 E-3.5 F3600
;WIPE_START
G1 F7200
G1 X108.383 Y114.842 E-.16248
G1 X108.523 Y115.219 E-.19101
G1 X108.551 Y115.653 E-.20682
G1 X108.485 Y115.937 E-.1386
G1 X108.362 Y116.193 E-.13453
G1 X108.187 Y116.415 E-.13453
G1 X107.968 Y116.595 E-.13453
G1 X107.716 Y116.724 E-.13453
G1 X107.442 Y116.796 E-.13453
G1 X107.329 Y116.8 E-.05345
;WIPE_END
G1 E-.075 F3600
G1 X115.565 Y124.078 F9000
G1 E5 F2400
;TYPE:Perimeter
G1 F1200
G1 X115.949 Y124.115 E.0121
G1 X116.531 Y124.368 E.01987
G1 X116.705 Y124.492 E.00671
G1 X117.064 Y124.868 E.01628
G1 X117.179 Y125.048 E.00671
G1 X117.372 Y125.53 E.01628
G1 X117.413 Y125.74 E.00671
G1 X117.413 Y126.26 E.01628
G1 X117.372 Y126.47 E.00671
;WIDTH:0.422957
G1 X117.181 Y126.953 E.01641
;WIDTH:0.43145
G1 X116.927 Y127.284 E.01348
G1 X116.545 Y127.625 E.01653
;WIDTH:0.421254
G1 X116.071 Y127.843 E.01641
;WIDTH:0.428279
G1 X115.622 Y127.913 E.01456
G1 X115.12 Y127.891 E.01611
;WIDTH:0.41805
G1 X114.629 Y127.722 E.0162
;WIDTH:0.429817
G1 X114.27 Y127.472 E.01407
;WIDTH:0.437512
G1 X113.911 Y127.111 E.0167
G1 X113.681 Y126.646 E.01704
;WIDTH:0.419999
G1 X113.621 Y126.44 E.00671
G1 X113.571 Y125.923 E.01628
G1 X113.591 Y125.71 E.00671
G1 X113.738 Y125.212 E.01628
G1 X113.836 Y125.022 E.00671
G1 X114.157 Y124.613 E.01628
G1 X114.319 Y124.473 E.00671
G1 X114.768 Y124.214 E.01628
G1 X114.971 Y124.144 E.00671
G1 X115.506 Y124.072 E.01692
G1 X115.538 Y124.443 F9000
;TYPE:External perimeter
G1 F1200
G1 X115.902 Y124.495 E.01151
G1 X116.374 Y124.711 E.01628
G1 X116.791 Y125.128 E.01848
G1 X117.022 Y125.67 E.01848
G1 X117.036 Y126.26 E.01848
G1 X116.829 Y126.812 E.01848
G1 X116.432 Y127.248 E.01848
G1 X115.914 Y127.499 E.01806
G1 X115.314 Y127.546 E.01889
G1 X114.791 Y127.38 E.0172
G1 X114.318 Y127.008 E.01885
G1 X114.016 Y126.473 E.01928
G1 X113.947 Y125.888 E.01848
G1 X114.1 Y125.318 E.01848
G1 X114.453 Y124.847 E.01848
G1 X114.957 Y124.54 E.01848
G1 X115.479 Y124.453 E.0166
G1 X115.714 Y124.121 F9000
G1 E-3.5 F3600
;WIPE_START
G1 F7200
G1 X115.902 Y124.495 E-.2017
G1 X116.374 Y124.711 E-.24667
G1 X116.791 Y125.128 E-.28003
G1 X117.022 Y125.67 E-.28003
G1 X117.036 Y126.26 E-.28003
G1 X116.935 Y126.529 E-.13654
;WIPE_END
G1 E-.075 F3600
G1 X125.251 Y116.9 F9000
G1 E5 F2400
;TYPE:Perimeter
G1 F1200
G1 X125.175 Y116.99 E.00371
G1 X124.821 Y117.262 E.01398
G1 X124.418 Y117.451 E.01398
G1 X123.983 Y117.549 E.01398
G1 X123.537 Y117.551 E.01398
G1 X123.101 Y117.457 E.01398
G1 X122.614 Y117.21 E.01711
G1 X122.131 Y116.781 E.02024
G1 X121.853 Y116.313 E.01709
G1 X121.717 Y115.843 E.01533
G1 X121.691 Y115.602 E.00761
G1 X121.73 Y115.072 E.01667
G1 X121.924 Y114.543 E.01766
G1 X122.172 Y114.173 E.01398
G1 X122.494 Y113.864 E.01398
G1 X122.967 Y113.602 E.01694
G1 X123.406 Y113.477 E.01433
G1 X123.963 Y113.45 E.01747
G1 X124.418 Y113.549 E.01459
G1 X124.941 Y113.814 E.01838
G1 X125.31 Y114.151 E.01569
G1 X125.567 Y114.526 E.01423
G1 X125.734 Y114.939 E.01398
G1 X125.808 Y115.379 E.01398
G1 X125.786 Y115.824 E.01398
G1 X125.669 Y116.254 E.01398
G1 X125.462 Y116.649 E.01398
G1 X125.29 Y116.854 E.00839
G1 X124.971 Y116.654 F9000
G1 F1200
G1 X124.645 Y116.929 E.01337
G1 X124.317 Y117.087 E.01143
G1 X123.962 Y117.172 E.01143
G1 X123.598 Y117.179 E.01143
G1 X123.24 Y117.107 E.01143
G1 X122.858 Y116.923 E.0133
G1 X122.422 Y116.541 E.01819
G1 X122.196 Y116.152 E.0141
G1 X122.092 Y115.802 E.01143
G1 X122.066 Y115.561 E.00761
G1 X122.118 Y115.078 E.01523
G1 X122.247 Y114.737 E.01143
G1 X122.446 Y114.432 E.01143
G1 X122.706 Y114.177 E.01143
G1 X123.07 Y113.964 E.0132
G1 X123.683 Y113.818 E.01977
G1 X124.083 Y113.848 E.01256
G1 X124.43 Y113.958 E.01144
G1 X124.746 Y114.14 E.01143
G1 X125.015 Y114.386 E.01143
G1 X125.225 Y114.684 E.01143
G1 X125.366 Y115.02 E.01143
G1 X125.431 Y115.379 E.01143
G1 X125.418 Y115.743 E.01143
G1 X125.327 Y116.096 E.01143
G1 X125.162 Y116.421 E.01143
G1 X125.009 Y116.608 E.00757
G1 X124.687 Y116.415 F9000
;TYPE:External perimeter
G1 F1200
G1 X124.468 Y116.595 E.00888
G1 X124.216 Y116.724 E.00888
G1 X123.942 Y116.796 E.00888
G1 X123.659 Y116.807 E.00888
G1 X123.38 Y116.756 E.00888
G1 X123.102 Y116.635 E.0095
G1 X122.712 Y116.3 E.01614
G1 X122.553 Y116.031 E.00978
G1 X122.467 Y115.762 E.00888
G1 X122.44 Y115.52 E.00761
G1 X122.475 Y115.199 E.01015
G1 X122.57 Y114.932 E.00888
G1 X122.72 Y114.691 E.00888
G1 X122.918 Y114.489 E.00888
G1 X123.173 Y114.327 E.00947
G1 X123.67 Y114.195 E.01614
G1 X123.982 Y114.211 E.00978
G1 X124.254 Y114.291 E.00889
G1 X124.502 Y114.427 E.00888
G1 X124.715 Y114.614 E.00888
G1 X124.883 Y114.842 E.00888
G1 X124.998 Y115.101 E.00888
G1 X125.054 Y115.379 E.00888
G1 X125.05 Y115.662 E.00888
G1 X124.909 Y116.101 E.01446
G1 X124.721 Y116.366 E.01019
G1 X124.773 Y116.685 F9000
G1 E-3.5 F3600
;WIPE_START
G1 F7200
G1 X124.468 Y116.595 E-.16219
G1 X124.216 Y116.724 E-.13453
G1 X123.942 Y116.796 E-.13454
G1 X123.659 Y116.807 E-.13453
G1 X123.38 Y116.756 E-.13453
G1 X123.102 Y116.635 E-.14392
G1 X122.712 Y116.3 E-.24458
G1 X122.553 Y116.031 E-.1481
G1 X122.467 Y115.762 E-.13453
G1 X122.454 Y115.65 E-.05355
;WIPE_END
G1 E-.075 F3600
G1 X116.649 Y106.548 F9000
G1 E5 F2400
;TYPE:Perimeter
G1 F1200
G1 X116.531 Y106.632 E.00455
G1 X116.058 Y106.848 E.01628
G1 X115.85 Y106.898 E.00671
G1 X115.332 Y106.923 E.01628
G1 X115.12 Y106.893 E.00671
G1 X114.629 Y106.723 E.01628
G1 X114.444 Y106.616 E.00671
G1 X114.051 Y106.276 E.01628
G1 X113.919 Y106.107 E.00671
G1 X113.681 Y105.646 E.01628
G1 X113.621 Y105.44 E.00671
G1 X113.571 Y104.923 E.01628
