; generated by PrusaSlicer 2.5.0+linux-x64-GTK2 on 2023-07-15 at 18:46:19 UTC

; 

; external perimeters extrusion width = 0.42mm
; perimeters extrusion width = 0.44mm
; infill extrusion width = 0.44mm
; solid infill extrusion width = 0.44mm
; top infill extrusion width = 0.40mm
; first layer extrusion width = 0.42mm

M107
;TYPE:Custom
G90 ; use absolute coordinates
M83 ; extruder relative mode
M140 S60 ; set final bed temp
M104 S150 ; set temporary nozzle temp to prevent oozing during homing
G4 S10 ; allow partial nozzle warmup
G28 ; home all axis
G1 Z50 F240
G1 X2 Y10 F3000
M104 S210 ; set final nozzle temp
M190 S60 ; wait for bed temp to stabilize
M109 S210 ; wait for nozzle temp to stabilize
G1 Z0.28 F240
G92 E0
G1 Y140 E10 F1500 ; prime the nozzle
G1 X2.3 F5000
G92 E0
G1 Y10 E10 F1200 ; prime the nozzle
G92 E0
G21 ; set units to millimeters
G90 ; use absolute coordinates
M83 ; use relative distances for extrusion
; Filament gcode
M107
;LAYER_CHANGE
;Z:0.2
;HEIGHT:0.2
;BEFORE_LAYER_CHANGE
G92 E0
;0.2


G1 E-5 F3600
G1 Z.2 F9000
;AFTER_LAYER_CHANGE
;0.2
G1 X103.763 Y101.61
G1 E5 F2400
M204 S500
;TYPE:Skirt/Brim
;WIDTH:0.42
G1 F1200
G1 X104.697 Y100.792 E.03893
G1 X105.574 Y100.285 E.03177
G1 X107.007 Y99.835 E.04707
G1 X108 Y99.746 E.03128
G1 X123.246 Y99.754 E.47801
G1 X123.993 Y99.835 E.02359
G1 X124.972 Y100.097 E.03177
G1 X126.086 Y100.646 E.03893
G1 X126.693 Y101.091 E.02359
G1 X127.409 Y101.807 E.03177
G1 X127.854 Y102.414 E.02359
G1 X128.403 Y103.528 E.03893
G1 X128.665 Y104.507 E.03177
G1 X128.754 Y105.5 E.03128
G1 X128.746 Y125.746 E.63478
G1 X128.487 Y127.224 E.04708
G1 X127.854 Y128.586 E.04708
G1 X127.237 Y129.39 E.03177
G1 X126.086 Y130.354 E.04708
G1 X124.724 Y130.987 E.04708
G1 X123.507 Y131.229 E.03893
G1 X107.754 Y131.246 E.4939
G1 X106.276 Y130.987 E.04708
G1 X104.914 Y130.354 E.04708
G1 X104.11 Y129.737 E.03177
G1 X103.146 Y128.586 E.04708
G1 X102.513 Y127.224 E.04708
G1 X102.254 Y125.746 E.04708
G1 X102.254 Y105.254 E.64248
G1 X102.513 Y103.776 E.04708
G1 X103.146 Y102.414 E.04708
G1 X103.727 Y101.658 E.02989
G1 X104.025 Y101.887 F9000
G1 F1200
G1 X105.124 Y100.96 E.04507
G1 X106.149 Y100.454 E.03584
G1 X107.518 Y100.147 E.04399
G1 X123.221 Y100.13 E.49235
G1 X123.92 Y100.205 E.02204
G1 X124.851 Y100.454 E.03022
G1 X125.876 Y100.96 E.03584
G1 X126.444 Y101.374 E.02204
G1 X127.126 Y102.056 E.03022
G1 X127.761 Y103.006 E.03584
G1 X128.046 Y103.649 E.02205
G1 X128.295 Y104.58 E.03022
G1 X128.377 Y105.5 E.02896
G1 X128.377 Y125.5 E.62709
G1 X128.295 Y126.42 E.02896
G1 X128.13 Y127.103 E.02204
G1 X127.54 Y128.376 E.04399
G1 X126.953 Y129.141 E.03022
G1 X125.876 Y130.04 E.04399
G1 X124.851 Y130.546 E.03584
G1 X123.482 Y130.853 E.04399
G1 X107.779 Y130.87 E.49235
G1 X106.397 Y130.63 E.04399
G1 X105.124 Y130.04 E.04399
G1 X104.047 Y129.141 E.04399
G1 X103.239 Y127.994 E.04399
G1 X102.87 Y127.103 E.03022
G1 X102.63 Y125.721 E.04399
G1 X102.63 Y105.279 E.64094
G1 X102.87 Y103.897 E.04399
G1 X103.46 Y102.624 E.04399
G1 X103.989 Y101.935 E.02723
G1 E-3.5 F3600
;WIPE_START
G1 F7200
G1 X105.124 Y100.96 E-.71068
G1 X106.149 Y100.454 E-.54302
G1 X106.501 Y100.375 E-.17129
;WIPE_END
G1 E-.075 F3600
G1 X112.458 Y107.786 F9000
G1 E5 F2400
;TYPE:Perimeter
;WIDTH:0.419999
G1 F1200
G1 X112.554 Y108.319 E.01698
G1 X112.745 Y108.838 E.01734
G1 X113.012 Y109.277 E.0161
G1 X113.47 Y109.8 E.0218
G1 X114.182 Y110.259 E.02657
G1 X114.645 Y110.442 E.01559
G1 X115.161 Y110.535 E.01644
G1 X115.645 Y110.563 E.01523
G1 X116.195 Y110.472 E.01745
G1 X116.625 Y110.354 E.01399
G1 X117.23 Y110.02 E.02168
G1 X117.623 Y109.708 E.01574
G1 X117.988 Y109.277 E.01771
G1 X118.255 Y108.838 E.0161
G1 X118.446 Y108.319 E.01734
G1 X118.542 Y107.786 E.01698
G1 X118.818 Y108.115 E.0135
G1 X119.27 Y108.494 E.01848
G1 X119.868 Y108.825 E.02144
G1 X120.396 Y108.962 E.01711
G1 X120.974 Y109.042 E.01828
G1 X121.764 Y108.934 E.025
G1 X122.318 Y108.732 E.01848
G1 X122.73 Y108.494 E.01494
G1 X123.182 Y108.115 E.01848
G1 X123.182 Y122.885 E.46308
G1 X122.73 Y122.506 E.01848
G1 X122.318 Y122.268 E.01494
G1 X121.752 Y122.064 E.01885
G1 X120.953 Y121.959 E.02527
G1 X120.232 Y122.067 E.02285
G1 X119.781 Y122.215 E.01489
G1 X119.27 Y122.506 E.01843
G1 X118.911 Y122.783 E.01422
G1 X118.542 Y123.214 E.0178
G1 X118.446 Y122.681 E.01698
G1 X118.255 Y122.162 E.01735
G1 X117.988 Y121.723 E.0161
G1 X117.53 Y121.2 E.02181
G1 X116.818 Y120.741 E.02656
G1 X116.352 Y120.558 E.01568
G1 X115.846 Y120.47 E.01611
G1 X115.331 Y120.44 E.01619
G1 X114.755 Y120.536 E.0183
G1 X114.375 Y120.646 E.0124
G1 X113.77 Y120.98 E.02168
G1 X113.382 Y121.287 E.01552
G1 X113.012 Y121.723 E.01793
G1 X112.745 Y122.162 E.0161
G1 X112.554 Y122.681 E.01734
G1 X112.458 Y123.214 E.01698
G1 X112.182 Y122.885 E.0135
G1 X111.73 Y122.506 E.01848
G1 X111.132 Y122.175 E.02144
G1 X110.627 Y122.043 E.01637
G1 X110.003 Y121.959 E.01973
G1 X109.232 Y122.067 E.02442
G1 X108.682 Y122.268 E.01834
G1 X108.27 Y122.506 E.01494
G1 X107.818 Y122.885 E.01848
G1 X107.818 Y108.115 E.46308
G1 X108.27 Y108.494 E.01848
G1 X108.682 Y108.732 E.01494
G1 X109.236 Y108.934 E.01848
G1 X110.026 Y109.042 E.025
G1 X110.764 Y108.934 E.02338
G1 X111.219 Y108.785 E.01503
G1 X111.73 Y108.494 E.01843
G1 X112.089 Y108.217 E.01422
G1 X112.419 Y107.831 E.01592
G1 E-3.5 F3600
;WIPE_START
G1 F7200
G1 X112.554 Y108.319 E-.24023
G1 X112.745 Y108.838 E-.26275
G1 X113.012 Y109.277 E-.24396
G1 X113.47 Y109.8 E-.33032
G1 X114.085 Y110.196 E-.34773
;WIPE_END
G1 E-.075 F3600
G1 X112.467 Y104.941 F9000
G1 E5 F2400
G1 F1200
G1 X114.717 Y104.941 E.07055
G1 X114.371 Y105.068 E.01154
G1 X113.958 Y105.306 E.01494
G1 X113.496 Y105.734 E.01975
;WIDTH:0.435284
G1 X113.09 Y106.296 E.02261
G1 X112.926 Y106.785 E.01684
;WIDTH:0.418455
G1 X112.832 Y107.193 E.01307
;WIDTH:0.419999
G1 X112.829 Y107.737 E.01707
G1 X112.876 Y108.088 E.01109
G1 X113.072 Y108.637 E.01829
G1 X113.301 Y109.034 E.01437
G1 X113.725 Y109.523 E.02028
G1 X114.371 Y109.932 E.02398
G1 X114.802 Y110.089 E.01437
G1 X115.38 Y110.186 E.01838
G1 X115.729 Y110.172 E.01097
G1 X116.479 Y110.006 E.02408
G1 X117.042 Y109.694 E.02018
G1 X117.347 Y109.451 E.01225
G1 X117.699 Y109.034 E.01709
G1 X117.907 Y108.693 E.01253
G1 X118.091 Y108.19 E.01681
G1 X118.171 Y107.737 E.0144
G1 X118.168 Y107.193 E.01707
;WIDTH:0.418446
G1 X118.074 Y106.785 E.01307
;WIDTH:0.435303
G1 X117.91 Y106.296 E.01684
G1 X117.504 Y105.734 E.02261
;WIDTH:0.419999
G1 X117.042 Y105.306 E.01976
G1 X116.629 Y105.068 E.01494
G1 X116.276 Y104.941 E.01177
G1 X118.533 Y104.941 E.07079
G1 X118.409 Y105.284 E.01144
G1 X118.329 Y105.736 E.0144
;WIDTH:0.4392
G1 X118.321 Y106.281 E.01795
G1 X118.572 Y107.111 E.02856
;WIDTH:0.419999
G1 X118.801 Y107.508 E.01437
G1 X119.107 Y107.873 E.01494
G1 X119.458 Y108.168 E.01437
G1 X120.015 Y108.478 E.02
G1 X120.462 Y108.591 E.01444
G1 X120.98 Y108.665 E.0164
G1 X121.698 Y108.563 E.02276
G1 X122.129 Y108.406 E.01437
G1 X122.542 Y108.168 E.01494
G1 X122.893 Y107.873 E.01437
G1 X123.199 Y107.508 E.01494
G1 X123.428 Y107.111 E.01437
G1 X123.559 Y106.753 E.01196
G1 X123.559 Y124.247 E.54853
G1 X123.428 Y123.889 E.01196
G1 X123.199 Y123.492 E.01437
G1 X122.893 Y123.127 E.01494
G1 X122.542 Y122.832 E.01437
G1 X122.129 Y122.594 E.01494
G1 X121.689 Y122.436 E.01466
G1 X120.96 Y122.336 E.02307
G1 X120.298 Y122.438 E.021
G1 X119.947 Y122.553 E.01158
G1 X119.458 Y122.832 E.01766
G1 X119.179 Y123.048 E.01106
G1 X118.801 Y123.491 E.01826
;WIDTH:0.435292
G1 X118.59 Y123.822 E.01281
G1 X118.415 Y124.339 E.01781
;WIDTH:0.419048
G1 X118.33 Y124.788 E.0143
;WIDTH:0.419999
G1 X118.349 Y125.493 E.02211
G1 X118.534 Y126.059 E.01866
G1 X116.281 Y126.059 E.07062
G1 X116.629 Y125.932 E.01161
G1 X117.042 Y125.694 E.01494
G1 X117.393 Y125.399 E.01437
G1 X117.699 Y125.035 E.01491
G1 X117.903 Y124.701 E.01227
;WIDTH:0.419048
G1 X118.074 Y124.215 E.01613
;WIDTH:0.435292
G1 X118.179 Y123.738 E.01592
G1 X118.124 Y122.912 E.02701
;WIDTH:0.419999
G1 X117.928 Y122.363 E.01829
G1 X117.699 Y121.966 E.01437
G1 X117.275 Y121.477 E.02028
G1 X116.629 Y121.068 E.02398
G1 X116.198 Y120.911 E.01437
G1 X115.696 Y120.828 E.01597
G1 X115.246 Y120.831 E.0141
G1 X114.521 Y120.994 E.02331
G1 X113.958 Y121.306 E.02018
G1 X113.656 Y121.545 E.01207
G1 X113.301 Y121.966 E.01727
G1 X113.093 Y122.307 E.01253
G1 X112.909 Y122.81 E.01681
G1 X112.829 Y123.263 E.0144
;WIDTH:0.439197
G1 X112.821 Y123.807 E.01795
G1 X113.072 Y124.637 E.02856
;WIDTH:0.419999
G1 X113.301 Y125.034 E.01436
G1 X113.496 Y125.266 E.0095
G1 X113.958 Y125.694 E.01975
G1 X114.371 Y125.932 E.01494
G1 X114.719 Y126.059 E.01161
G1 X112.467 Y126.059 E.07059
G1 X112.592 Y125.713 E.01154
G1 X112.671 Y125.264 E.0143
G1 X112.649 Y124.558 E.02214
;WIDTH:0.439197
G1 X112.437 Y123.886 E.02322
G1 X112.199 Y123.492 E.01516
;WIDTH:0.419999
G1 X111.893 Y123.127 E.01494
G1 X111.542 Y122.832 E.01437
G1 X110.985 Y122.522 E.02
G1 X110.564 Y122.415 E.01361
G1 X110 Y122.336 E.01787
G1 X109.298 Y122.438 E.02222
G1 X108.871 Y122.594 E.01427
G1 X108.458 Y122.832 E.01494
G1 X108.107 Y123.127 E.01437
G1 X107.801 Y123.492 E.01494
G1 X107.572 Y123.889 E.01437
G1 X107.441 Y124.247 E.01196
G1 X107.441 Y106.753 E.54853
G1 X107.572 Y107.111 E.01196
G1 X107.801 Y107.508 E.01437
G1 X108.107 Y107.873 E.01494
G1 X108.458 Y108.168 E.01437
G1 X108.871 Y108.406 E.01494
G1 X109.302 Y108.563 E.01437
G1 X110.02 Y108.665 E.02276
G1 X110.698 Y108.563 E.02151
G1 X111.053 Y108.447 E.01169
G1 X111.542 Y108.168 E.01766
G1 X111.821 Y107.952 E.01106
G1 X112.199 Y107.509 E.01826
G1 X112.403 Y107.175 E.01227
;WIDTH:0.419047
G1 X112.574 Y106.689 E.01613
;WIDTH:0.435284
G1 X112.678 Y106.212 E.01592
G1 X112.651 Y105.507 E.02301
;WIDTH:0.419999
G1 X112.485 Y104.998 E.01678
G1 E-3.5 F3600
;WIPE_START
G1 F7200
G1 X114.717 Y104.941 E-1.06028
G1 X114.371 Y105.068 E-.17483
G1 X114.025 Y105.268 E-.18989
;WIPE_END
G1 E-.075 F3600
G1 X107.756 Y104.704 F9000
G1 E5 F2400
;WIDTH:0.563063
G1 F1200
G1 X108.032 Y104.641 E.01224
G1 X107.906 Y104.832 E.00988
;WIDTH:0.565294
G1 X107.695 Y105.388 E.02586
G1 X107.64 Y105.735 E.01527
;WIDTH:0.562066
G1 X107.65 Y106.387 E.02813
G1 X107.692 Y106.466 E.00386
;WIDTH:0.521653
G1 X107.734 Y106.545 E.00356
;WIDTH:0.48124
G1 X107.912 Y106.905 E.01465
;WIDTH:0.45062
G1 X108.09 Y107.266 E.01362
;WIDTH:0.419999
G1 X108.396 Y107.631 E.01494
G1 X108.647 Y107.841 E.01027
G1 X109.059 Y108.079 E.01494
G1 X109.367 Y108.191 E.01027
G1 X110.014 Y108.288 E.02052
G1 X110.633 Y108.191 E.01963
G1 X110.941 Y108.079 E.01027
G1 X111.553 Y107.687 E.02279
G1 X111.91 Y107.266 E.0173
G1 X112.056 Y107.028 E.00877
G1 X112.227 Y106.562 E.01555
G1 X112.294 Y106.212 E.01118
G1 X112.28 Y105.572 E.02006
G1 X112.074 Y104.965 E.0201
G1 X111.812 Y104.564 E.01503
G1 X114.799 Y104.564 E.09368
;WIDTH:0.460964
G1 X115.026 Y104.585 E.00792
;WIDTH:0.501929
G1 X115.253 Y104.605 E.0087
;WIDTH:0.542893
G1 X115.48 Y104.626 E.00947
;WIDTH:0.592157
G1 X116.182 Y104.65 E.03208
G1 X116.302 Y104.629 E.00558
;WIDTH:0.549118
G1 X116.423 Y104.607 E.00514
;WIDTH:0.506078
G1 X116.543 Y104.586 E.0047
;WIDTH:0.463039
G1 X116.663 Y104.564 E.00427
;WIDTH:0.419999
G1 X119.188 Y104.564 E.07918
G1 X118.926 Y104.965 E.01502
G1 X118.72 Y105.572 E.0201
G1 X118.706 Y106.212 E.02006
G1 X118.763 Y106.534 E.01026
G1 X118.926 Y106.982 E.01494
G1 X119.09 Y107.266 E.01027
G1 X119.396 Y107.631 E.01494
G1 X119.61 Y107.819 E.00895
G1 X120.059 Y108.079 E.01628
G1 X120.367 Y108.191 E.01027
G1 X120.986 Y108.288 E.01963
G1 X121.633 Y108.191 E.02052
G1 X121.941 Y108.079 E.01027
G1 X122.353 Y107.841 E.01494
G1 X122.604 Y107.631 E.01026
G1 X122.91 Y107.266 E.01494
G1 X123.074 Y106.982 E.01026
;WIDTH:0.467355
G1 X123.166 Y106.784 E.00771
;WIDTH:0.514711
G1 X123.258 Y106.585 E.00858
;WIDTH:0.562067
G1 X123.35 Y106.387 E.00944
G1 X123.36 Y106.212 E.00758
;WIDTH:0.556811
G1 X123.354 Y105.604 E.02598
;WIDTH:0.563048
G1 X123.158 Y104.986 E.02801
G1 X122.968 Y104.641 E.01706
G1 X123.36 Y104.731 E.01739
G1 X123.58 Y104.876 E.0114
G1 X123.72 Y105.045 E.00948
;WIDTH:0.566929
G1 X123.811 Y105.247 E.00965
G1 X123.87 Y105.735 E.02143
;WIDTH:0.562067
G1 X123.865 Y106.432 E.03007
G1 X123.888 Y106.666 E.01016
;WIDTH:0.514711
G1 X123.912 Y106.9 E.00923
;WIDTH:0.467355
G1 X123.936 Y107.134 E.0083
;WIDTH:0.419999
G1 X123.936 Y124.342 E.53954
;WIDTH:0.464165
G1 X123.914 Y124.491 E.00526
;WIDTH:0.508331
G1 X123.892 Y124.639 E.00581
;WIDTH:0.552497
G1 X123.87 Y124.788 E.00636
;WIDTH:0.556868
G1 X123.867 Y125.413 E.02672
;WIDTH:0.565366
G1 X123.793 Y125.798 E.01702
G1 X123.624 Y126.08 E.0143
;WIDTH:0.562926
G1 X123.447 Y126.226 E.0099
G1 X123.235 Y126.321 E.01004
G1 X122.982 Y126.358 E.01107
G1 X123.158 Y126.015 E.01668
G1 X123.355 Y125.383 E.02861
;WIDTH:0.556868
G1 X123.36 Y124.788 E.02544
;WIDTH:0.552497
G1 X123.265 Y124.531 E.0116
;WIDTH:0.508331
G1 X123.169 Y124.275 E.0106
;WIDTH:0.464165
G1 X123.074 Y124.018 E.00959
;WIDTH:0.419999
G1 X122.91 Y123.734 E.01026
G1 X122.604 Y123.369 E.01494
G1 X122.353 Y123.159 E.01027
G1 X121.941 Y122.921 E.01494
G1 X121.626 Y122.808 E.01047
G1 X120.968 Y122.713 E.02086
G1 X120.365 Y122.809 E.01914
G1 X120.059 Y122.921 E.01019
G1 X119.447 Y123.313 E.02279
G1 X119.09 Y123.734 E.0173
G1 X118.944 Y123.972 E.00877
G1 X118.773 Y124.438 E.01555
G1 X118.706 Y124.788 E.01118
G1 X118.72 Y125.428 E.02006
G1 X118.926 Y126.035 E.02009
G1 X119.188 Y126.436 E.01503
G1 X116.196 Y126.436 E.09383
;WIDTH:0.46069
G1 X115.964 Y126.415 E.00809
;WIDTH:0.50138
G1 X115.732 Y126.395 E.00887
;WIDTH:0.54207
G1 X115.5 Y126.375 E.00966
G1 X115.268 Y126.395 E.00966
;WIDTH:0.50138
G1 X115.036 Y126.415 E.00888
;WIDTH:0.46069
G1 X114.804 Y126.436 E.00809
;WIDTH:0.419999
G1 X111.809 Y126.436 E.09393
G1 X112.081 Y126.02 E.01558
G1 X112.238 Y125.585 E.01451
G1 X112.294 Y125.264 E.01022
G1 X112.279 Y124.623 E.02008
G1 X112.074 Y124.018 E.02005
G1 X111.91 Y123.734 E.01026
G1 X111.604 Y123.369 E.01494
G1 X111.353 Y123.159 E.01027
G1 X110.886 Y122.892 E.01688
G1 X110.501 Y122.786 E.01251
G1 X109.996 Y122.713 E.01601
G1 X109.365 Y122.809 E.02002
G1 X109.059 Y122.921 E.01019
G1 X108.647 Y123.159 E.01494
G1 X108.396 Y123.369 E.01027
G1 X108.09 Y123.734 E.01494
G1 X107.926 Y124.018 E.01027
;WIDTH:0.464163
G1 X107.831 Y124.275 E.00959
;WIDTH:0.508327
G1 X107.735 Y124.531 E.0106
;WIDTH:0.552491
G1 X107.64 Y124.788 E.0116
;WIDTH:0.556817
G1 X107.646 Y125.396 E.02598
;WIDTH:0.563066
G1 X107.842 Y126.014 E.02802
G1 X108.032 Y126.359 E.01705
G1 X107.64 Y126.269 E.01739
G1 X107.395 Y126.105 E.01274
;WIDTH:0.565302
G1 X107.208 Y125.801 E.0155
G1 X107.133 Y125.413 E.01716
;WIDTH:0.556869
G1 X107.13 Y124.788 E.02672
;WIDTH:0.552491
G1 X107.108 Y124.639 E.00636
;WIDTH:0.508327
G1 X107.086 Y124.491 E.00581
;WIDTH:0.464163
G1 X107.064 Y124.342 E.00526
;WIDTH:0.419999
G1 X107.064 Y107.134 E.53955
;WIDTH:0.464163
G1 X107.086 Y106.827 E.01079
;WIDTH:0.508327
G1 X107.108 Y106.519 E.01193
;WIDTH:0.552491
G1 X107.13 Y106.212 E.01306
;WIDTH:0.556867
G1 X107.133 Y105.57 E.02743
;WIDTH:0.565294
G1 X107.208 Y105.199 E.01645
G1 X107.376 Y104.92 E.01416
;WIDTH:0.563063
G1 X107.64 Y104.731 E.01402
G1 X107.698 Y104.718 E.00256
G1 X107.633 Y104.258 F9000
;WIDTH:0.419999
G1 F1200
G1 X107.979 Y104.195 E.01101
G1 X109.246 Y104.191 E.03973
G1 X108.835 Y104.433 E.01494
G1 X108.379 Y104.924 E.02103
G1 X108.206 Y105.297 E.01289
G1 X108.083 Y105.735 E.01427
G1 X108.092 Y106.31 E.018
G1 X108.28 Y106.853 E.01804
G1 X108.685 Y107.388 E.02103
G1 X109.248 Y107.753 E.02103
G1 X109.902 Y107.903 E.02103
G1 X110.407 Y107.848 E.01594
G1 X110.752 Y107.753 E.01122
G1 X111.284 Y107.422 E.01965
G1 X111.621 Y107.024 E.01635
G1 X111.784 Y106.678 E.012
G1 X111.917 Y106.212 E.01518
G1 X111.908 Y105.638 E.01801
G1 X111.72 Y105.094 E.01803
G1 X111.315 Y104.559 E.02103
G1 X110.754 Y104.191 E.02104
G1 X120.246 Y104.191 E.29761
G1 X119.685 Y104.559 E.02104
G1 X119.28 Y105.094 E.02103
G1 X119.092 Y105.638 E.01803
G1 X119.083 Y106.212 E.01801
G1 X119.216 Y106.678 E.01518
G1 X119.379 Y107.024 E.012
G1 X119.813 Y107.501 E.02023
G1 X120.248 Y107.753 E.01574
G1 X120.593 Y107.848 E.01122
G1 X121.098 Y107.903 E.01593
G1 X121.752 Y107.753 E.02103
