; generated by PrusaSlicer 2.5.0+linux-x64-GTK2 on 2023-07-15 at 18:47:07 UTC

; 

; external perimeters extrusion width = 0.42mm
; perimeters extrusion width = 0.44mm
; infill extrusion width = 0.44mm
; solid infill extrusion width = 0.44mm
; top infill extrusion width = 0.40mm
; first layer extrusion width = 0.42mm

M107
;TYPE:Custom
G90 ; use absolute coordinates
M83 ; extruder relative mode
M140 S60 ; set final bed temp
M104 S150 ; set temporary nozzle temp to prevent oozing during homing
G4 S10 ; allow partial nozzle warmup
G28 ; home all axis
G1 Z50 F240
G1 X2 Y10 F3000
M104 S210 ; set final nozzle temp
M190 S60 ; wait for bed temp to stabilize
M109 S210 ; wait for nozzle temp to stabilize
G1 Z0.28 F240
G92 E0
G1 Y140 E10 F1500 ; prime the nozzle
G1 X2.3 F5000
G92 E0
G1 Y10 E10 F1200 ; prime the nozzle
G92 E0
G21 ; set units to millimeters
G90 ; use absolute coordinates
M83 ; use relative distances for extrusion
; Filament gcode
M107
;LAYER_CHANGE
;Z:0.2
;HEIGHT:0.2
;BEFORE_LAYER_CHANGE
G92 E0
;0.2


G1 E-5 F3600
G1 Z.2 F9000
;AFTER_LAYER_CHANGE
;0.2
G1 X77.559 Y77.969
G1 E5 F2400
M204 S500
;TYPE:Skirt/Brim
;WIDTH:0.42
G1 F1200
G1 X79.871 Y75.767 E.10013
G1 X82.153 Y73.832 E.0938
G1 X84.995 Y71.713 E.11114
G1 X87.538 Y70.041 E.09544
G1 X90.307 Y68.45 E.10013
G1 X93.166 Y67.027 E.10013
G1 X95.917 Y65.851 E.0938
G1 X98.921 Y64.768 E.10013
G1 X101.985 Y63.867 E.10013
G1 X105.295 Y63.111 E.10646
G1 X108.446 Y62.594 E.10013
G1 X111.422 Y62.281 E.0938
G1 X114.963 Y62.131 E.11114
G1 X118.007 Y62.183 E.09544
G1 X121.191 Y62.427 E.10013
G1 X124.155 Y62.829 E.0938
G1 X127.29 Y63.44 E.10013
G1 X130.718 Y64.341 E.11114
G1 X133.611 Y65.287 E.09544
G1 X136.582 Y66.459 E.10013
G1 X139.477 Y67.807 E.10013
G1 X142.111 Y69.225 E.0938
G1 X145.122 Y71.096 E.11114
G1 X147.608 Y72.853 E.09544
G1 X150.101 Y74.849 E.10013
G1 X152.47 Y76.99 E.10013
G1 X154.57 Y79.121 E.0938
G1 X156.804 Y81.678 E.10646
G1 X158.752 Y84.208 E.10013
G1 X160.438 Y86.68 E.0938
G1 X162.248 Y89.728 E.11114
G1 X163.645 Y92.432 E.09544
G1 X164.938 Y95.352 E.10013
G1 X166.055 Y98.344 E.10013
G1 X166.936 Y101.203 E.0938
G1 X167.741 Y104.501 E.10646
G1 X168.306 Y107.645 E.10013
G1 X168.681 Y110.816 E.10013
G1 X168.86 Y113.802 E.0938
G1 X168.866 Y116.996 E.10013
G1 X168.663 Y120.385 E.10646
G1 X168.276 Y123.555 E.10013
G1 X167.699 Y126.696 E.10013
G1 X166.99 Y129.602 E.0938
G1 X166.055 Y132.656 E.10013
G1 X164.862 Y135.835 E.10646
G1 X163.557 Y138.75 E.10013
G1 X162.081 Y141.582 E.10013
G1 X160.438 Y144.32 E.10013
G1 X158.752 Y146.792 E.0938
G1 X156.675 Y149.478 E.10646
G1 X154.57 Y151.879 E.10013
G1 X152.47 Y154.01 E.0938
G1 X149.947 Y156.282 E.10646
G1 X147.608 Y158.147 E.0938
G1 X145 Y159.99 E.10013
G1 X142.286 Y161.674 E.10013
G1 X139.477 Y163.193 E.10013
G1 X136.396 Y164.62 E.10646
G1 X133.421 Y165.781 E.10013
G1 X130.382 Y166.762 E.10013
G1 X127.487 Y167.515 E.0938
G1 X124.355 Y168.138 E.10013
G1 X120.99 Y168.594 E.10646
G1 X117.805 Y168.826 E.10013
G1 X114.814 Y168.871 E.0938
G1 X111.273 Y168.703 E.11114
G1 X108.246 Y168.379 E.09544
G1 X105.097 Y167.85 E.10013
G1 X101.985 Y167.133 E.10013
G1 X98.921 Y166.232 E.10013
G1 X95.917 Y165.149 E.10013
G1 X93.166 Y163.973 E.0938
G1 X90.307 Y162.55 E.10013
G1 X87.538 Y160.959 E.10013
G1 X84.705 Y159.088 E.10646
G1 X82.153 Y157.168 E.10013
G1 X79.871 Y155.233 E.0938
G1 X77.417 Y152.887 E.10646
G1 X75.382 Y150.694 E.0938
G1 X73.349 Y148.231 E.10013
G1 X71.353 Y145.484 E.10646
G1 X69.639 Y142.79 E.10013
G1 X68.089 Y139.997 E.10013
G1 X66.791 Y137.302 E.0938
G1 X65.575 Y134.349 E.10013
G1 X64.477 Y131.136 E.10646
G1 X63.633 Y128.056 E.10013
G1 X62.975 Y124.931 E.10013
G1 X62.529 Y121.973 E.0938
G1 X62.237 Y118.793 E.10013
G1 X62.136 Y115.399 E.10646
G1 X62.237 Y112.207 E.10013
G1 X62.505 Y109.228 E.0938
G1 X63.011 Y105.87 E.10646
G1 X63.681 Y102.748 E.10013
G1 X64.477 Y99.864 E.0938
G1 X65.504 Y96.84 E.10013
G1 X66.709 Y93.882 E.10013
G1 X68.182 Y90.823 E.10646
G1 X69.743 Y88.037 E.10013
G1 X71.353 Y85.516 E.0938
G1 X73.349 Y82.769 E.10646
G1 X75.382 Y80.306 E.10013
G1 X77.518 Y78.013 E.09825
G1 E-3.5 F3600
;WIPE_START
G1 F7200
G1 X79.688 Y75.942 E-1.425
;WIPE_END
G1 E-.075 F3600
G1 X81.188 Y81.687 F9000
G1 E5 F2400
;TYPE:Perimeter
;WIDTH:0.419999
G1 F1200
G1 X83.272 Y79.695 E.09039
G1 X85.469 Y77.832 E.09031
G1 X87.898 Y76.022 E.09497
G1 X90.183 Y74.513 E.08586
G1 X91.914 Y73.515 E.06264
G1 X91.706 Y73.914 E.01412
G1 X91.519 Y74.366 E.01533
G1 X91.405 Y74.794 E.01389
G1 X91.343 Y75.264 E.01485
G1 X91.341 Y75.721 E.01436
G1 X91.405 Y76.206 E.01533
G1 X91.519 Y76.634 E.01389
G1 X91.706 Y77.086 E.01533
G1 X91.928 Y77.469 E.01389
G1 X92.225 Y77.857 E.01533
G1 X92.539 Y78.17 E.01389
G1 X93.198 Y78.638 E.02536
G1 X93.762 Y78.876 E.01918
G1 X94.116 Y78.98 E.01158
G1 X94.674 Y79.055 E.01765
G1 X95.117 Y79.055 E.01389
G1 X95.864 Y78.935 E.02371
G1 X96.374 Y78.734 E.01719
G1 X96.789 Y78.523 E.0146
G1 X97.253 Y78.17 E.01827
G1 X97.531 Y77.901 E.01216
G1 X97.864 Y77.469 E.01707
G1 X98.064 Y77.135 E.01221
G1 X98.272 Y76.634 E.01702
G1 X98.387 Y76.206 E.01389
G1 X98.464 Y75.448 E.0239
G1 X98.387 Y74.794 E.02065
G1 X98.299 Y74.437 E.01153
G1 X98.085 Y73.914 E.0177
G1 X97.864 Y73.531 E.01389
G1 X97.421 Y72.978 E.02219
G1 X96.865 Y72.532 E.02236
G1 X96.481 Y72.311 E.01389
G1 X96.029 Y72.124 E.01533
G1 X95.571 Y72.005 E.01484
G1 X94.929 Y71.947 E.02022
G1 X95.258 Y71.783 E.01154
G1 X97.909 Y70.65 E.09038
G1 X100.622 Y69.677 E.09038
G1 X103.389 Y68.869 E.09038
G1 X106.2 Y68.227 E.09039
G1 X109.044 Y67.755 E.09038
G1 X111.908 Y67.454 E.09031
G1 X114.935 Y67.327 E.09497
G1 X117.673 Y67.368 E.08587
G1 X120.547 Y67.583 E.09038
G1 X123.404 Y67.97 E.09039
G1 X126.23 Y68.527 E.09031
G1 X129.16 Y69.297 E.09497
G1 X131.764 Y70.143 E.08586
G1 X134.447 Y71.196 E.09038
G1 X136.07 Y71.948 E.05607
G1 X135.421 Y72.009 E.02045
G1 X134.993 Y72.124 E.01389
G1 X134.468 Y72.343 E.01783
G1 X133.77 Y72.83 E.02669
G1 X133.456 Y73.143 E.01389
G1 X133.045 Y73.699 E.02169
G1 X132.75 Y74.366 E.02287
G1 X132.64 Y74.761 E.01286
G1 X132.572 Y75.279 E.01636
G1 X132.572 Y75.721 E.01389
G1 X132.712 Y76.533 E.02583
G1 X132.937 Y77.086 E.01871
G1 X133.135 Y77.437 E.01263
G1 X133.456 Y77.857 E.01659
G1 X133.727 Y78.136 E.01219
G1 X134.157 Y78.468 E.01704
G1 X134.517 Y78.679 E.01308
G1 X134.993 Y78.876 E.01614
G1 X135.385 Y78.986 E.01276
G1 X135.905 Y79.055 E.01647
G1 X136.32 Y79.058 E.01301
G1 X136.833 Y78.991 E.01621
G1 X137.223 Y78.892 E.01262
G1 X137.712 Y78.689 E.01661
G1 X138.096 Y78.468 E.01389
G1 X138.639 Y78.035 E.02177
G1 X139.095 Y77.469 E.02278
G1 X139.316 Y77.086 E.01389
G1 X139.584 Y76.387 E.02347
G1 X139.682 Y75.721 E.02108
G1 X139.682 Y75.279 E.01389
G1 X139.618 Y74.794 E.01533
G1 X139.503 Y74.366 E.01389
G1 X139.316 Y73.914 E.01533
G1 X139.056 Y73.481 E.01586
G1 X139.6 Y73.773 E.01935
G1 X142.172 Y75.373 E.09497
G1 X144.411 Y76.949 E.08587
G1 X146.665 Y78.746 E.09038
G1 X148.807 Y80.675 E.09038
G1 X150.829 Y82.727 E.09031
G1 X152.815 Y85.014 E.09497
G1 X154.49 Y87.18 E.08587
G1 X156.114 Y89.562 E.09038
G1 X157.262 Y91.484 E.0702
G1 X156.523 Y91.233 E.02447
G1 X156.019 Y91.182 E.01589
G1 X149.003 Y91.182 E.21998
G1 X148.302 Y91.271 E.02217
G1 X147.801 Y91.46 E.01679
G1 X147.417 Y91.682 E.01389
G1 X146.922 Y92.11 E.02052
G1 X146.6 Y92.54 E.01685
G1 X146.359 Y93.06 E.01796
G1 X146.245 Y93.488 E.01389
G1 X146.193 Y93.992 E.01589
G1 X146.193 Y127.008 E1.03519
G1 X146.245 Y127.512 E.01589
G1 X146.339 Y127.888 E.01216
G1 X146.553 Y128.38 E.01681
G1 X146.871 Y128.827 E.0172
G1 X147.157 Y129.119 E.01281
G1 X147.583 Y129.431 E.01654
G1 X148.071 Y129.652 E.01682
G1 X148.499 Y129.767 E.01389
G1 X149.003 Y129.818 E.01589
G1 X156.019 Y129.818 E.21998
G1 X156.678 Y129.739 E.0208
G1 X157.222 Y129.54 E.01817
G1 X157.838 Y129.14 E.02303
G1 X158.151 Y128.827 E.01389
G1 X158.494 Y128.334 E.01882
G1 X158.663 Y127.94 E.01345
G1 X158.778 Y127.512 E.01389
G1 X158.83 Y127.008 E.01589
G1 X158.83 Y94.419 E1.02179
G1 X160.093 Y97.229 E.09658
G1 X161.106 Y99.927 E.09039
G1 X161.956 Y102.682 E.09039
G1 X162.639 Y105.483 E.09039
G1 X163.154 Y108.319 E.09039
G1 X163.498 Y111.181 E.09038
G1 X163.67 Y114.059 E.09039
G1 X163.67 Y116.941 E.09038
G1 X163.498 Y119.819 E.09039
G1 X163.154 Y122.681 E.09038
G1 X162.64 Y125.515 E.09031
G1 X161.913 Y128.456 E.09497
G1 X161.106 Y131.073 E.08587
G1 X160.093 Y133.771 E.09039
G1 X158.921 Y136.405 E.09038
G1 X157.593 Y138.964 E.09039
G1 X156.114 Y141.438 E.09039
G1 X154.49 Y143.82 E.09039
G1 X152.727 Y146.1 E.09038
G1 X150.83 Y148.271 E.09039
G1 X148.809 Y150.323 E.09031
G1 X146.552 Y152.344 E.09497
G1 X144.411 Y154.051 E.08586
G1 X142.054 Y155.71 E.09039
G1 X139.602 Y157.226 E.09038
G1 X139.056 Y157.519 E.01943
G1 X139.316 Y157.086 E.01586
G1 X139.503 Y156.634 E.01533
G1 X139.618 Y156.206 E.01389
G1 X139.682 Y155.721 E.01533
G1 X139.682 Y155.279 E.01389
G1 X139.6 Y154.685 E.01879
G1 X139.316 Y153.914 E.02575
G1 X139.095 Y153.531 E.01389
G1 X138.639 Y152.965 E.02278
G1 X138.107 Y152.541 E.02131
G1 X137.731 Y152.318 E.01372
G1 X137.261 Y152.124 E.01596
G1 X136.802 Y152.005 E.01484
G1 X136.003 Y151.938 E.02515
G1 X135.421 Y152.009 E.0184
G1 X134.993 Y152.124 E.01389
G1 X134.258 Y152.461 E.02534
G1 X133.77 Y152.83 E.0192
G1 X133.456 Y153.143 E.01389
G1 X133.104 Y153.607 E.01828
G1 X132.777 Y154.301 E.02405
G1 X132.636 Y154.794 E.01607
G1 X132.561 Y155.608 E.02563
G1 X132.636 Y156.206 E.0189
G1 X132.75 Y156.634 E.01389
G1 X133.046 Y157.303 E.02294
G1 X133.456 Y157.857 E.02161
G1 X133.77 Y158.17 E.01389
G1 X134.468 Y158.657 E.02669
G1 X134.993 Y158.876 E.01783
G1 X135.421 Y158.991 E.01389
G1 X136.064 Y159.055 E.02027
G1 X134.447 Y159.804 E.05585
G1 X131.766 Y160.856 E.09031
G1 X128.883 Y161.784 E.09497
G1 X126.232 Y162.473 E.08587
G1 X123.404 Y163.03 E.09038
G1 X120.547 Y163.417 E.09039
G1 X117.673 Y163.632 E.09038
G1 X114.79 Y163.675 E.09039
G1 X111.911 Y163.546 E.09038
G1 X109.044 Y163.245 E.09039
G1 X106.2 Y162.773 E.09038
G1 X103.389 Y162.131 E.09039
G1 X100.622 Y161.323 E.09038
G1 X97.909 Y160.35 E.09038
G1 X95.553 Y159.344 E.08031
G1 X94.933 Y159.055 E.02145
G1 X95.286 Y159.033 E.01109
G1 X96.03 Y158.876 E.02382
G1 X96.481 Y158.689 E.01533
G1 X96.865 Y158.468 E.01389
G1 X97.421 Y158.022 E.02236
G1 X97.864 Y157.469 E.02219
G1 X98.119 Y157.005 E.01662
G1 X98.32 Y156.503 E.01696
G1 X98.43 Y155.875 E.01999
G1 X98.457 Y155.34 E.01677
G1 X98.387 Y154.794 E.01728
G1 X98.245 Y154.301 E.01607
G1 X97.919 Y153.607 E.02405
G1 X97.566 Y153.143 E.01828
G1 X97.284 Y152.855 E.01264
G1 X96.865 Y152.532 E.01659
G1 X96.493 Y152.316 E.01349
G1 X96.029 Y152.124 E.01574
G1 X95.571 Y152.005 E.01484
G1 X95.051 Y151.946 E.01642
G1 X94.707 Y151.942 E.01078
G1 X94.19 Y152.009 E.01636
G1 X93.762 Y152.124 E.01389
G1 X93.03 Y152.459 E.02523
G1 X92.539 Y152.83 E.01931
G1 X92.225 Y153.143 E.01389
G1 X91.737 Y153.845 E.02681
G1 X91.519 Y154.366 E.01772
G1 X91.405 Y154.794 E.01389
G1 X91.341 Y155.279 E.01533
G1 X91.341 Y155.721 E.01389
G1 X91.405 Y156.206 E.01533
G1 X91.519 Y156.634 E.01389
G1 X91.706 Y157.086 E.01533
G1 X91.962 Y157.513 E.01561
G1 X90.183 Y156.487 E.06438
G1 X87.777 Y154.898 E.09039
G1 X85.471 Y153.169 E.09038
G1 X83.272 Y151.305 E.09039
G1 X81.188 Y149.313 E.09039
G1 X79.228 Y147.2 E.09038
G1 X77.397 Y144.973 E.09038
G1 X75.702 Y142.641 E.09039
G1 X74.15 Y140.212 E.09038
G1 X72.747 Y137.694 E.09039
G1 X71.496 Y135.097 E.09038
G1 X70.403 Y132.43 E.09038
G1 X69.471 Y129.702 E.09038
G1 X68.704 Y126.923 E.09039
G1 X68.105 Y124.103 E.09039
G1 X67.675 Y121.253 E.09038
G1 X67.417 Y118.381 E.09039
G1 X67.33 Y115.502 E.09031
G1 X67.429 Y112.475 E.09497
G1 X67.675 Y109.747 E.08587
G1 X68.105 Y106.897 E.09038
G1 X68.704 Y104.077 E.09039
G1 X69.471 Y101.298 E.09039
G1 X70.403 Y98.57 E.09038
G1 X71.496 Y95.903 E.09038
G1 X72.193 Y94.456 E.05038
G1 X72.193 Y126.503 E1.00483
G1 X72.207 Y127.229 E.02278
G1 X72.291 Y127.742 E.01628
G1 X72.556 Y128.386 E.02182
G1 X72.871 Y128.827 E.017
G1 X73.417 Y129.318 E.02303
G1 X73.801 Y129.54 E.01389
G1 X74.499 Y129.767 E.02303
G1 X75.003 Y129.818 E.01589
G1 X82.019 Y129.818 E.21998
G1 X82.709 Y129.732 E.02179
G1 X83.222 Y129.54 E.01718
G1 X83.605 Y129.318 E.01389
G1 X84.085 Y128.908 E.0198
G1 X84.426 Y128.455 E.01777
G1 X84.663 Y127.94 E.01778
G1 X84.778 Y127.512 E.01389
G1 X84.83 Y127.008 E.01589
G1 X84.83 Y94.73 E1.01204
G1 X84.816 Y93.776 E.02994
G1 X84.737 Y93.28 E.01572
G1 X84.551 Y92.789 E.01647
G1 X84.33 Y92.406 E.01389
G1 X83.958 Y91.962 E.01814
G1 X83.492 Y91.602 E.01846
G1 X82.951 Y91.348 E.01874
G1 X82.523 Y91.233 E.01389
G1 X82.019 Y91.182 E.01589
G1 X75.003 Y91.182 E.21998
G1 X74.499 Y91.233 E.01589
G1 X74.071 Y91.348 E.01389
G1 X73.764 Y91.481 E.01051
G1 X74.15 Y90.788 E.02489
G1 X75.702 Y88.359 E.09038
G1 X77.397 Y86.027 E.09039
G1 X79.228 Y83.8 E.09038
G1 X81.147 Y81.731 E.0885
G1 X80.92 Y81.422 F9000
G1 F1200
G1 X83.019 Y79.414 E.09109
G1 X85.234 Y77.537 E.09104
G1 X87.681 Y75.713 E.09568
G1 X89.985 Y74.193 E.08656
G1 X91.725 Y73.188 E.063
;WIDTH:0.46728
G1 X92.917 Y72.542 E.04785
;WIDTH:0.438004
G1 X93.305 Y72.332 E.01448
;WIDTH:0.419999
G1 X95.099 Y71.44 E.06283
G1 X97.771 Y70.299 E.09109
G1 X100.506 Y69.318 E.09109
G1 X103.295 Y68.504 E.09109
G1 X106.127 Y67.857 E.09109
G1 X108.993 Y67.381 E.09109
G1 X111.881 Y67.078 E.09103
G1 X114.929 Y66.949 E.09568
G1 X117.69 Y66.991 E.08656
G1 X120.587 Y67.208 E.09109
G1 X123.466 Y67.598 E.09109
G1 X126.315 Y68.159 E.09103
G1 X129.266 Y68.935 E.09568
G1 X131.891 Y69.788 E.08656
G1 X134.596 Y70.849 E.09109
G1 X136.416 Y71.693 E.06289
;WIDTH:0.436023
G1 X137.288 Y72.11 E.0316
G1 X138.068 Y72.519 E.02881
;WIDTH:0.458255
G1 X138.506 Y72.778 E.01758
G1 X139.29 Y73.178 E.0304
;WIDTH:0.419999
G1 X139.789 Y73.447 E.01774
G1 X142.38 Y75.058 E.09568
G1 X144.637 Y76.647 E.08656
G1 X146.909 Y78.458 E.09109
G1 X149.068 Y80.402 E.09109
G1 X151.105 Y82.471 E.09103
G1 X153.107 Y84.774 E.09568
G1 X154.796 Y86.958 E.08656
G1 X156.432 Y89.359 E.09109
G1 X157.782 Y91.619 E.08255
G1 X158.126 Y92.229 E.02196
;WIDTH:0.405381
G1 X158.263 Y92.466 E.00825
;WIDTH:0.379468
G1 X158.401 Y92.703 E.00766
;WIDTH:0.377161
G1 X158.642 Y93.192 E.01515
;WIDTH:0.419999
G1 X158.873 Y93.684 E.01703
G1 X159.261 Y94.431 E.0264
G1 X160.442 Y97.086 E.09109
G1 X161.463 Y99.806 E.09109
G1 X162.319 Y102.582 E.09109
G1 X163.008 Y105.404 E.09109
G1 X163.527 Y108.263 E.09109
G1 X163.874 Y111.147 E.09109
G1 X164.048 Y114.047 E.09109
G1 X164.048 Y116.953 E.09109
G1 X163.874 Y119.853 E.09109
G1 X163.527 Y122.737 E.09109
G1 X163.009 Y125.594 E.09103
G1 X162.277 Y128.557 E.09568
G1 X161.463 Y131.194 E.08656
G1 X160.442 Y133.914 E.09109
G1 X159.261 Y136.569 E.09109
G1 X157.922 Y139.147 E.09109
G1 X156.432 Y141.641 E.09109
G1 X154.796 Y144.042 E.09109
G1 X153.018 Y146.34 E.09109
G1 X151.107 Y148.528 E.09109
G1 X149.069 Y150.596 E.09103
G1 X146.796 Y152.632 E.09568
G1 X144.637 Y154.353 E.08656
G1 X142.262 Y156.025 E.09109
G1 X139.79 Y157.553 E.09109
G1 X139.29 Y157.822 E.0178
;WIDTH:0.456593
G1 X138.489 Y158.232 E.03096
G1 X137.724 Y158.669 E.03032
;WIDTH:0.439753
G1 X136.473 Y159.281 E.04595
;WIDTH:0.419999
G1 X134.596 Y160.151 E.06487
G1 X131.893 Y161.211 E.09103
G1 X128.988 Y162.146 E.09568
G1 X126.316 Y162.841 E.08656
G1 X123.466 Y163.402 E.09109
G1 X120.587 Y163.792 E.09109
G1 X117.69 Y164.009 E.09109
G1 X114.785 Y164.053 E.0911
G1 X111.882 Y163.922 E.09109
G1 X108.993 Y163.619 E.09109
G1 X106.127 Y163.143 E.09109
G1 X103.295 Y162.496 E.09109
G1 X100.506 Y161.682 E.09109
G1 X97.771 Y160.701 E.09109
G1 X95.099 Y159.56 E.09109
G1 X94.54 Y159.28 E.01962
;WIDTH:0.426103
G1 X92.956 Y158.488 E.05641
;WIDTH:0.420521
G1 X92.501 Y158.26 E.01598
;WIDTH:0.419999
G1 X89.985 Y156.807 E.09109
G1 X87.56 Y155.207 E.09109
G1 X85.236 Y153.464 E.09109
G1 X83.019 Y151.586 E.09109
G1 X80.92 Y149.578 E.09109
G1 X78.943 Y147.448 E.09109
G1 X77.098 Y145.204 E.09109
G1 X75.391 Y142.854 E.09109
G1 X73.827 Y140.405 E.09109
G1 X72.412 Y137.868 E.09109
G1 X71.151 Y135.25 E.09109
G1 X70.049 Y132.562 E.09109
G1 X69.11 Y129.813 E.09109
G1 X68.337 Y127.012 E.09109
G1 X67.733 Y124.17 E.09109
G1 X67.3 Y121.298 E.09109
G1 X67.04 Y118.404 E.09109
