; generated by PrusaSlicer 2.5.0+linux-x64-GTK2 on 2023-07-15 at 18:46:42 UTC

; 

; external perimeters extrusion width = 0.42mm
; perimeters extrusion width = 0.44mm
; infill extrusion width = 0.44mm
; solid infill extrusion width = 0.44mm
; top infill extrusion width = 0.40mm
; first layer extrusion width = 0.42mm

M107
;TYPE:Custom
G90 ; use absolute coordinates
M83 ; extruder relative mode
M140 S60 ; set final bed temp
M104 S150 ; set temporary nozzle temp to prevent oozing during homing
G4 S10 ; allow partial nozzle warmup
G28 ; home all axis
G1 Z50 F240
G1 X2 Y10 F3000
M104 S210 ; set final nozzle temp
M190 S60 ; wait for bed temp to stabilize
M109 S210 ; wait for nozzle temp to stabilize
G1 Z0.28 F240
G92 E0
G1 Y140 E10 F1500 ; prime the nozzle
G1 X2.3 F5000
G92 E0
G1 Y10 E10 F1200 ; prime the nozzle
G92 E0
G21 ; set units to millimeters
G90 ; use absolute coordinates
M83 ; use relative distances for extrusion
; Filament gcode
M107
;LAYER_CHANGE
;Z:0.2
;HEIGHT:0.2
;BEFORE_LAYER_CHANGE
G92 E0
;0.2


G1 E-5 F3600
G1 Z.2 F9000
;AFTER_LAYER_CHANGE
;0.2
G1 X77.559 Y77.969
G1 E5 F2400
M204 S500
;TYPE:Skirt/Brim
;WIDTH:0.42
G1 F1200
G1 X79.721 Y75.902 E.0938
G1 X82.153 Y73.832 E.10013
G1 X84.87 Y71.796 E.10646
G1 X87.538 Y70.041 E.10013
G1 X90.307 Y68.45 E.10013
G1 X93.166 Y67.027 E.10013
G1 X95.917 Y65.851 E.0938
G1 X99.113 Y64.706 E.10646
G1 X102.18 Y63.816 E.10013
G1 X105.295 Y63.111 E.10013
G1 X108.446 Y62.594 E.10013
G1 X111.422 Y62.281 E.0938
G1 X114.844 Y62.129 E.1074
G1 X118.007 Y62.183 E.09919
G1 X121.191 Y62.427 E.10013
G1 X124.155 Y62.829 E.0938
G1 X127.29 Y63.44 E.10013
G1 X130.661 Y64.322 E.10927
G1 X133.611 Y65.287 E.09731
G1 X136.582 Y66.459 E.10013
G1 X139.477 Y67.807 E.10013
G1 X142.111 Y69.225 E.0938
G1 X145 Y71.01 E.10646
G1 X147.608 Y72.853 E.10013
G1 X150.101 Y74.849 E.10013
G1 X152.47 Y76.99 E.10013
G1 X154.57 Y79.121 E.0938
G1 X156.675 Y81.522 E.10013
G1 X158.634 Y84.045 E.10013
G1 X160.546 Y86.85 E.10646
G1 X162.081 Y89.418 E.0938
G1 X163.557 Y92.25 E.10013
G1 X164.938 Y95.352 E.10646
G1 X166.055 Y98.344 E.10013
G1 X166.936 Y101.203 E.0938
G1 X167.757 Y104.59 E.10927
G1 X168.306 Y107.645 E.09732
G1 X168.681 Y110.816 E.10013
G1 X168.86 Y113.802 E.0938
G1 X168.866 Y116.996 E.10013
G1 X168.663 Y120.385 E.10646
G1 X168.306 Y123.355 E.0938
G1 X167.741 Y126.499 E.10013
G1 X166.91 Y129.883 E.10927
G1 X165.989 Y132.847 E.09732
G1 X164.862 Y135.835 E.10013
G1 X163.557 Y138.75 E.10013
G1 X162.179 Y141.405 E.0938
G1 X160.546 Y144.15 E.10013
G1 X158.752 Y146.792 E.10013
G1 X156.675 Y149.478 E.10646
G1 X154.57 Y151.879 E.10013
G1 X152.47 Y154.01 E.0938
G1 X149.923 Y156.3 E.1074
G1 X147.446 Y158.268 E.09919
G1 X144.831 Y160.101 E.10013
G1 X142.112 Y161.775 E.10013
G1 X139.477 Y163.193 E.0938
G1 X136.396 Y164.62 E.10646
G1 X133.421 Y165.781 E.10013
G1 X130.382 Y166.762 E.10013
G1 X127.487 Y167.515 E.0938
G1 X124.355 Y168.138 E.10013
G1 X120.99 Y168.594 E.10646
G1 X117.805 Y168.826 E.10013
G1 X114.814 Y168.871 E.0938
G1 X111.392 Y168.716 E.1074
G1 X108.246 Y168.379 E.09919
G1 X105.097 Y167.85 E.10013
G1 X101.985 Y167.133 E.10013
G1 X98.921 Y166.232 E.10013
G1 X95.917 Y165.149 E.10013
G1 X93.166 Y163.973 E.0938
G1 X90.129 Y162.454 E.10646
G1 X87.367 Y160.852 E.10013
G1 X84.705 Y159.088 E.10013
G1 X82.153 Y157.168 E.10013
G1 X79.871 Y155.233 E.0938
G1 X77.417 Y152.887 E.10646
G1 X75.249 Y150.542 E.10013
G1 X73.226 Y148.071 E.10013
G1 X71.467 Y145.651 E.0938
G1 X69.743 Y142.963 E.10013
G1 X68.089 Y139.997 E.10646
G1 X66.709 Y137.118 E.10013
G1 X65.575 Y134.349 E.0938
G1 X64.469 Y131.107 E.1074
G1 X63.633 Y128.056 E.09919
G1 X62.975 Y124.931 E.10013
G1 X62.505 Y121.773 E.10013
G1 X62.237 Y118.793 E.0938
G1 X62.136 Y115.399 E.10646
G1 X62.237 Y112.207 E.10013
G1 X62.505 Y109.228 E.0938
G1 X63.011 Y105.87 E.10646
G1 X63.681 Y102.748 E.10013
G1 X64.477 Y99.864 E.0938
G1 X65.504 Y96.84 E.10013
G1 X66.709 Y93.882 E.10013
G1 X68.226 Y90.745 E.10927
G1 X69.743 Y88.037 E.09732
G1 X71.467 Y85.349 E.10013
G1 X73.226 Y82.929 E.0938
G1 X75.249 Y80.458 E.10013
G1 X77.518 Y78.013 E.10458
G1 E-3.5 F3600
;WIPE_START
G1 F7200
G1 X79.684 Y75.937 E-1.425
;WIPE_END
G1 E-.075 F3600
G1 X80.653 Y81.159 F9000
G1 E5 F2400
;TYPE:Perimeter
;WIDTH:0.42541
G1 F1200
G1 X81.208 Y80.617 E.02468
;WIDTH:0.425597
G1 X82.765 Y79.14 E.06829
G1 X83.398 Y78.591 E.02668
;WIDTH:0.425984
G1 X84.998 Y77.247 E.06655
G1 X85.708 Y76.703 E.02851
;WIDTH:0.426339
G1 X87.34 Y75.491 E.06481
G1 X88.129 Y74.958 E.03034
;WIDTH:0.426659
G1 X89.784 Y73.878 E.06306
G1 X90.652 Y73.365 E.03217
;WIDTH:0.426945
G1 X92.319 Y72.414 E.06129
G1 X93.267 Y71.928 E.034
;WIDTH:0.4272
G1 X94.937 Y71.104 E.05952
G1 X95.902 Y70.68 E.03365
;WIDTH:0.407227
G1 X95.964 Y70.654 E.00207
;WIDTH:0.427421
G1 X97.629 Y69.953 E.05775
G1 X98.67 Y69.569 E.03548
;WIDTH:0.407
G1 X98.735 Y69.546 E.00206
;WIDTH:0.42761
G1 X100.385 Y68.965 E.05597
G1 X101.502 Y68.628 E.03731
;WIDTH:0.406808
G1 X101.567 Y68.609 E.00206
;WIDTH:0.427769
G1 X103.195 Y68.144 E.05418
G1 X104.385 Y67.861 E.03914
;WIDTH:0.40665
G1 X104.452 Y67.846 E.00206
;WIDTH:0.427891
G1 X106.049 Y67.492 E.05238
G1 X107.31 Y67.272 E.04097
;WIDTH:0.406523
G1 X107.377 Y67.261 E.00206
;WIDTH:0.427981
G1 X108.937 Y67.012 E.05058
G1 X110.265 Y66.862 E.04279
;WIDTH:0.406429
G1 X110.333 Y66.855 E.00206
;WIDTH:0.428035
G1 X111.849 Y66.706 E.04876
G1 X113.24 Y66.633 E.04462
;WIDTH:0.405988
G1 X113.308 Y66.63 E.00206
;WIDTH:0.42766
G1 X114.8 Y66.575 E.04776
G1 X116.191 Y66.585 E.0445
;WIDTH:0.406823
G1 X116.258 Y66.586 E.00204
;WIDTH:0.428553
G1 X117.712 Y66.619 E.04663
G1 X119.203 Y66.719 E.04791
;WIDTH:0.406394
G1 X119.272 Y66.724 E.00208
;WIDTH:0.428013
G1 X120.632 Y66.837 E.0437
G1 X122.17 Y67.035 E.04968
;WIDTH:0.406471
G1 X122.238 Y67.044 E.00206
;WIDTH:0.427942
G1 X123.533 Y67.231 E.04188
G1 X125.112 Y67.531 E.05148
;WIDTH:0.406585
G1 X125.179 Y67.544 E.00206
;WIDTH:0.42783
G1 X126.405 Y67.797 E.04005
G1 X128.019 Y68.206 E.05329
;WIDTH:0.406255
G1 X128.085 Y68.223 E.00206
;WIDTH:0.427371
G1 X129.264 Y68.542 E.03904
G1 X130.879 Y69.056 E.05417
;WIDTH:0.406903
G1 X130.943 Y69.077 E.00206
;WIDTH:0.427522
G1 X132.023 Y69.439 E.0364
G1 X133.681 Y70.078 E.05686
;WIDTH:0.407112
G1 X133.745 Y70.104 E.00207
;WIDTH:0.427316
G1 X134.748 Y70.508 E.03457
G1 X136.417 Y71.27 E.05864
;WIDTH:0.407354
G1 X136.478 Y71.299 E.00207
;WIDTH:0.427077
G1 X137.404 Y71.739 E.03274
G1 X139.074 Y72.627 E.06041
;WIDTH:0.407627
G1 X139.134 Y72.659 E.00207
;WIDTH:0.426803
G1 X139.982 Y73.127 E.03091
G1 X141.644 Y74.142 E.06217
;WIDTH:0.407936
G1 X141.702 Y74.178 E.00207
;WIDTH:0.426501
G1 X142.472 Y74.666 E.02908
G1 X144.117 Y75.812 E.06393
;WIDTH:0.408276
G1 X144.173 Y75.852 E.00207
;WIDTH:0.426164
G1 X144.866 Y76.351 E.02725
G1 X146.483 Y77.629 E.06568
;WIDTH:0.408651
G1 X146.537 Y77.672 E.00208
;WIDTH:0.425795
G1 X147.155 Y78.177 E.02542
G1 X148.735 Y79.587 E.06742
;WIDTH:0.409056
G1 X148.785 Y79.633 E.00208
;WIDTH:0.42539
G1 X149.331 Y80.136 E.02359
G1 X150.863 Y81.679 E.06915
;WIDTH:0.409495
G1 X150.91 Y81.728 E.00208
;WIDTH:0.424955
G1 X151.385 Y82.221 E.02176
G1 X152.859 Y83.896 E.07087
;WIDTH:0.409968
G1 X152.904 Y83.948 E.00209
;WIDTH:0.424487
G1 X153.311 Y84.426 E.01994
G1 X154.717 Y86.232 E.07258
;WIDTH:0.410475
G1 X154.758 Y86.286 E.00209
;WIDTH:0.423987
G1 X155.102 Y86.742 E.01812
G1 X156.429 Y88.675 E.07428
;WIDTH:0.411012
G1 X156.467 Y88.732 E.00209
;WIDTH:0.42345
G1 X156.752 Y89.161 E.0163
G1 X157.988 Y91.219 E.07597
;WIDTH:0.410897
G1 X157.994 Y91.229 E.00036
;WIDTH:0.422883
G1 X158.253 Y91.675 E.01628
G1 X159.39 Y93.853 E.07764
;WIDTH:0.422276
G1 X159.602 Y94.273 E.01483
G1 X160.628 Y96.569 E.07932
;WIDTH:0.421557
G1 X160.802 Y96.973 E.01386
G1 X161.7 Y99.353 E.0801
;WIDTH:0.420982
G1 X161.821 Y99.689 E.01122
G1 X162.59 Y102.168 E.08159
;WIDTH:0.421177
G1 X162.684 Y102.487 E.01046
G1 X163.323 Y105.093 E.08439
;WIDTH:0.419553
G1 X163.87 Y108.028 E.09348
;WIDTH:0.418787
G1 X164.233 Y110.957 E.09227
;WIDTH:0.418938
G1 X164.422 Y113.967 E.09429
;WIDTH:0.417162
G1 X164.422 Y117.032 E.09538
;WIDTH:0.417991
G1 X164.237 Y120.011 E.09308
;WIDTH:0.418787
G1 X163.87 Y122.972 E.09327
;WIDTH:0.419551
G1 X163.378 Y125.668 E.08582
G1 X162.599 Y128.801 E.1011
;WIDTH:0.420981
G1 X161.821 Y131.311 E.0826
G1 X161.7 Y131.647 E.01122
;WIDTH:0.421648
G1 X160.793 Y134.052 E.08096
G1 X160.642 Y134.402 E.012
;WIDTH:0.422412
G1 X159.602 Y136.727 E.08037
G1 X159.39 Y137.147 E.01484
;WIDTH:0.422884
G1 X158.253 Y139.325 E.07764
G1 X157.988 Y139.781 E.01665
;WIDTH:0.42345
G1 X156.752 Y141.839 E.07597
G1 X156.429 Y142.325 E.01846
;WIDTH:0.423987
G1 X155.102 Y144.258 E.07428
G1 X154.717 Y144.768 E.02028
;WIDTH:0.424487
G1 X153.311 Y146.574 E.07258
G1 X152.859 Y147.104 E.02211
;WIDTH:0.424955
G1 X151.385 Y148.778 E.07087
G1 X150.863 Y149.321 E.02393
;WIDTH:0.42539
G1 X149.331 Y150.864 E.06915
G1 X148.735 Y151.413 E.02576
;WIDTH:0.425795
G1 X147.155 Y152.823 E.06742
G1 X146.483 Y153.371 E.02759
;WIDTH:0.426164
G1 X144.866 Y154.649 E.06568
G1 X144.117 Y155.188 E.02942
;WIDTH:0.426501
G1 X142.472 Y156.334 E.06393
G1 X141.644 Y156.858 E.03125
;WIDTH:0.426804
G1 X139.982 Y157.873 E.06217
G1 X139.074 Y158.373 E.03309
;WIDTH:0.427077
G1 X137.404 Y159.261 E.06041
G1 X136.478 Y159.701 E.03274
;WIDTH:0.407354
G1 X136.417 Y159.73 E.00207
;WIDTH:0.427316
G1 X134.748 Y160.492 E.05864
G1 X133.745 Y160.896 E.03457
;WIDTH:0.407112
G1 X133.681 Y160.922 E.00207
;WIDTH:0.427522
G1 X132.023 Y161.561 E.05686
G1 X130.943 Y161.923 E.0364
;WIDTH:0.406903
G1 X130.879 Y161.944 E.00206
;WIDTH:0.427695
G1 X129.238 Y162.466 E.05507
G1 X128.085 Y162.777 E.03823
;WIDTH:0.406728
G1 X128.019 Y162.795 E.00206
;WIDTH:0.427836
G1 X126.405 Y163.203 E.05328
G1 X125.179 Y163.456 E.04005
;WIDTH:0.406586
G1 X125.112 Y163.469 E.00206
;WIDTH:0.427942
G1 X123.533 Y163.769 E.05148
G1 X122.238 Y163.956 E.04188
;WIDTH:0.406471
G1 X122.17 Y163.965 E.00206
;WIDTH:0.428013
G1 X120.632 Y164.163 E.04968
G1 X119.272 Y164.276 E.0437
;WIDTH:0.406394
G1 X119.204 Y164.281 E.00206
;WIDTH:0.428055
G1 X117.712 Y164.382 E.04787
G1 X116.291 Y164.414 E.04552
;WIDTH:0.40635
G1 X116.223 Y164.415 E.00206
;WIDTH:0.428063
G1 X114.773 Y164.426 E.04643
G1 X113.308 Y164.371 E.04696
;WIDTH:0.406367
G1 X113.24 Y164.368 E.00206
;WIDTH:0.428039
G1 X111.849 Y164.294 E.04461
G1 X110.333 Y164.145 E.04878
;WIDTH:0.406429
G1 X110.265 Y164.138 E.00206
;WIDTH:0.427981
G1 X108.937 Y163.988 E.04279
G1 X107.377 Y163.739 E.05058
;WIDTH:0.406523
G1 X107.31 Y163.728 E.00206
;WIDTH:0.427891
G1 X106.049 Y163.508 E.04097
G1 X104.452 Y163.154 E.05238
;WIDTH:0.40665
G1 X104.385 Y163.139 E.00206
;WIDTH:0.427769
G1 X103.195 Y162.856 E.03914
G1 X101.567 Y162.391 E.05418
;WIDTH:0.406808
G1 X101.502 Y162.372 E.00206
;WIDTH:0.427611
G1 X100.385 Y162.035 E.03731
G1 X98.735 Y161.454 E.05597
;WIDTH:0.407
G1 X98.67 Y161.431 E.00206
;WIDTH:0.427422
G1 X97.629 Y161.047 E.03548
G1 X95.964 Y160.346 E.05775
;WIDTH:0.407227
G1 X95.902 Y160.32 E.00207
;WIDTH:0.4272
G1 X94.937 Y159.896 E.03365
G1 X93.267 Y159.072 E.05952
;WIDTH:0.407485
G1 X93.206 Y159.041 E.00207
;WIDTH:0.426945
G1 X92.319 Y158.586 E.03182
G1 X90.652 Y157.635 E.06129
;WIDTH:0.407778
G1 X90.593 Y157.601 E.00207
;WIDTH:0.426658
G1 X89.784 Y157.122 E.02999
G1 X88.129 Y156.042 E.06306
;WIDTH:0.408102
G1 X88.072 Y156.004 E.00207
;WIDTH:0.426339
G1 X87.34 Y155.509 E.02816
G1 X85.708 Y154.297 E.06481
;WIDTH:0.408461
G1 X85.654 Y154.256 E.00208
;WIDTH:0.425984
G1 X84.998 Y153.753 E.02633
G1 X83.398 Y152.409 E.06655
;WIDTH:0.408849
G1 X83.346 Y152.365 E.00208
;WIDTH:0.425597
G1 X82.765 Y151.86 E.0245
G1 X81.208 Y150.383 E.06829
;WIDTH:0.409272
G1 X81.159 Y150.336 E.00208
;WIDTH:0.425178
G1 X80.649 Y149.837 E.02267
G1 X79.145 Y148.228 E.07001
;WIDTH:0.409728
G1 X79.098 Y148.177 E.00208
;WIDTH:0.424726
G1 X78.658 Y147.691 E.02085
G1 X77.217 Y145.95 E.07173
;WIDTH:0.410217
G1 X77.174 Y145.897 E.00209
;WIDTH:0.424241
G1 X76.798 Y145.429 E.01903
G1 X75.431 Y143.56 E.07343
;WIDTH:0.410739
G1 X75.391 Y143.504 E.00209
;WIDTH:0.423724
G1 X75.077 Y143.06 E.01721
G1 X73.795 Y141.065 E.07512
;WIDTH:0.410628
G1 X73.788 Y141.054 E.00038
;WIDTH:0.423171
G1 X73.501 Y140.593 E.01716
G1 X72.313 Y138.474 E.07681
;WIDTH:0.422587
G1 X72.076 Y138.036 E.01574
G1 X70.992 Y135.799 E.07848
;WIDTH:0.421971
G1 X70.805 Y135.398 E.01393
G1 X69.837 Y133.047 E.08013
;WIDTH:0.421314
G1 X69.695 Y132.689 E.01212
G1 X68.862 Y130.261 E.08078
;WIDTH:0.421444
G1 X68.742 Y129.893 E.01219
G1 X68.039 Y127.36 E.08273
;WIDTH:0.419923
G1 X67.403 Y124.444 E.09357
;WIDTH:0.419177
G1 X66.946 Y121.494 E.09337
;WIDTH:0.41839
G1 X66.67 Y118.523 E.09317
;WIDTH:0.41758
G1 X66.575 Y115.54 E.09297
;WIDTH:0.416989
G1 X66.574 Y115.5 E.00124
G1 X66.575 Y115.46 E.00126
;WIDTH:0.416791
G1 X66.67 Y112.477 E.09278
;WIDTH:0.418391
G1 X66.946 Y109.506 E.09317
;WIDTH:0.419178
G1 X67.403 Y106.556 E.09337
;WIDTH:0.419923
G1 X68.039 Y103.641 E.09355
;WIDTH:0.42064
G1 X68.749 Y101.082 E.08341
G1 X68.851 Y100.769 E.01032
;WIDTH:0.421321
G1 X69.695 Y98.311 E.08178
G1 X69.837 Y97.953 E.01212
;WIDTH:0.421971
G1 X70.805 Y95.602 E.08013
G1 X70.992 Y95.201 E.01393
;WIDTH:0.422587
G1 X72.076 Y92.964 E.07848
G1 X72.313 Y92.526 E.01574
;WIDTH:0.423172
G1 X73.501 Y90.407 E.07681
G1 X73.795 Y89.935 E.01755
;WIDTH:0.423724
G1 X75.077 Y87.94 E.07512
G1 X75.431 Y87.44 E.01937
;WIDTH:0.424241
G1 X76.798 Y85.571 E.07343
G1 X77.217 Y85.05 E.02119
;WIDTH:0.424726
G1 X78.658 Y83.309 E.07173
G1 X79.123 Y82.797 E.02198
;WIDTH:0.42541
G1 X80.612 Y81.203 E.06937
G1 X80.382 Y80.893 F9000
;WIDTH:0.419999
G1 F1200
G1 X82.515 Y78.854 E.09251
G1 X84.765 Y76.946 E.09251
G1 X87.126 Y75.176 E.09251
G1 X89.588 Y73.551 E.09251
G1 X92.143 Y72.076 E.09251
G1 X94.782 Y70.756 E.09251
G1 X97.495 Y69.596 E.09251
G1 X100.273 Y68.601 E.09251
G1 X103.105 Y67.774 E.09251
G1 X105.981 Y67.117 E.09251
G1 X108.892 Y66.634 E.09251
G1 X111.826 Y66.325 E.0925
G1 X114.8 Y66.193 E.09335
G1 X117.724 Y66.237 E.09167
G1 X120.666 Y66.458 E.09251
G1 X123.589 Y66.854 E.09251
G1 X126.484 Y67.424 E.0925
G1 X129.365 Y68.174 E.09335
G1 X132.146 Y69.078 E.09167
G1 X134.892 Y70.156 E.09251
G1 X137.569 Y71.396 E.09251
G1 X140.168 Y72.794 E.09251
G1 X142.677 Y74.345 E.09251
G1 X145.09 Y76.043 E.09251
G1 X147.397 Y77.883 E.09251
G1 X149.589 Y79.857 E.09251
G1 X151.66 Y81.959 E.09251
G1 X153.601 Y84.181 E.09251
G1 X155.406 Y86.515 E.09251
G1 X157.068 Y88.953 E.09251
G1 X158.581 Y91.485 E.09251
G1 X159.94 Y94.104 E.0925
G1 X161.15 Y96.824 E.09335
G1 X162.177 Y99.562 E.09167
G1 X163.047 Y102.381 E.09251
G1 X163.746 Y105.247 E.09251
G1 X164.273 Y108.15 E.09251
G1 X164.625 Y111.08 E.09251
G1 X164.802 Y114.025 E.09251
G1 X164.802 Y116.975 E.09251
G1 X164.625 Y119.92 E.09251
G1 X164.273 Y122.85 E.09251
G1 X163.746 Y125.753 E.0925
G1 X163.039 Y128.645 E.09335
G1 X162.177 Y131.438 E.09167
G1 X161.14 Y134.201 E.09251
G1 X159.94 Y136.896 E.09251
G1 X158.581 Y139.515 E.09251
G1 X157.068 Y142.047 E.09251
G1 X155.406 Y144.485 E.09251
G1 X153.601 Y146.819 E.09251
G1 X151.66 Y149.041 E.09251
G1 X149.589 Y151.143 E.09251
G1 X147.397 Y153.117 E.09251
G1 X145.09 Y154.957 E.09251
G1 X142.677 Y156.655 E.09251
G1 X140.168 Y158.206 E.09251
G1 X137.569 Y159.604 E.09251
G1 X134.892 Y160.844 E.09251
G1 X132.146 Y161.922 E.09251
G1 X129.34 Y162.834 E.09251
G1 X126.484 Y163.576 E.09251
G1 X123.59 Y164.146 E.09251
G1 X120.666 Y164.542 E.09251
G1 X117.724 Y164.763 E.09251
G1 X114.773 Y164.807 E.09251
G1 X111.826 Y164.675 E.09251
G1 X108.892 Y164.366 E.09251
G1 X105.981 Y163.883 E.09251
G1 X103.105 Y163.226 E.09251
G1 X100.273 Y162.399 E.09251
G1 X97.495 Y161.404 E.09251
G1 X94.782 Y160.244 E.09251
G1 X92.143 Y158.924 E.09251
G1 X89.588 Y157.449 E.09251
G1 X87.126 Y155.824 E.09251
G1 X84.765 Y154.054 E.09251
G1 X82.515 Y152.146 E.09251
G1 X80.382 Y150.107 E.09251
G1 X78.375 Y147.945 E.09251
G1 X76.501 Y145.666 E.09251
G1 X74.767 Y143.279 E.09251
G1 X73.179 Y140.792 E.09251
G1 X71.742 Y138.215 E.09251
G1 X70.462 Y135.557 E.09251
G1 X69.343 Y132.827 E.0925
G1 X68.382 Y130.009 E.09335
G1 X67.604 Y127.191 E.09167
G1 X66.991 Y124.305 E.09251
G1 X66.551 Y121.388 E.09251
