; generated by PrusaSlicer 2.5.0+linux-x64-GTK2 on 2023-07-01 at 06:07:52 UTC

; 

; external perimeters extrusion width = 0.42mm
; perimeters extrusion width = 0.44mm
; infill extrusion width = 0.44mm
; solid infill extrusion width = 0.44mm
; top infill extrusion width = 0.40mm
; first layer extrusion width = 0.42mm

; external perimeters extrusion width = 0.42mm
; perimeters extrusion width = 0.44mm
; infill extrusion width = 0.44mm
; solid infill extrusion width = 0.44mm
; top infill extrusion width = 0.40mm
; first layer extrusion width = 0.42mm

M107
;TYPE:Custom
G90 ; use absolute coordinates
M83 ; extruder relative mode
M140 S60 ; set final bed temp
M104 S150 ; set temporary nozzle temp to prevent oozing during homing
G4 S10 ; allow partial nozzle warmup
G28 ; home all axis
G1 Z50 F240
G1 X2 Y10 F3000
M104 S210 ; set final nozzle temp
M190 S60 ; wait for bed temp to stabilize
M109 S210 ; wait for nozzle temp to stabilize
G1 Z0.28 F240
G92 E0
G1 Y140 E10 F1500 ; prime the nozzle
G1 X2.3 F5000
G92 E0
G1 Y10 E10 F1200 ; prime the nozzle
G92 E0
G21 ; set units to millimeters
G90 ; use absolute coordinates
M83 ; use relative distances for extrusion
; Filament gcode
M107
;LAYER_CHANGE
;Z:0.2
;HEIGHT:0.2
;BEFORE_LAYER_CHANGE
G92 E0
;0.2


G1 E-5 F3600
G1 Z.2 F9000
;AFTER_LAYER_CHANGE
;0.2
G1 X92.584 Y96.745
G1 E5 F2400
M204 S500
;TYPE:Skirt/Brim
;WIDTH:0.42
G1 F1200
G1 X93.538 Y95.886 E.04025
G1 X95.107 Y94.71 E.06148
G1 X96.024 Y94.136 E.03392
G1 X124.161 Y78.096 E1.01552
G1 X126.145 Y77.235 E.06781
G1 X128.218 Y76.617 E.06781
G1 X130.55 Y76.23 E.07413
G1 X132.711 Y76.145 E.06781
G1 X133.792 Y76.2 E.03392
G1 X135.735 Y76.463 E.06148
G1 X138.023 Y77.058 E.07413
G1 X139.039 Y77.428 E.03392
G1 X140.819 Y78.253 E.06148
G1 X142.665 Y79.379 E.06781
G1 X144.363 Y80.718 E.06781
G1 X146.022 Y82.402 E.07413
G1 X146.973 Y83.612 E.04824
G1 X147.809 Y84.862 E.04716
G1 X148.898 Y86.961 E.07413
G1 X149.769 Y89.43 E.0821
G1 X150.279 Y91.963 E.08103
G1 X150.421 Y94.121 E.06781
G1 X150.279 Y96.481 E.07413
G1 X150.017 Y97.997 E.04824
G1 X149.647 Y99.455 E.04716
G1 X148.816 Y101.669 E.07413
G1 X148.341 Y102.641 E.03392
G1 X147.336 Y104.324 E.06148
G1 X146.022 Y106.042 E.06781
G1 X145.151 Y106.982 E.04017
G1 X144.014 Y108.022 E.04831
G1 X142.83 Y108.949 E.04716
G1 X141.759 Y109.657 E.04025
G1 X113.794 Y125.626 E1.0097
G1 X112.66 Y126.192 E.03974
G1 X110.835 Y126.909 E.06148
G1 X108.745 Y127.465 E.06781
G1 X106.604 Y127.767 E.06781
G1 X104.239 Y127.802 E.07413
G1 X102.09 Y127.564 E.06781
G1 X99.55 Y126.93 E.0821
G1 X97.154 Y125.96 E.08103
G1 X95.275 Y124.89 E.06781
G1 X93.538 Y123.602 E.06781
G1 X91.966 Y122.116 E.06781
G1 X91.121 Y121.15 E.04025
G1 X89.969 Y119.563 E.06148
G1 X89.1 Y118.055 E.05456
G1 X88.383 Y116.507 E.05349
G1 X87.749 Y114.652 E.06148
G1 X87.445 Y113.405 E.04025
G1 X87.134 Y111.264 E.06781
G1 X87.076 Y109.304 E.06148
G1 X87.207 Y107.569 E.05456
G1 X87.487 Y105.886 E.05349
G1 X88.008 Y103.996 E.06148
G1 X88.645 Y102.376 E.05456
G1 X89.409 Y100.851 E.05349
G1 X90.464 Y99.198 E.06148
G1 X91.25 Y98.183 E.04025
G1 X92.543 Y96.789 E.0596
G1 E-3.5 F3600
;WIPE_START
G1 F7200
G1 X93.538 Y95.886 E-.63817
G1 X94.863 Y94.893 E-.78683
;WIPE_END
G1 E-.075 F3600
G1 X100.985 Y107.339 F9000
G1 E5 F2400
;TYPE:Perimeter
;WIDTH:0.503756
G1 F1200
G1 X101.209 Y107.426 E.0092
;WIDTH:0.50109
G1 X101.948 Y107.661 E.02954
;WIDTH:0.499352
G1 X102.317 Y107.685 E.01406
G1 X102.215 Y107.824 E.00656
G1 X101.959 Y108.303 E.02064
G1 X101.476 Y107.735 E.0283
;WIDTH:0.503756
G1 X101.032 Y107.376 E.02187
G1 E-3.5 F3600
;WIPE_START
G1 F7200
G1 X101.209 Y107.426 E-.08725
G1 X101.948 Y107.661 E-.36827
G1 X102.317 Y107.685 E-.17597
G1 X102.215 Y107.824 E-.08206
G1 X101.959 Y108.303 E-.25827
G1 X101.476 Y107.735 E-.35414
G1 X101.314 Y107.604 E-.09904
;WIPE_END
G1 E-.075 F3600
G1 X105.623 Y112.922 F9000
G1 E5 F2400
;WIDTH:0.603167
G1 F1200
G1 X105.378 Y113.385 E.02442
G1 X105.146 Y114.188 E.03892
G1 X105.1 Y113.909 E.01317
G1 X104.941 Y113.414 E.02422
G1 X104.681 Y112.922 E.02592
G1 X105.563 Y112.922 E.04111
G1 E-3.5 F3600
;WIPE_START
G1 F7200
G1 X105.378 Y113.385 E-.23701
G1 X105.146 Y114.188 E-.39689
G1 X105.1 Y113.909 E-.13432
G1 X104.941 Y113.414 E-.24696
G1 X104.681 Y112.922 E-.26433
G1 X104.987 Y112.922 E-.14548
;WIPE_END
G1 E-.075 F3600
G1 X108.352 Y108.321 F9000
G1 E5 F2400
;WIDTH:0.499147
G1 F1200
G1 X108.007 Y107.712 E.02655
G1 X108.73 Y107.566 E.02797
;WIDTH:0.503758
G1 X109.318 Y107.339 E.02416
G1 X109.13 Y107.489 E.0092
;WIDTH:0.500967
G1 X108.558 Y108.011 E.02951
;WIDTH:0.499147
G1 X108.385 Y108.271 E.01185
G1 E-3.5 F3600
;WIPE_START
G1 F7200
G1 X108.007 Y107.712 E-.32057
G1 X108.73 Y107.566 E-.35022
G1 X109.318 Y107.339 E-.29953
G1 X109.13 Y107.489 E-.11399
G1 X108.601 Y107.972 E-.3407
;WIPE_END
G1 E-.075 F3600
G1 X112.597 Y105.446 F9000
G1 E5 F2400
;WIDTH:0.549706
G1 F1200
G1 X112.688 Y105.344 E.00575
;WIDTH:0.504436
G1 X112.778 Y105.242 E.00523
;WIDTH:0.459165
G1 X113.18 Y104.808 E.02047
;WIDTH:0.419999
G1 X113.526 Y104.329 E.01851
G1 X113.793 Y103.803 E.01851
G1 X113.977 Y103.242 E.01851
G1 X114.072 Y102.659 E.01851
G1 X114.075 Y102.069 E.01851
G1 X113.988 Y101.485 E.01851
G1 X113.811 Y100.922 E.01851
G1 X113.461 Y100.256 E.02359
G1 X114.141 Y100.892 E.0292
G1 X114.652 Y101.443 E.02357
G1 X115.132 Y102.026 E.02367
G1 X115.576 Y102.637 E.02367
G1 X115.982 Y103.273 E.02367
G1 X116.35 Y103.933 E.02367
G1 X116.677 Y104.613 E.02367
G1 X116.963 Y105.311 E.02367
G1 X117.207 Y106.025 E.02367
G1 X117.408 Y106.753 E.02367
G1 X117.522 Y107.291 E.01723
G1 X117.313 Y106.922 E.01328
G1 X116.953 Y106.455 E.01851
G1 X116.524 Y106.049 E.01851
G1 X116.038 Y105.714 E.01851
G1 X115.506 Y105.458 E.01851
G1 X114.941 Y105.287 E.01851
G1 X114.346 Y105.205 E.01881
G1 X113.764 Y105.215 E.01828
G1 X113.18 Y105.337 E.01869
;WIDTH:0.463235
G1 X112.986 Y105.373 E.00691
;WIDTH:0.506471
G1 X112.791 Y105.409 E.00762
;WIDTH:0.549706
G1 X112.656 Y105.435 E.0058
G1 E-3.5 F3600
;WIPE_START
G1 F7200
G1 X112.688 Y105.344 E-.04574
G1 X112.778 Y105.242 E-.06479
G1 X113.18 Y104.808 E-.28088
G1 X113.526 Y104.329 E-.28043
G1 X113.793 Y103.803 E-.28038
G1 X113.977 Y103.242 E-.28043
G1 X114.042 Y102.842 E-.19235
;WIPE_END
G1 E-.075 F3600
G1 X97.706 Y105.446 F9000
G1 E5 F2400
;WIDTH:0.549712
G1 F1200
G1 X97.51 Y105.402 E.00845
;WIDTH:0.506475
G1 X97.315 Y105.359 E.00773
;WIDTH:0.463237
G1 X97.119 Y105.315 E.00701
;WIDTH:0.419999
G1 X96.539 Y105.217 E.01845
G1 X96.129 Y105.207 E.01285
G1 X95.594 Y105.26 E.01686
G1 X95.108 Y105.352 E.0155
G1 X94.556 Y105.562 E.01851
G1 X94.043 Y105.854 E.01851
G1 X93.581 Y106.221 E.01851
G1 X93.181 Y106.656 E.01851
G1 X92.78 Y107.292 E.02359
G1 X92.99 Y106.388 E.02911
G1 X93.212 Y105.667 E.02366
G1 X93.479 Y104.956 E.0238
G1 X93.785 Y104.27 E.02355
G1 X94.132 Y103.6 E.02367
G1 X94.52 Y102.952 E.02367
G1 X94.945 Y102.328 E.02367
G1 X95.407 Y101.731 E.02367
G1 X95.903 Y101.163 E.02367
G1 X96.433 Y100.625 E.02367
G1 X96.841 Y100.257 E.01723
G1 X96.627 Y100.623 E.01328
G1 X96.403 Y101.169 E.01851
G1 X96.265 Y101.743 E.01851
G1 X96.229 Y102.462 E.02259
G1 X96.306 Y103.112 E.02052
G1 X96.397 Y103.495 E.01233
G1 X96.619 Y104.042 E.01851
G1 X96.922 Y104.549 E.01851
G1 X97.3 Y105.002 E.01851
;WIDTH:0.463237
G1 X97.435 Y105.15 E.00701
;WIDTH:0.506475
G1 X97.571 Y105.298 E.00773
;WIDTH:0.549712
G1 X97.666 Y105.401 E.00592
G1 E-3.5 F3600
;WIPE_START
G1 F7200
G1 X97.51 Y105.402 E-.07373
G1 X97.315 Y105.359 E-.09526
G1 X97.119 Y105.315 E-.09526
G1 X96.539 Y105.217 E-.27957
G1 X96.129 Y105.207 E-.19468
G1 X95.594 Y105.26 E-.2555
G1 X95.108 Y105.352 E-.23478
G1 X94.722 Y105.499 E-.19622
;WIPE_END
G1 E-.075 F3600
G1 X105.152 Y118.359 F9000
G1 E5 F2400
;WIDTH:0.552566
G1 F1200
G1 X105.193 Y118.48 E.00542
;WIDTH:0.509177
G1 X105.234 Y118.601 E.00496
;WIDTH:0.465787
G1 X105.412 Y119.165 E.0208
;WIDTH:0.419999
G1 X105.654 Y119.704 E.01851
G1 X105.976 Y120.199 E.01851
G1 X106.37 Y120.638 E.01851
G1 X106.827 Y121.011 E.01851
G1 X107.337 Y121.31 E.01851
G1 X107.886 Y121.526 E.01851
G1 X108.462 Y121.655 E.01851
G1 X109.214 Y121.684 E.02359
G1 X108.326 Y121.955 E.02911
G1 X107.59 Y122.123 E.02367
G1 X106.845 Y122.246 E.02367
G1 X106.094 Y122.325 E.02367
G1 X105.34 Y122.359 E.02367
G1 X104.586 Y122.348 E.02366
G1 X103.829 Y122.291 E.0238
G1 X103.085 Y122.19 E.02355
G1 X102.344 Y122.044 E.02366
G1 X101.61 Y121.853 E.0238
G1 X101.091 Y121.684 E.01711
G1 X101.515 Y121.687 E.01328
G1 X102.1 Y121.609 E.01851
G1 X102.665 Y121.44 E.01851
G1 X103.307 Y121.112 E.02259
G1 X103.831 Y120.721 E.02052
G1 X104.117 Y120.45 E.01233
G1 X104.48 Y119.985 E.01851
G1 X104.767 Y119.469 E.01851
G1 X104.971 Y118.915 E.01851
;WIDTH:0.464188
G1 X105.031 Y118.73 E.00683
;WIDTH:0.508377
G1 X105.091 Y118.544 E.00755
;WIDTH:0.552566
G1 X105.133 Y118.416 E.00572
G1 X104.577 Y118.893 F9000
;WIDTH:0.419999
G1 F1200
G1 X104.542 Y119.023 E.00422
G1 X104.326 Y119.509 E.01668
G1 X104.038 Y119.957 E.01668
G1 X103.705 Y120.336 E.01585
G1 X103.246 Y120.688 E.01813
G1 X102.822 Y120.961 E.0158
G1 X102.322 Y121.161 E.01688
G1 X101.804 Y121.28 E.01668
G1 X101.273 Y121.317 E.01668
;WIDTH:0.466056
G1 X101.096 Y121.325 E.00624
;WIDTH:0.512113
G1 X100.919 Y121.334 E.00692
;WIDTH:0.558169
G1 X100.742 Y121.342 E.0076
G1 X100.238 Y121.203 E.02238
;WIDTH:0.519425
G1 X99.769 Y121.007 E.02015
;WIDTH:0.505498
G1 X99.102 Y120.664 E.02884
;WIDTH:0.506219
G1 X98.382 Y120.233 E.03231
;WIDTH:0.507283
G1 X97.693 Y119.755 E.03239
;WIDTH:0.508585
G1 X97.075 Y119.263 E.03058
;WIDTH:0.509606
G1 X96.523 Y118.763 E.02891
;WIDTH:0.510284
G1 X96.001 Y118.231 E.02895
;WIDTH:0.510617
G1 X95.511 Y117.67 E.02897
G1 X95.055 Y117.081 E.02897
G1 X94.759 Y116.66 E.02003
;WIDTH:0.505507
G1 X94.364 Y116.025 E.02874
;WIDTH:0.506108
G1 X93.966 Y115.287 E.0323
;WIDTH:0.507127
G1 X93.619 Y114.524 E.03238
;WIDTH:0.508426
G1 X93.336 Y113.773 E.03104
;WIDTH:0.509493
G1 X93.118 Y113.061 E.02891
;WIDTH:0.510217
G1 X92.943 Y112.336 E.02895
;WIDTH:0.510594
G1 X92.81 Y111.603 E.02897
G1 X92.721 Y110.864 E.02897
G1 X92.684 Y110.362 E.01956
;WIDTH:0.505438
G1 X92.669 Y109.615 E.02874
;WIDTH:0.505983
G1 X92.706 Y108.774 E.0324
;WIDTH:0.530184
G1 X92.81 Y108.094 E.0279
;WIDTH:0.557245
G1 X92.899 Y107.777 E.01405
G1 X92.996 Y107.624 E.00777
;WIDTH:0.511497
G1 X93.093 Y107.47 E.00708
;WIDTH:0.465748
G1 X93.19 Y107.317 E.00639
;WIDTH:0.419999
G1 X93.488 Y106.876 E.01668
G1 X93.85 Y106.486 E.01668
G1 X94.268 Y106.156 E.01668
G1 X94.731 Y105.895 E.01668
G1 X95.23 Y105.709 E.01668
G1 X95.63 Y105.635 E.01278
G1 X96.166 Y105.583 E.01686
G1 X96.804 Y105.632 E.02007
G1 X97.325 Y105.771 E.01692
G1 X97.898 Y106.031 E.01973
G1 X100.641 Y107.615 E.09931
G1 X101.169 Y108.016 E.02077
G1 X101.533 Y108.429 E.01728
G1 X101.76 Y108.793 E.01343
G1 X101.962 Y109.278 E.01651
G1 X102.071 Y109.771 E.01581
G1 X102.103 Y109.259 E.01608
G1 X102.224 Y108.771 E.01577
G1 X102.486 Y108.186 E.02008
G1 X102.822 Y107.716 E.01813
;WIDTH:0.424577
G1 X103.224 Y107.328 E.01775
;WIDTH:0.437898
G1 X103.407 Y107.166 E.00801
G1 X102.867 Y107.273 E.01808
;WIDTH:0.419999
G1 X102.008 Y107.249 E.02694
G1 X101.356 Y107.035 E.02152
G1 X101.053 Y106.902 E.01039
G1 X98.309 Y105.318 E.09931
G1 X97.797 Y104.953 E.01973
G1 X97.421 Y104.577 E.01668
G1 X97.107 Y104.147 E.01668
G1 X96.864 Y103.674 E.01668
G1 X96.702 Y103.195 E.01585
G1 X96.628 Y102.625 E.01801
G1 X96.602 Y102.118 E.01592
G1 X96.679 Y101.585 E.01688
G1 X96.836 Y101.077 E.01668
G1 X97.069 Y100.599 E.01668
;WIDTH:0.466057
G1 X97.15 Y100.441 E.00624
;WIDTH:0.512114
G1 X97.231 Y100.284 E.00692
;WIDTH:0.558171
G1 X97.313 Y100.126 E.0076
G1 X97.685 Y99.76 E.02238
;WIDTH:0.519424
G1 X98.089 Y99.451 E.02015
;WIDTH:0.505498
G1 X98.72 Y99.045 E.02884
;WIDTH:0.506218
G1 X99.453 Y98.637 E.03231
;WIDTH:0.507283
G1 X100.211 Y98.279 E.03239
;WIDTH:0.508584
G1 X100.946 Y97.99 E.03058
;WIDTH:0.509607
G1 X101.655 Y97.762 E.02892
;WIDTH:0.510284
G1 X102.377 Y97.576 E.02895
;WIDTH:0.510617
G1 X103.108 Y97.432 E.02897
G1 X103.846 Y97.332 E.02897
G1 X104.359 Y97.286 E.02003
;WIDTH:0.505507
G1 X105.091 Y97.261 E.02818
;WIDTH:0.506118
G1 X105.942 Y97.286 E.0328
;WIDTH:0.507126
G1 X106.779 Y97.366 E.03244
;WIDTH:0.508425
G1 X107.57 Y97.497 E.03104
;WIDTH:0.509492
G1 X108.296 Y97.665 E.02891
;WIDTH:0.510215
G1 X109.011 Y97.875 E.02895
;WIDTH:0.510594
G1 X109.712 Y98.127 E.02897
G1 X110.397 Y98.42 E.02897
G1 X110.85 Y98.638 E.01956
;WIDTH:0.505437
G1 X111.505 Y98.998 E.02874
;WIDTH:0.50589
G1 X112.214 Y99.451 E.03239
;WIDTH:0.527175
G1 X112.732 Y99.862 E.02662
;WIDTH:0.562282
G1 X113.019 Y100.156 E.01777
G1 X113.124 Y100.363 E.01002
;WIDTH:0.514855
G1 X113.228 Y100.571 E.0091
;WIDTH:0.467427
G1 X113.333 Y100.778 E.00819
;WIDTH:0.419999
G1 X113.537 Y101.269 E.01668
G1 X113.661 Y101.769 E.01615
G1 X113.708 Y102.316 E.01722
G1 X113.671 Y102.847 E.01668
G1 X113.556 Y103.353 E.01628
G1 X113.355 Y103.86 E.01709
G1 X113.083 Y104.317 E.01668
G1 X112.745 Y104.728 E.01668
G1 X112.347 Y105.081 E.01668
G1 X111.994 Y105.318 E.01335
G1 X109.251 Y106.902 E.09931
G1 X108.64 Y107.159 E.02077
G1 X108.1 Y107.268 E.01728
G1 X107.672 Y107.282 E.01343
G1 X107.149 Y107.215 E.01651
G1 X106.603 Y107.033 E.01805
G1 X107.077 Y107.329 E.01752
G1 X107.453 Y107.682 E.01616
G1 X107.808 Y108.169 E.0189
G1 X108.049 Y108.674 E.01755
G1 X108.194 Y109.214 E.01753
;WIDTH:0.430122
G1 X108.245 Y109.614 E.01297
G1 X108.385 Y109.128 E.01627
;WIDTH:0.419999
G1 X108.58 Y108.742 E.01354
G1 X108.884 Y108.27 E.01763
G1 X109.395 Y107.811 E.02153
G1 X109.662 Y107.615 E.01039
G1 X112.405 Y106.031 E.09931
G1 X112.978 Y105.771 E.01973
G1 X113.554 Y105.641 E.01851
G1 X114.028 Y105.578 E.01499
G1 X114.552 Y105.602 E.01647
G1 X115.048 Y105.701 E.01585
G1 X115.543 Y105.881 E.0165
G1 X116.031 Y106.153 E.01751
G1 X116.454 Y106.486 E.01688
G1 X116.816 Y106.876 E.01668
G1 X117.113 Y107.317 E.01668
;WIDTH:0.465602
G1 X117.21 Y107.47 E.00638
;WIDTH:0.511205
G1 X117.307 Y107.624 E.00707
;WIDTH:0.556808
G1 X117.404 Y107.777 E.00776
G1 X117.532 Y108.27 E.02175
;WIDTH:0.51942
G1 X117.597 Y108.774 E.02014
;WIDTH:0.505525
G1 X117.633 Y109.523 E.02885
;WIDTH:0.506219
G1 X117.62 Y110.362 E.03231
;WIDTH:0.507282
G1 X117.551 Y111.198 E.03239
;WIDTH:0.508584
G1 X117.433 Y111.979 E.03058
;WIDTH:0.509604
G1 X117.277 Y112.707 E.02891
;WIDTH:0.510203
G1 X117.076 Y113.429 E.02911
;WIDTH:0.510616
G1 X116.836 Y114.13 E.02882
G1 X116.553 Y114.82 E.02897
G1 X116.337 Y115.287 E.02003
;WIDTH:0.505507
G1 X115.985 Y115.946 E.02874
;WIDTH:0.506108
G1 X115.545 Y116.66 E.0323
;WIDTH:0.507125
G1 X115.057 Y117.342 E.03237
;WIDTH:0.508426
G1 X114.549 Y117.962 E.03104
;WIDTH:0.509521
G1 X114.042 Y118.505 E.02879
;WIDTH:0.510213
G1 X113.501 Y119.021 E.02907
;WIDTH:0.510592
G1 X112.932 Y119.502 E.02897
G1 X112.336 Y119.949 E.02897
G1 X111.921 Y120.233 E.01956
;WIDTH:0.505439
G1 X111.281 Y120.619 E.02874
;WIDTH:0.505983
G1 X110.535 Y121.008 E.0324
;WIDTH:0.527178
G1 X109.92 Y121.25 E.02662
;WIDTH:0.562281
G1 X109.521 Y121.352 E.01777
G1 X109.289 Y121.339 E.01002
;WIDTH:0.514854
G1 X109.058 Y121.325 E.0091
;WIDTH:0.467427
G1 X108.826 Y121.312 E.00819
;WIDTH:0.419999
G1 X108.298 Y121.244 E.01668
G1 X107.804 Y121.101 E.01615
G1 X107.306 Y120.868 E.01722
G1 X106.865 Y120.571 E.01668
G1 X106.484 Y120.218 E.01628
G1 X106.146 Y119.79 E.01709
G1 X105.885 Y119.327 E.01668
G1 X105.699 Y118.828 E.01668
G1 X105.593 Y118.32 E.01628
G1 X105.563 Y117.882 E.01375
G1 X105.563 Y114.715 E.09931
G1 X105.646 Y114.058 E.02077
G1 X105.822 Y113.536 E.01728
G1 X106.024 Y113.157 E.01343
G1 X106.343 Y112.739 E.01651
G1 X106.553 Y112.521 E.00948
G1 X106.898 Y112.264 E.0135
G1 X106.509 Y112.429 E.01324
G1 X105.675 Y112.453 E.02617
G1 X104.046 Y112.453 E.0511
G1 X103.749 Y112.418 E.00935
;WIDTH:0.417055
G1 X103.44 Y112.295 E.01037
;WIDTH:0.419999
G1 X103.892 Y112.656 E.01815
G1 X104.253 Y113.116 E.01834
G1 X104.5 Y113.581 E.0165
G1 X104.637 Y113.985 E.0134
G1 X104.74 Y114.715 E.0231
G1 X104.74 Y117.882 E.09931
G1 X104.679 Y118.509 E.01973
G1 X104.592 Y118.835 E.01058
G1 X104.216 Y118.79 F9000
G1 F1200
G1 X104.003 Y119.315 E.01776
G1 X103.631 Y119.855 E.02058
G1 X103.38 Y120.117 E.01137
