; generated by PrusaSlicer 2.5.0+linux-x64-GTK2 on 2023-06-21 at 14:18:09 UTC

; 

; external perimeters extrusion width = 0.42mm
; perimeters extrusion width = 0.44mm
; infill extrusion width = 0.44mm
; solid infill extrusion width = 0.44mm
; top infill extrusion width = 0.40mm
; first layer extrusion width = 0.42mm

M107
;TYPE:Custom
G90 ; use absolute coordinates
M83 ; extruder relative mode
M140 S60 ; set final bed temp
M104 S150 ; set temporary nozzle temp to prevent oozing during homing
G4 S10 ; allow partial nozzle warmup
G28 ; home all axis
G1 Z50 F240
G1 X2 Y10 F3000
M104 S210 ; set final nozzle temp
M190 S60 ; wait for bed temp to stabilize
M109 S210 ; wait for nozzle temp to stabilize
G1 Z0.28 F240
G92 E0
G1 Y140 E10 F1500 ; prime the nozzle
G1 X2.3 F5000
G92 E0
G1 Y10 E10 F1200 ; prime the nozzle
G92 E0
G21 ; set units to millimeters
G90 ; use absolute coordinates
M83 ; use relative distances for extrusion
; Filament gcode
M107
;LAYER_CHANGE
;Z:0.2
;HEIGHT:0.2
;BEFORE_LAYER_CHANGE
G92 E0
;0.2


G1 E-5 F3600
G1 Z.2 F9000
;AFTER_LAYER_CHANGE
;0.2
G1 X69.508 Y86.29
G1 E5 F2400
M204 S500
;TYPE:Skirt/Brim
;WIDTH:0.42
G1 F1200
G1 X70.311 Y85.729 E.03074
G1 X112.311 Y61.48 E1.5206
G1 X113.199 Y61.064 E.03074
G1 X114.484 Y60.716 E.04174
G1 X115.186 Y60.642 E.02214
G1 X116.516 Y60.716 E.04174
G1 X117.801 Y61.064 E.04174
G1 X118.689 Y61.48 E.03074
G1 X160.689 Y85.729 E1.5206
G1 X161.492 Y86.29 E.03074
G1 X162.017 Y86.762 E.02214
G1 X162.852 Y87.799 E.04174
G1 X163.452 Y88.987 E.04174
G1 X163.646 Y89.584 E.01967
G1 X163.793 Y90.274 E.02213
G1 X163.877 Y91.251 E.03074
G1 X163.877 Y139.749 E1.5206
G1 X163.793 Y140.725 E.03074
G1 X163.646 Y141.416 E.02213
G1 X163.452 Y142.013 E.01967
G1 X162.852 Y143.201 E.04174
G1 X162.017 Y144.238 E.04174
G1 X161.492 Y144.71 E.02214
G1 X160.689 Y145.271 E.03074
G1 X118.689 Y169.52 E1.5206
G1 X117.801 Y169.936 E.03074
G1 X117.129 Y170.154 E.02214
G1 X116.516 Y170.284 E.01966
G1 X115.186 Y170.358 E.04174
G1 X113.871 Y170.154 E.04174
G1 X113.199 Y169.936 E.02214
G1 X112.311 Y169.52 E.03074
G1 X70.311 Y145.271 E1.5206
G1 X69.508 Y144.71 E.03074
G1 X68.983 Y144.238 E.02214
G1 X68.148 Y143.201 E.04174
G1 X67.548 Y142.013 E.04174
G1 X67.354 Y141.416 E.01967
G1 X67.207 Y140.725 E.02213
G1 X67.123 Y139.749 E.03074
G1 X67.123 Y91.251 E1.5206
G1 X67.207 Y90.275 E.03074
G1 X67.354 Y89.584 E.02213
G1 X67.548 Y88.987 E.01967
G1 X68.148 Y87.799 E.04174
G1 X68.983 Y86.762 E.04174
G1 X69.463 Y86.33 E.02025
G1 E-3.5 F3600
;WIPE_START
G1 F7200
G1 X70.311 Y85.729 E-.49396
G1 X72.009 Y84.749 E-.93104
;WIPE_END
G1 E-.075 F3600
G1 X71.564 Y97.936 F9000
G1 E5 F2400
;TYPE:Perimeter
;WIDTH:0.419999
G1 F1200
G1 X71.564 Y91.307 E.20784
G1 X71.612 Y90.85 E.01441
G1 X71.737 Y90.466 E.01265
G1 X71.939 Y90.117 E.01265
G1 X72.209 Y89.817 E.01265
G1 X72.58 Y89.547 E.01441
G1 X114.382 Y65.413 E1.51343
G1 X114.904 Y65.167 E.01807
G1 X115.295 Y65.084 E.01255
G1 X115.719 Y65.087 E.01329
G1 X116.096 Y65.167 E.0121
G1 X116.516 Y65.354 E.01441
G1 X158.318 Y89.488 E1.51343
G1 X158.791 Y89.817 E.01807
G1 X159.061 Y90.117 E.01265
G1 X159.263 Y90.466 E.01265
G1 X159.388 Y90.85 E.01265
G1 X159.436 Y91.307 E.01441
G1 X159.436 Y97.936 E.20784
G1 X150.865 Y97.944 E.26874
G1 X150.354 Y98.08 E.01656
G1 X150.075 Y98.246 E.0102
G1 X149.708 Y98.622 E.01648
G1 X149.551 Y98.942 E.01116
G1 X149.436 Y99.492 E.01763
G1 X149.441 Y131.603 E1.00681
G1 X149.563 Y132.099 E.01603
G1 X149.748 Y132.428 E.01183
G1 X150.134 Y132.801 E.01683
G1 X150.442 Y132.949 E.01071
G1 X150.992 Y133.064 E.01763
G1 X159.436 Y133.064 E.26475
G1 X159.436 Y139.576 E.20417
G1 X159.388 Y140.15 E.01807
G1 X159.263 Y140.534 E.01265
G1 X159.061 Y140.883 E.01265
G1 X158.791 Y141.183 E.01265
G1 X158.42 Y141.453 E.01441
G1 X116.618 Y165.587 E1.51343
G1 X116.096 Y165.833 E.01807
G1 X115.702 Y165.917 E.01265
G1 X115.298 Y165.917 E.01265
G1 X114.904 Y165.833 E.01265
G1 X114.484 Y165.646 E.01441
G1 X72.682 Y141.512 E1.51343
G1 X72.209 Y141.183 E.01807
G1 X71.939 Y140.883 E.01265
G1 X71.737 Y140.534 E.01265
G1 X71.612 Y140.15 E.01265
G1 X71.564 Y139.693 E.01441
G1 X71.564 Y133.064 E.20784
G1 X80.135 Y133.056 E.26874
G1 X80.646 Y132.92 E.01656
G1 X80.925 Y132.754 E.0102
G1 X81.292 Y132.378 E.01648
G1 X81.449 Y132.058 E.01116
G1 X81.564 Y131.508 E.01763
G1 X81.564 Y99.492 E1.00383
G1 X81.559 Y99.397 E.00298
G1 X81.437 Y98.901 E.01603
G1 X81.252 Y98.572 E.01183
G1 X80.866 Y98.199 E.01683
G1 X80.558 Y98.051 E.01071
G1 X80.008 Y97.936 E.01763
G1 X71.624 Y97.936 E.26287
G1 X71.187 Y98.313 F9000
G1 F1200
G1 X71.187 Y91.287 E.22028
G1 X71.241 Y90.771 E.01627
G1 X71.391 Y90.312 E.01514
G1 X71.632 Y89.894 E.01514
G1 X71.955 Y89.535 E.01514
G1 X72.375 Y89.23 E.01627
G1 X114.312 Y65.018 E1.51834
G1 X114.786 Y64.806 E.01627
G1 X115.257 Y64.707 E.01507
G1 X115.76 Y64.71 E.01578
G1 X116.214 Y64.806 E.01455
G1 X116.688 Y65.018 E.01627
G1 X158.625 Y89.23 E1.51834
G1 X159.045 Y89.535 E.01627
G1 X159.368 Y89.894 E.01514
G1 X159.61 Y90.312 E.01514
G1 X159.759 Y90.771 E.01514
G1 X159.813 Y91.287 E.01627
G1 X159.813 Y98.313 E.22028
G1 X150.992 Y98.313 E.27657
G1 X150.44 Y98.453 E.01787
G1 X150.061 Y98.789 E.01587
G1 X149.931 Y98.99 E.00752
G1 X149.813 Y99.492 E.01616
G1 X149.816 Y131.565 E1.00562
G1 X149.955 Y132.064 E.01624
G1 X150.289 Y132.439 E.01575
G1 X150.488 Y132.568 E.00744
G1 X150.992 Y132.687 E.01624
G1 X159.813 Y132.687 E.27657
G1 X159.813 Y139.713 E.22028
G1 X159.759 Y140.229 E.01627
G1 X159.61 Y140.688 E.01514
G1 X159.368 Y141.106 E.01514
G1 X159.045 Y141.465 E.01514
G1 X158.625 Y141.77 E.01627
G1 X116.688 Y165.982 E1.51834
G1 X116.214 Y166.194 E.01627
G1 X115.741 Y166.294 E.01514
G1 X115.259 Y166.294 E.01514
G1 X114.786 Y166.194 E.01514
G1 X114.312 Y165.982 E.01627
G1 X72.375 Y141.77 E1.51834
G1 X71.955 Y141.465 E.01627
G1 X71.632 Y141.106 E.01514
G1 X71.391 Y140.688 E.01514
G1 X71.241 Y140.229 E.01514
G1 X71.187 Y139.713 E.01627
G1 X71.187 Y132.687 E.22028
G1 X80.008 Y132.687 E.27657
G1 X80.56 Y132.547 E.01787
G1 X80.939 Y132.211 E.01587
G1 X81.069 Y132.01 E.00752
G1 X81.187 Y131.508 E.01616
G1 X81.187 Y99.492 E1.00383
G1 X81.045 Y98.936 E.01799
G1 X80.711 Y98.561 E.01575
G1 X80.512 Y98.432 E.00744
G1 X80.008 Y98.313 E.01624
G1 X71.247 Y98.313 E.27469
G1 X70.875 Y98.625 F9000
;TYPE:External perimeter
G1 F1200
G1 X70.81 Y98.468 E.00533
G1 X70.81 Y91.268 E.22576
G1 X70.87 Y90.692 E.01813
G1 X71.044 Y90.158 E.01762
G1 X71.325 Y89.671 E.01762
G1 X71.701 Y89.254 E.01762
G1 X72.169 Y88.914 E.01813
G1 X114.141 Y64.681 E1.51958
G1 X114.669 Y64.446 E.01813
G1 X115.218 Y64.329 E.0176
G1 X115.801 Y64.333 E.01826
G1 X116.331 Y64.446 E.01699
G1 X116.859 Y64.681 E.01813
G1 X158.831 Y88.914 E1.51958
G1 X159.299 Y89.253 E.01813
G1 X159.675 Y89.671 E.01762
G1 X159.956 Y90.158 E.01762
G1 X160.13 Y90.692 E.01762
G1 X160.19 Y91.268 E.01813
G1 X160.19 Y98.468 E.22576
G1 X160.125 Y98.625 E.00533
G1 X159.968 Y98.69 E.00533
G1 X150.992 Y98.69 E.28143
G1 X150.639 Y98.779 E.0114
G1 X150.318 Y99.065 E.01349
G1 X150.19 Y99.492 E.01397
G1 X150.19 Y131.508 E1.00383
G1 X150.279 Y131.861 E.01141
G1 X150.566 Y132.182 E.01351
G1 X150.992 Y132.31 E.01395
G1 X159.968 Y132.31 E.28143
G1 X160.125 Y132.375 E.00533
G1 X160.19 Y132.532 E.00533
G1 X160.19 Y139.732 E.22576
G1 X160.13 Y140.308 E.01813
G1 X159.956 Y140.842 E.01762
G1 X159.675 Y141.329 E.01762
G1 X159.299 Y141.746 E.01762
G1 X158.831 Y142.086 E.01813
G1 X116.859 Y166.319 E1.51958
G1 X116.331 Y166.554 E.01813
G1 X115.781 Y166.671 E.01762
G1 X115.219 Y166.671 E.01762
G1 X114.669 Y166.554 E.01762
G1 X114.141 Y166.319 E.01813
G1 X72.169 Y142.086 E1.51958
G1 X71.701 Y141.747 E.01813
G1 X71.325 Y141.329 E.01762
G1 X71.044 Y140.842 E.01762
G1 X70.87 Y140.308 E.01762
G1 X70.81 Y139.732 E.01813
G1 X70.81 Y132.532 E.22576
G1 X70.875 Y132.375 E.00533
G1 X71.032 Y132.31 E.00533
G1 X80.008 Y132.31 E.28143
G1 X80.361 Y132.221 E.0114
G1 X80.682 Y131.935 E.01349
G1 X80.81 Y131.508 E.01397
G1 X80.81 Y99.492 E1.00383
G1 X80.721 Y99.139 E.01141
G1 X80.434 Y98.818 E.01351
G1 X80.008 Y98.69 E.01395
G1 X71.032 Y98.69 E.28143
G1 X70.931 Y98.648 E.00345
G1 X70.92 Y98.46 F9000
G1 E-3.5 F3600
;WIPE_START
G1 F7200
G1 X70.81 Y98.468 E-.10295
G1 X70.81 Y95.684 E-1.32205
;WIPE_END
G1 E-.075 F3600
G1 X156.754 Y88.725 F9000
G1 E5 F2400
;TYPE:Solid infill
;WIDTH:0.420207
G1 F1200
G1 X159.121 Y91.092 E.10503
G1 X159.146 Y91.322 E.00727
G1 X159.146 Y91.65 E.01027
G1 X155.955 Y88.459 E.14154
G1 X154.693 Y87.73 E.04573
G1 X159.146 Y92.183 E.19755
G1 X159.146 Y92.717 E.01674
G1 X153.43 Y87.002 E.25356
G1 X152.168 Y86.273 E.04573
G1 X159.146 Y93.25 E.30957
G1 X159.146 Y93.784 E.01674
G1 X150.905 Y85.544 E.36558
G1 X149.643 Y84.815 E.04573
G1 X159.146 Y94.317 E.42159
G1 X159.146 Y94.851 E.01674
G1 X148.381 Y84.086 E.4776
G1 X147.118 Y83.357 E.04573
G1 X159.146 Y95.385 E.53361
G1 X159.146 Y95.918 E.01674
G1 X145.856 Y82.628 E.58962
G1 X144.593 Y81.9 E.04573
G1 X159.146 Y96.452 E.64563
G1 X159.146 Y96.985 E.01674
G1 X143.331 Y81.171 E.70163
G1 X142.068 Y80.442 E.04573
G1 X159.146 Y97.519 E.75764
G1 X159.146 Y97.646 E.00398
G1 X158.739 Y97.646 E.01275
G1 X140.806 Y79.713 E.79562
G1 X139.544 Y78.984 E.04573
G1 X158.206 Y97.647 E.82799
G1 X157.673 Y97.647 E.01672
G1 X138.281 Y78.255 E.86036
G1 X137.019 Y77.526 E.04573
G1 X157.14 Y97.648 E.89272
G1 X156.608 Y97.649 E.01672
G1 X135.756 Y76.797 E.92509
G1 X134.494 Y76.069 E.04573
G1 X156.075 Y97.649 E.95745
G1 X155.542 Y97.65 E.01672
G1 X133.231 Y75.34 E.98982
G1 X131.969 Y74.611 E.04573
G1 X155.009 Y97.651 E1.02219
G1 X154.476 Y97.651 E.01672
G1 X130.707 Y73.882 E1.05455
G1 X129.444 Y73.153 E.04573
G1 X153.943 Y97.652 E1.08692
G1 X153.41 Y97.653 E.01672
G1 X128.182 Y72.424 E1.11928
G1 X126.919 Y71.695 E.04573
G1 X152.877 Y97.653 E1.15165
G1 X152.344 Y97.654 E.01672
G1 X125.657 Y70.967 E1.18402
G1 X124.394 Y70.238 E.04573
G1 X151.811 Y97.655 E1.21638
G1 X151.278 Y97.655 E.01672
G1 X123.132 Y69.509 E1.24875
G1 X121.87 Y68.78 E.04573
G1 X150.762 Y97.672 E1.28183
G1 X150.338 Y97.782 E.01374
G1 X120.607 Y68.051 E1.31903
G1 X119.345 Y67.322 E.04573
G1 X149.979 Y97.957 E1.35914
G1 X149.885 Y98.025 E.00364
G1 X149.7 Y98.211 E.00824
G1 X118.082 Y66.593 E1.40273
G1 X116.82 Y65.865 E.04573
G1 X149.449 Y98.493 E1.44762
G1 X149.39 Y98.576 E.00318
G1 X149.275 Y98.854 E.00942
G1 X115.829 Y65.407 E1.4839
G1 X115.687 Y65.377 E.00454
G1 X115.273 Y65.385 E.01299
G1 X149.168 Y99.28 E1.50378
G1 X149.146 Y99.486 E.00651
G1 X149.146 Y99.791 E.00955
G1 X114.859 Y65.505 E1.52115
G1 X114.501 Y65.68 E.01252
G1 X149.146 Y100.324 E1.53706
G1 X149.146 Y100.858 E.01674
G1 X114.162 Y65.875 E1.55207
G1 X113.824 Y66.07 E.01225
G1 X149.146 Y101.392 E1.56707
G1 X149.146 Y101.925 E.01674
G1 X113.486 Y66.265 E1.58208
G1 X113.148 Y66.461 E.01225
G1 X149.146 Y102.459 E1.59709
G1 X149.146 Y102.992 E.01674
G1 X112.809 Y66.656 E1.6121
G1 X112.471 Y66.851 E.01225
G1 X149.146 Y103.526 E1.6271
G1 X149.146 Y104.059 E.01674
G1 X112.133 Y67.047 E1.64211
G1 X111.794 Y67.242 E.01225
G1 X149.146 Y104.593 E1.65712
G1 X149.146 Y105.127 E.01674
G1 X111.456 Y67.437 E1.67213
G1 X111.118 Y67.633 E.01225
G1 X149.146 Y105.66 E1.68713
G1 X149.146 Y106.194 E.01674
G1 X110.78 Y67.828 E1.70214
G1 X110.441 Y68.023 E.01225
G1 X149.146 Y106.727 E1.71715
G1 X149.146 Y107.261 E.01674
G1 X110.103 Y68.218 E1.73216
G1 X109.765 Y68.414 E.01225
G1 X149.146 Y107.794 E1.74716
G1 X149.146 Y108.328 E.01674
G1 X109.427 Y68.609 E1.76217
G1 X109.088 Y68.804 E.01225
G1 X149.146 Y108.861 E1.77718
G1 X149.146 Y109.395 E.01674
G1 X108.75 Y69 E1.79219
G1 X108.412 Y69.195 E.01225
G1 X149.146 Y109.929 E1.80719
G1 X149.146 Y110.462 E.01674
G1 X108.074 Y69.39 E1.8222
G1 X107.735 Y69.585 E.01225
G1 X149.146 Y110.996 E1.83721
G1 X149.146 Y111.529 E.01674
G1 X107.397 Y69.781 E1.85222
G1 X107.059 Y69.976 E.01225
G1 X149.146 Y112.063 E1.86722
G1 X149.146 Y112.596 E.01674
G1 X106.72 Y70.171 E1.88223
G1 X106.382 Y70.367 E.01225
G1 X149.146 Y113.13 E1.89724
G1 X149.146 Y113.664 E.01674
G1 X106.044 Y70.562 E1.91225
G1 X105.706 Y70.757 E.01225
G1 X149.146 Y114.197 E1.92725
G1 X149.146 Y114.731 E.01674
G1 X105.367 Y70.953 E1.94226
G1 X105.029 Y71.148 E.01225
G1 X149.146 Y115.264 E1.95727
G1 X149.146 Y115.798 E.01674
G1 X104.691 Y71.343 E1.97228
G1 X104.353 Y71.538 E.01225
G1 X149.146 Y116.331 E1.98728
G1 X149.146 Y116.865 E.01674
G1 X104.014 Y71.734 E2.00229
G1 X103.676 Y71.929 E.01225
G1 X149.146 Y117.398 E2.0173
G1 X149.146 Y117.932 E.01674
G1 X103.338 Y72.124 E2.03231
G1 X103 Y72.32 E.01225
G1 X149.146 Y118.466 E2.04731
G1 X149.146 Y118.999 E.01674
G1 X102.661 Y72.515 E2.06232
G1 X102.323 Y72.71 E.01225
G1 X149.146 Y119.533 E2.07733
G1 X149.146 Y120.066 E.01674
G1 X101.985 Y72.906 E2.09234
G1 X101.646 Y73.101 E.01225
G1 X149.146 Y120.6 E2.10734
G1 X149.146 Y121.133 E.01674
G1 X101.308 Y73.296 E2.12235
G1 X100.97 Y73.491 E.01225
G1 X149.146 Y121.667 E2.13736
G1 X149.146 Y122.201 E.01674
G1 X100.632 Y73.687 E2.15237
G1 X100.293 Y73.882 E.01225
G1 X149.146 Y122.734 E2.16737
G1 X149.146 Y123.268 E.01674
G1 X99.955 Y74.077 E2.18238
G1 X99.617 Y74.273 E.01225
G1 X149.146 Y123.801 E2.19739
G1 X149.146 Y124.335 E.01674
G1 X99.279 Y74.468 E2.2124
G1 X98.94 Y74.663 E.01225
G1 X149.146 Y124.868 E2.22741
G1 X149.146 Y125.402 E.01674
G1 X98.602 Y74.859 E2.24241
G1 X98.264 Y75.054 E.01225
G1 X149.146 Y125.936 E2.25742
G1 X149.146 Y126.469 E.01674
G1 X97.926 Y75.249 E2.27243
G1 X97.587 Y75.444 E.01225
G1 X149.146 Y127.003 E2.28744
G1 X149.146 Y127.536 E.01674
G1 X97.249 Y75.64 E2.30244
G1 X96.911 Y75.835 E.01225
G1 X149.146 Y128.07 E2.31745
G1 X149.146 Y128.603 E.01674
G1 X96.572 Y76.03 E2.33246
G1 X96.234 Y76.226 E.01225
G1 X149.146 Y129.137 E2.34747
G1 X149.146 Y129.67 E.01674
G1 X95.896 Y76.421 E2.36247
G1 X95.558 Y76.616 E.01225
G1 X149.146 Y130.204 E2.37748
G1 X149.146 Y130.738 E.01674
G1 X95.219 Y76.812 E2.39249
G1 X94.881 Y77.007 E.01225
G1 X149.315 Y131.441 E2.41502
G1 E-3.5 F3600
;WIPE_START
G1 F7200
G1 X147.194 Y129.32 E-1.425
;WIPE_END
G1 E-.075 F3600
G1 X158.528 Y133.184 F9000
G1 E5 F2400
G1 F1200
G1 X159.146 Y133.801 E.02739
G1 X159.146 Y134.335 E.01674
G1 X158.164 Y133.353 E.04355
G1 X157.63 Y133.353 E.01676
G1 X159.146 Y134.868 E.06725
G1 X159.146 Y135.402 E.01674
G1 X157.095 Y133.352 E.09096
G1 X156.561 Y133.351 E.01676
G1 X159.146 Y135.936 E.11466
G1 X159.146 Y136.469 E.01674
G1 X156.027 Y133.351 E.13836
G1 X155.493 Y133.35 E.01676
G1 X159.146 Y137.003 E.16206
G1 X159.146 Y137.536 E.01674
G1 X154.958 Y133.349 E.18576
G1 X154.424 Y133.349 E.01676
G1 X159.146 Y138.07 E.20946
G1 X159.146 Y138.603 E.01674
G1 X153.89 Y133.348 E.23316
G1 X153.356 Y133.347 E.01676
G1 X159.146 Y139.137 E.25687
G1 X159.146 Y139.67 E.01674
G1 X152.822 Y133.347 E.28057
G1 X152.287 Y133.346 E.01676
G1 X159.085 Y140.143 E.30157
G1 X158.996 Y140.415 E.00896
G1 X158.933 Y140.525 E.00399
G1 X151.753 Y133.345 E.31854
G1 X151.219 Y133.345 E.01676
G1 X158.712 Y140.837 E.33243
G1 X158.596 Y140.966 E.00543
G1 X158.429 Y141.088 E.0065
G1 X150.634 Y133.294 E.3458
G1 X150.252 Y133.193 E.01242
G1 X150.048 Y133.093 E.00711
G1 X149.821 Y132.915 E.00905
G1 X149.527 Y132.617 E.01313
G1 X149.39 Y132.424 E.00742
G1 X149.287 Y132.191 E.00799
G1 X149.196 Y131.856 E.01089
G1 X94.543 Y77.202 E2.42476
G1 X94.205 Y77.397 E.01225
G1 X158.106 Y141.299 E2.83506
G1 X157.768 Y141.494 E.01225
G1 X93.866 Y77.593 E2.83506
G1 X93.528 Y77.788 E.01225
G1 X157.43 Y141.689 E2.83506
G1 X157.091 Y141.885 E.01225
G1 X93.19 Y77.983 E2.83506
G1 X92.852 Y78.179 E.01225
G1 X156.753 Y142.08 E2.83506
G1 X156.415 Y142.275 E.01225
G1 X92.513 Y78.374 E2.83506
G1 X92.175 Y78.569 E.01225
G1 X156.076 Y142.471 E2.83506
G1 X155.738 Y142.666 E.01225
G1 X91.837 Y78.764 E2.83506
G1 X91.498 Y78.96 E.01225
G1 X155.4 Y142.861 E2.83506
G1 X155.062 Y143.057 E.01225
G1 X91.16 Y79.155 E2.83506
G1 X90.822 Y79.35 E.01225
G1 X154.723 Y143.252 E2.83506
G1 X154.385 Y143.447 E.01225
G1 X90.484 Y79.546 E2.83506
G1 X90.145 Y79.741 E.01225
G1 X154.047 Y143.642 E2.83506
G1 X153.709 Y143.838 E.01225
G1 X89.807 Y79.936 E2.83506
G1 X89.469 Y80.132 E.01225
G1 X153.37 Y144.033 E2.83506
G1 X153.032 Y144.228 E.01225
