; generated by PrusaSlicer 2.5.0+linux-x64-GTK2 on 2023-07-15 at 18:47:27 UTC

; 

; external perimeters extrusion width = 0.42mm
; perimeters extrusion width = 0.44mm
; infill extrusion width = 0.44mm
; solid infill extrusion width = 0.44mm
; top infill extrusion width = 0.40mm
; first layer extrusion width = 0.42mm

M107
;TYPE:Custom
G90 ; use absolute coordinates
M83 ; extruder relative mode
M140 S60 ; set final bed temp
M104 S150 ; set temporary nozzle temp to prevent oozing during homing
G4 S10 ; allow partial nozzle warmup
G28 ; home all axis
G1 Z50 F240
G1 X2 Y10 F3000
M104 S210 ; set final nozzle temp
M190 S60 ; wait for bed temp to stabilize
M109 S210 ; wait for nozzle temp to stabilize
G1 Z0.28 F240
G92 E0
G1 Y140 E10 F1500 ; prime the nozzle
G1 X2.3 F5000
G92 E0
G1 Y10 E10 F1200 ; prime the nozzle
G92 E0
G21 ; set units to millimeters
G90 ; use absolute coordinates
M83 ; use relative distances for extrusion
; Filament gcode
M107
;LAYER_CHANGE
;Z:0.2
;HEIGHT:0.2
;BEFORE_LAYER_CHANGE
G92 E0
;0.2


G1 E-5 F3600
G1 Z.2 F9000
;AFTER_LAYER_CHANGE
;0.2
G1 X77.559 Y77.969
G1 E5 F2400
M204 S500
;TYPE:Skirt/Brim
;WIDTH:0.42
G1 F1200
G1 X79.871 Y75.767 E.10013
G1 X82.153 Y73.832 E.0938
G1 X84.87 Y71.796 E.10646
G1 X87.538 Y70.041 E.10013
G1 X90.129 Y68.546 E.0938
G1 X92.983 Y67.112 E.10013
G1 X95.917 Y65.851 E.10013
G1 X98.921 Y64.768 E.10013
G1 X101.985 Y63.867 E.10013
G1 X105.295 Y63.111 E.10646
G1 X108.446 Y62.594 E.10013
G1 X111.422 Y62.281 E.0938
G1 X115.001 Y62.132 E.11231
G1 X118.007 Y62.183 E.09427
G1 X121.191 Y62.427 E.10013
G1 X124.155 Y62.829 E.0938
G1 X127.29 Y63.44 E.10013
G1 X130.754 Y64.352 E.11232
G1 X133.611 Y65.287 E.09427
G1 X136.582 Y66.459 E.10013
G1 X139.477 Y67.807 E.10013
G1 X142.111 Y69.225 E.0938
G1 X145.153 Y71.117 E.11231
G1 X147.608 Y72.853 E.09427
G1 X150.101 Y74.849 E.10013
G1 X152.47 Y76.99 E.10013
G1 X154.57 Y79.121 E.0938
G1 X156.675 Y81.522 E.10013
G1 X158.634 Y84.045 E.10013
G1 X160.546 Y86.85 E.10646
G1 X162.179 Y89.595 E.10013
G1 X163.557 Y92.25 E.0938
G1 X164.938 Y95.352 E.10646
G1 X166.055 Y98.344 E.10013
G1 X166.936 Y101.203 E.0938
G1 X167.741 Y104.501 E.10646
G1 X168.306 Y107.645 E.10013
G1 X168.681 Y110.816 E.10013
G1 X168.86 Y113.802 E.0938
G1 X168.866 Y116.996 E.10013
G1 X168.663 Y120.385 E.10646
G1 X168.276 Y123.555 E.10013
G1 X167.699 Y126.696 E.10013
G1 X166.936 Y129.797 E.10013
G1 X166.055 Y132.656 E.0938
G1 X164.862 Y135.835 E.10646
G1 X163.557 Y138.75 E.10013
G1 X162.081 Y141.582 E.10013
G1 X160.546 Y144.15 E.0938
G1 X158.752 Y146.792 E.10013
G1 X156.675 Y149.478 E.10646
G1 X154.57 Y151.879 E.10013
G1 X152.47 Y154.01 E.0938
G1 X149.801 Y156.398 E.11232
G1 X147.446 Y158.268 E.09427
G1 X144.831 Y160.101 E.10013
G1 X142.111 Y161.775 E.10013
G1 X139.477 Y163.193 E.0938
G1 X136.396 Y164.62 E.10646
G1 X133.421 Y165.781 E.10013
G1 X130.382 Y166.762 E.10013
G1 X127.29 Y167.56 E.10013
G1 X124.355 Y168.138 E.0938
G1 X120.99 Y168.594 E.10646
G1 X118.007 Y168.817 E.0938
G1 X114.814 Y168.871 E.10013
G1 X111.236 Y168.699 E.11231
G1 X108.246 Y168.379 E.09427
G1 X105.097 Y167.85 E.10013
G1 X101.985 Y167.133 E.10013
G1 X99.113 Y166.294 E.0938
G1 X96.105 Y165.223 E.10013
G1 X93.166 Y163.973 E.10013
G1 X90.129 Y162.454 E.10646
G1 X87.367 Y160.852 E.10013
G1 X84.87 Y159.204 E.0938
G1 X82.153 Y157.168 E.10646
G1 X79.721 Y155.098 E.10013
G1 X77.417 Y152.887 E.10013
G1 X75.382 Y150.694 E.0938
G1 X73.349 Y148.231 E.10013
G1 X71.353 Y145.484 E.10646
G1 X69.639 Y142.79 E.10013
G1 X68.089 Y139.997 E.10013
G1 X66.709 Y137.118 E.10013
G1 X65.575 Y134.349 E.0938
G1 X64.328 Y130.595 E.12402
G1 X63.633 Y128.056 E.08254
G1 X62.975 Y124.931 E.10013
G1 X62.505 Y121.772 E.10013
G1 X62.237 Y118.793 E.0938
G1 X62.136 Y115.399 E.10646
G1 X62.237 Y112.207 E.10013
G1 X62.505 Y109.228 E.0938
G1 X63.011 Y105.87 E.10646
G1 X63.681 Y102.748 E.10013
G1 X64.537 Y99.671 E.10013
G1 X65.575 Y96.651 E.10013
G1 X66.709 Y93.882 E.0938
G1 X68.182 Y90.823 E.10646
G1 X69.743 Y88.037 E.10013
G1 X71.353 Y85.516 E.0938
G1 X73.705 Y82.336 E.12402
G1 X75.382 Y80.306 E.08254
G1 X77.518 Y78.013 E.09825
G1 E-3.5 F3600
;WIPE_START
G1 F7200
G1 X79.688 Y75.942 E-1.425
;WIPE_END
G1 E-.075 F3600
G1 X81.188 Y81.687 F9000
G1 E5 F2400
;TYPE:Perimeter
;WIDTH:0.419999
G1 F1200
G1 X83.272 Y79.695 E.09039
G1 X85.471 Y77.831 E.09039
G1 X87.777 Y76.102 E.09038
G1 X90.183 Y74.513 E.09039
G1 X91.914 Y73.515 E.06264
G1 X91.706 Y73.914 E.01412
G1 X91.519 Y74.366 E.01533
G1 X91.405 Y74.794 E.01389
G1 X91.343 Y75.264 E.01485
G1 X91.341 Y75.721 E.01436
G1 X91.405 Y76.206 E.01533
G1 X91.519 Y76.634 E.01389
G1 X91.737 Y77.155 E.01772
G1 X92.226 Y77.857 E.02681
G1 X92.567 Y78.191 E.01498
G1 X93.234 Y78.653 E.02544
G1 X93.762 Y78.876 E.01796
G1 X94.19 Y78.991 E.01389
G1 X95.014 Y79.065 E.02596
G1 X95.602 Y78.991 E.01857
G1 X96.03 Y78.876 E.01389
G1 X96.777 Y78.531 E.02582
G1 X97.253 Y78.17 E.01872
G1 X97.587 Y77.829 E.01498
G1 X97.901 Y77.402 E.01659
G1 X98.078 Y77.1 E.011
G1 X98.272 Y76.634 E.01582
G1 X98.387 Y76.206 E.01389
G1 X98.464 Y75.448 E.0239
G1 X98.387 Y74.794 E.02065
G1 X98.299 Y74.437 E.01153
G1 X98.085 Y73.914 E.0177
G1 X97.864 Y73.531 E.01389
G1 X97.421 Y72.978 E.02219
G1 X96.865 Y72.532 E.02236
G1 X96.481 Y72.311 E.01389
G1 X96.029 Y72.124 E.01533
G1 X95.567 Y72.005 E.01498
G1 X94.928 Y71.948 E.0201
G1 X95.258 Y71.783 E.01156
G1 X97.909 Y70.65 E.09038
G1 X100.622 Y69.677 E.09038
G1 X103.389 Y68.869 E.09038
G1 X106.2 Y68.227 E.09039
G1 X109.044 Y67.755 E.09038
G1 X111.908 Y67.454 E.09029
G1 X114.971 Y67.327 E.09614
G1 X117.673 Y67.368 E.08471
G1 X120.547 Y67.583 E.09038
G1 X123.404 Y67.97 E.09039
G1 X126.232 Y68.527 E.09038
G1 X129.022 Y69.252 E.09039
G1 X131.764 Y70.143 E.09039
G1 X134.447 Y71.196 E.09038
G1 X136.071 Y71.948 E.0561
G1 X135.421 Y72.009 E.02048
G1 X134.993 Y72.124 E.01389
G1 X134.468 Y72.343 E.01783
G1 X133.77 Y72.83 E.02669
G1 X133.456 Y73.143 E.01389
G1 X133.159 Y73.531 E.01533
G1 X132.937 Y73.914 E.01389
G1 X132.675 Y74.591 E.02275
G1 X132.572 Y75.279 E.0218
G1 X132.572 Y75.721 E.01389
G1 X132.712 Y76.533 E.02583
G1 X132.937 Y77.086 E.01871
G1 X133.111 Y77.404 E.01138
G1 X133.457 Y77.857 E.01786
G1 X133.798 Y78.191 E.01498
G1 X134.224 Y78.505 E.01659
G1 X134.58 Y78.705 E.0128
G1 X135.31 Y78.973 E.02437
G1 X135.905 Y79.055 E.01885
G1 X136.32 Y79.058 E.01301
G1 X136.833 Y78.991 E.01621
G1 X137.223 Y78.892 E.01262
G1 X137.712 Y78.689 E.01661
G1 X138.096 Y78.468 E.01389
G1 X138.639 Y78.035 E.02177
G1 X139.095 Y77.469 E.02278
G1 X139.316 Y77.086 E.01389
G1 X139.6 Y76.315 E.02575
G1 X139.682 Y75.721 E.01879
G1 X139.682 Y75.279 E.01389
G1 X139.618 Y74.794 E.01533
G1 X139.503 Y74.366 E.01389
G1 X139.316 Y73.914 E.01533
G1 X139.056 Y73.481 E.01586
G1 X139.602 Y73.774 E.01943
G1 X142.054 Y75.29 E.09038
G1 X144.411 Y76.949 E.09039
G1 X146.665 Y78.746 E.09038
G1 X148.807 Y80.675 E.09039
G1 X150.83 Y82.729 E.09039
G1 X152.727 Y84.9 E.09039
G1 X154.49 Y87.18 E.09038
G1 X156.114 Y89.562 E.09039
G1 X157.262 Y91.484 E.0702
G1 X156.523 Y91.233 E.02447
G1 X156.019 Y91.182 E.01589
G1 X149.003 Y91.182 E.21998
G1 X148.304 Y91.271 E.0221
G1 X147.801 Y91.46 E.01687
G1 X147.417 Y91.682 E.01389
G1 X146.922 Y92.11 E.02052
G1 X146.6 Y92.54 E.01685
G1 X146.359 Y93.06 E.01796
G1 X146.245 Y93.488 E.01389
G1 X146.193 Y93.992 E.01589
G1 X146.193 Y127.008 E1.03519
G1 X146.245 Y127.512 E.01589
G1 X146.359 Y127.94 E.01389
G1 X146.564 Y128.399 E.01576
G1 X146.871 Y128.827 E.01652
G1 X147.132 Y129.098 E.01181
G1 X147.583 Y129.431 E.01755
G1 X148.071 Y129.652 E.01682
G1 X148.499 Y129.767 E.01389
G1 X149.003 Y129.818 E.01589
G1 X156.019 Y129.818 E.21998
G1 X156.615 Y129.752 E.01879
G1 X157.222 Y129.54 E.02016
G1 X157.838 Y129.14 E.02303
G1 X158.151 Y128.827 E.01389
G1 X158.494 Y128.334 E.01882
G1 X158.663 Y127.94 E.01345
G1 X158.778 Y127.512 E.01389
G1 X158.83 Y127.008 E.01589
G1 X158.83 Y94.419 E1.02179
G1 X160.157 Y97.398 E.10224
G1 X161.106 Y99.927 E.08471
G1 X161.956 Y102.682 E.09039
G1 X162.639 Y105.483 E.09039
G1 X163.154 Y108.319 E.09039
G1 X163.498 Y111.181 E.09038
G1 X163.67 Y114.059 E.09039
G1 X163.67 Y116.938 E.09029
G1 X163.476 Y119.999 E.09614
G1 X163.154 Y122.681 E.08471
G1 X162.639 Y125.517 E.09038
G1 X161.956 Y128.318 E.09039
G1 X161.107 Y131.07 E.09029
G1 X160.02 Y133.937 E.09614
G1 X158.921 Y136.405 E.08471
G1 X157.593 Y138.964 E.09039
G1 X156.114 Y141.438 E.09039
G1 X154.49 Y143.82 E.09038
G1 X152.727 Y146.1 E.09039
G1 X150.83 Y148.271 E.09039
G1 X148.809 Y150.323 E.09029
G1 X146.523 Y152.367 E.09614
G1 X144.411 Y154.051 E.08471
G1 X142.054 Y155.71 E.09039
G1 X139.602 Y157.226 E.09038
G1 X139.056 Y157.519 E.01943
G1 X139.316 Y157.086 E.01586
G1 X139.503 Y156.634 E.01533
G1 X139.618 Y156.206 E.01389
G1 X139.682 Y155.721 E.01533
G1 X139.682 Y155.279 E.01389
G1 X139.6 Y154.685 E.01879
G1 X139.316 Y153.914 E.02575
G1 X139.095 Y153.531 E.01389
G1 X138.639 Y152.965 E.02278
G1 X138.134 Y152.561 E.02027
G1 X137.73 Y152.318 E.01478
G1 X137.261 Y152.124 E.01594
G1 X136.798 Y152.005 E.01498
G1 X136.272 Y151.946 E.01659
G1 X135.925 Y151.944 E.01088
G1 X135.421 Y152.009 E.01595
G1 X135.063 Y152.096 E.01155
G1 X134.541 Y152.311 E.01768
G1 X134.215 Y152.49 E.01165
G1 X133.77 Y152.83 E.01758
G1 X133.494 Y153.096 E.01201
G1 X133.159 Y153.531 E.01722
G1 X132.966 Y153.849 E.01166
G1 X132.75 Y154.366 E.01757
G1 X132.636 Y154.794 E.01389
G1 X132.557 Y155.508 E.02251
G1 X132.636 Y156.206 E.02204
G1 X132.75 Y156.634 E.01389
G1 X133.047 Y157.304 E.02296
G1 X133.457 Y157.857 E.0216
G1 X133.798 Y158.191 E.01498
G1 X134.478 Y158.659 E.0259
G1 X134.993 Y158.876 E.0175
G1 X135.421 Y158.991 E.01389
G1 X136.064 Y159.055 E.02027
G1 X134.447 Y159.804 E.05585
G1 X131.767 Y160.856 E.09029
G1 X128.847 Y161.793 E.09615
G1 X126.232 Y162.473 E.08471
G1 X123.404 Y163.03 E.09038
G1 X120.547 Y163.417 E.09039
G1 X117.673 Y163.632 E.09038
G1 X114.79 Y163.675 E.09039
G1 X111.911 Y163.546 E.09038
G1 X109.044 Y163.245 E.09039
G1 X106.2 Y162.773 E.09038
G1 X103.389 Y162.131 E.09039
G1 X100.622 Y161.323 E.09038
G1 X97.909 Y160.35 E.09038
G1 X95.553 Y159.344 E.08031
G1 X94.933 Y159.055 E.02145
G1 X95.286 Y159.033 E.01109
G1 X96.03 Y158.876 E.02382
G1 X96.481 Y158.689 E.01533
G1 X96.865 Y158.468 E.01389
G1 X97.253 Y158.17 E.01533
G1 X97.587 Y157.829 E.01498
G1 X97.901 Y157.402 E.01659
G1 X98.101 Y157.047 E.0128
G1 X98.272 Y156.634 E.01401
G1 X98.387 Y156.206 E.01389
G1 X98.463 Y155.408 E.02515
G1 X98.387 Y154.794 E.01939
G1 X98.307 Y154.458 E.01081
G1 X98.085 Y153.914 E.01842
G1 X97.892 Y153.569 E.0124
G1 X97.566 Y153.143 E.01683
G1 X97.305 Y152.871 E.01182
G1 X96.865 Y152.532 E.01741
G1 X96.551 Y152.341 E.01152
G1 X96.029 Y152.124 E.01772
G1 X95.567 Y152.005 E.01498
G1 X94.71 Y151.942 E.02693
G1 X94.19 Y152.009 E.01646
G1 X93.762 Y152.124 E.01389
G1 X93.03 Y152.459 E.02523
G1 X92.539 Y152.83 E.01931
G1 X92.225 Y153.143 E.01389
G1 X91.736 Y153.847 E.02689
G1 X91.519 Y154.366 E.01762
G1 X91.405 Y154.794 E.01389
G1 X91.341 Y155.279 E.01533
G1 X91.341 Y155.721 E.01389
G1 X91.405 Y156.206 E.01533
G1 X91.519 Y156.634 E.01389
G1 X91.706 Y157.086 E.01533
G1 X91.962 Y157.513 E.01561
G1 X90.183 Y156.487 E.06438
G1 X87.78 Y154.9 E.09029
G1 X85.333 Y153.052 E.09614
G1 X83.272 Y151.305 E.08471
G1 X81.188 Y149.313 E.09039
G1 X79.228 Y147.2 E.09038
G1 X77.397 Y144.973 E.09038
G1 X75.702 Y142.641 E.09039
G1 X74.15 Y140.212 E.09038
G1 X72.747 Y137.694 E.09039
G1 X71.496 Y135.097 E.09039
G1 X70.403 Y132.43 E.09038
G1 X69.471 Y129.702 E.09038
G1 X68.704 Y126.923 E.09039
G1 X68.105 Y124.103 E.09039
G1 X67.675 Y121.253 E.09038
G1 X67.417 Y118.381 E.09039
G1 X67.33 Y115.503 E.09029
G1 X67.433 Y112.438 E.09614
G1 X67.675 Y109.747 E.08471
G1 X68.105 Y106.897 E.09038
G1 X68.704 Y104.077 E.09039
G1 X69.471 Y101.298 E.09039
G1 X70.403 Y98.57 E.09038
G1 X71.496 Y95.903 E.09038
G1 X72.193 Y94.456 E.05038
G1 X72.193 Y126.503 E1.00483
G1 X72.207 Y127.229 E.02278
G1 X72.291 Y127.742 E.01628
G1 X72.556 Y128.386 E.02182
G1 X72.871 Y128.827 E.017
G1 X73.417 Y129.318 E.02303
G1 X73.801 Y129.54 E.01389
G1 X74.499 Y129.767 E.02303
G1 X75.003 Y129.818 E.01589
G1 X82.019 Y129.818 E.21998
G1 X82.241 Y129.804 E.00696
G1 X82.834 Y129.695 E.01893
G1 X83.345 Y129.483 E.01734
G1 X83.838 Y129.14 E.01882
G1 X84.151 Y128.827 E.01389
G1 X84.459 Y128.399 E.01652
G1 X84.663 Y127.94 E.01576
G1 X84.778 Y127.512 E.01389
G1 X84.83 Y127.008 E.01589
G1 X84.83 Y93.992 E1.03519
G1 X84.778 Y93.488 E.01589
G1 X84.689 Y93.126 E.01169
G1 X84.462 Y92.607 E.01777
G1 X84.151 Y92.173 E.01672
G1 X83.892 Y91.904 E.01171
G1 X83.492 Y91.602 E.01572
G1 X82.951 Y91.348 E.01874
G1 X82.523 Y91.233 E.01389
G1 X82.019 Y91.182 E.01589
G1 X75.003 Y91.182 E.21998
G1 X74.499 Y91.233 E.01589
G1 X74.071 Y91.348 E.01389
G1 X73.764 Y91.481 E.01051
G1 X74.15 Y90.788 E.02489
G1 X75.702 Y88.359 E.09038
G1 X77.397 Y86.027 E.09039
G1 X79.228 Y83.8 E.09038
G1 X81.147 Y81.731 E.0885
G1 X80.92 Y81.422 F9000
G1 F1200
G1 X83.019 Y79.414 E.09109
G1 X85.236 Y77.536 E.09109
G1 X87.56 Y75.793 E.09109
G1 X89.985 Y74.193 E.09109
G1 X91.725 Y73.188 E.063
;WIDTH:0.467282
G1 X92.917 Y72.542 E.04785
;WIDTH:0.438005
G1 X93.305 Y72.332 E.01448
;WIDTH:0.419999
G1 X95.099 Y71.44 E.06283
G1 X97.771 Y70.299 E.09109
G1 X100.506 Y69.318 E.09109
G1 X103.295 Y68.504 E.09109
G1 X106.127 Y67.857 E.09109
G1 X108.993 Y67.381 E.09109
G1 X111.88 Y67.078 E.09102
G1 X114.966 Y66.95 E.09685
G1 X117.69 Y66.991 E.0854
G1 X120.587 Y67.208 E.09109
G1 X123.466 Y67.598 E.09109
G1 X126.316 Y68.159 E.09109
G1 X129.128 Y68.89 E.09109
G1 X131.891 Y69.788 E.09109
G1 X134.596 Y70.849 E.09109
G1 X136.407 Y71.689 E.06259
;WIDTH:0.436024
G1 X137.288 Y72.11 E.03191
G1 X138.068 Y72.519 E.02881
;WIDTH:0.458255
G1 X138.506 Y72.778 E.01758
G1 X139.29 Y73.178 E.0304
;WIDTH:0.419999
G1 X139.79 Y73.447 E.0178
G1 X142.262 Y74.975 E.09109
G1 X144.637 Y76.647 E.09109
G1 X146.909 Y78.458 E.09109
G1 X149.068 Y80.402 E.09109
G1 X151.107 Y82.472 E.09109
G1 X153.018 Y84.66 E.09109
G1 X154.796 Y86.958 E.09109
G1 X156.432 Y89.359 E.09109
G1 X157.782 Y91.619 E.08255
G1 X158.126 Y92.229 E.02196
;WIDTH:0.405381
G1 X158.263 Y92.466 E.00825
;WIDTH:0.379469
G1 X158.401 Y92.703 E.00766
;WIDTH:0.37716
G1 X158.642 Y93.192 E.01515
;WIDTH:0.419999
G1 X158.873 Y93.684 E.01703
G1 X159.259 Y94.429 E.02633
G1 X160.506 Y97.256 E.09685
G1 X161.463 Y99.806 E.0854
G1 X162.319 Y102.582 E.09109
G1 X163.008 Y105.404 E.09109
G1 X163.527 Y108.263 E.09109
G1 X163.874 Y111.147 E.09109
G1 X164.048 Y114.047 E.09109
G1 X164.048 Y116.95 E.09102
G1 X163.852 Y120.033 E.09685
G1 X163.527 Y122.737 E.0854
G1 X163.008 Y125.596 E.09109
G1 X162.319 Y128.418 E.09109
G1 X161.464 Y131.192 E.09102
G1 X160.368 Y134.08 E.09685
G1 X159.261 Y136.569 E.0854
G1 X157.922 Y139.147 E.09109
G1 X156.432 Y141.641 E.09109
G1 X154.796 Y144.042 E.09109
G1 X153.018 Y146.34 E.09109
G1 X151.107 Y148.528 E.09109
G1 X149.07 Y150.596 E.09102
G1 X146.767 Y152.655 E.09685
G1 X144.637 Y154.353 E.0854
G1 X142.262 Y156.025 E.09109
G1 X139.79 Y157.553 E.09109
G1 X139.29 Y157.822 E.0178
;WIDTH:0.456593
G1 X138.489 Y158.232 E.03096
G1 X137.724 Y158.669 E.03032
;WIDTH:0.439753
G1 X136.473 Y159.281 E.04595
;WIDTH:0.419999
G1 X134.596 Y160.151 E.06487
G1 X131.893 Y161.211 E.09102
G1 X128.952 Y162.155 E.09685
G1 X126.316 Y162.841 E.0854
G1 X123.466 Y163.402 E.09109
G1 X120.587 Y163.792 E.09109
G1 X117.69 Y164.009 E.09109
G1 X114.785 Y164.053 E.0911
G1 X111.882 Y163.922 E.09109
G1 X108.993 Y163.619 E.09109
G1 X106.127 Y163.143 E.09109
G1 X103.295 Y162.496 E.09109
G1 X100.506 Y161.682 E.09109
G1 X97.771 Y160.701 E.09109
G1 X95.099 Y159.56 E.09109
G1 X94.54 Y159.28 E.01962
;WIDTH:0.426104
G1 X93.021 Y158.521 E.0541
;WIDTH:0.419999
G1 X92.149 Y158.057 E.03099
G1 X89.985 Y156.807 E.07833
G1 X87.562 Y155.208 E.09102
G1 X85.097 Y153.347 E.09685
G1 X83.019 Y151.586 E.0854
G1 X80.92 Y149.578 E.09109
G1 X78.943 Y147.448 E.09109
G1 X77.098 Y145.204 E.09109
G1 X75.391 Y142.854 E.09109
G1 X73.827 Y140.405 E.09109
G1 X72.412 Y137.868 E.09109
G1 X71.151 Y135.25 E.09109
G1 X70.049 Y132.562 E.09109
G1 X69.11 Y129.813 E.09109
G1 X68.337 Y127.012 E.09109
G1 X67.733 Y124.17 E.09109
G1 X67.3 Y121.298 E.09109
